;FLAVOR:Marlin
;TIME:13503
;Filament used: 8.99128m
;Layer height: 0.14
;Generated with Cura_SteamEngine 4.0.0
M140 S65
M105
M190 S65
M104 S200
M105
M109 S200
M82 ;absolute extrusion mode
; Calibration part start here
M666 X0 Y0 Z0 ; Add your endstop values here after calibration
M665 L120.80 R61.70 ; Sets default Delta Radius (change when calibrating)
M301 P45.00 I0.07 D1000 ; Hot end settings
M304 P100 I0 D0 ; Bed heater settings
M500 ; Save settings

G90 ; switch to absolute positioning - this line was added in case Cura doesn't include it by default
M82 ; set extruder to absolute mode - this line was added in case Cura doesn't include it by default
G28 ; start from home position
G29 C-0.8 Z0.3 ; probe the bed at 3 points with a 0.3mm overall vertical offset and an additional -0.8mm center offset
G1 Z15.0 F4800  ; move the nozzle up 15mm
G92 E0 ; reset extrusion distance
G1 F200 E3 ; extrude 3mm of feed stock
G92 E0 ; reset extrusion distance again
G0 Z0.01;
G92 Z0;
G1 F4800
G92 E0
G1 F3000 E-4
;LAYER_COUNT:489
;LAYER:0
M107
G0 F3600 X-19.822 Y24.648 Z0.3
;TYPE:SKIRT
G1 F3000 E0
G1 F1650 X-20.628 Y24.608 E0.05284
G1 X-21.425 Y24.488 E0.10562
G1 X-22.207 Y24.291 E0.15842
G1 X-22.966 Y24.016 E0.21129
G1 X-23.693 Y23.668 E0.26406
G1 X-24.383 Y23.25 E0.31689
G1 X-25.028 Y22.765 E0.36973
G1 X-25.576 Y22.264 E0.41835
G1 X-25.729 Y22.111 E0.43252
G1 X-26.271 Y21.514 E0.48532
G1 X-26.75 Y20.865 E0.53814
G1 X-27.163 Y20.172 E0.59096
G1 X-27.506 Y19.442 E0.64378
G1 X-27.774 Y18.681 E0.69661
G1 X-27.966 Y17.897 E0.74946
G1 X-28.079 Y17.099 E0.80224
G1 X-28.113 Y16.357 E0.85088
G1 X-28.113 Y-16.357 E2.99302
G1 X-28.073 Y-17.163 E3.04586
G1 X-27.953 Y-17.96 E3.09864
G1 X-27.756 Y-18.742 E3.15144
G1 X-27.481 Y-19.501 E3.20431
G1 X-27.133 Y-20.228 E3.25708
G1 X-26.715 Y-20.918 E3.30991
G1 X-26.23 Y-21.563 E3.36275
G1 X-25.729 Y-22.111 E3.41137
G1 X-25.576 Y-22.264 E3.42554
G1 X-24.979 Y-22.806 E3.47834
G1 X-24.33 Y-23.285 E3.53116
G1 X-23.637 Y-23.698 E3.58398
G1 X-22.907 Y-24.041 E3.6368
G1 X-22.146 Y-24.309 E3.68963
G1 X-21.362 Y-24.501 E3.74248
G1 X-20.564 Y-24.614 E3.79526
G1 X-19.822 Y-24.648 E3.8439
G1 X19.823 Y-24.648 E6.43989
G1 X20.629 Y-24.608 E6.49273
G1 X21.426 Y-24.488 E6.5455
G1 X22.208 Y-24.291 E6.59831
G1 X22.967 Y-24.016 E6.65117
G1 X23.694 Y-23.668 E6.70395
G1 X24.384 Y-23.25 E6.75678
G1 X25.029 Y-22.765 E6.80962
G1 X25.577 Y-22.264 E6.85824
G1 X25.73 Y-22.111 E6.87241
G1 X26.272 Y-21.514 E6.92521
G1 X26.751 Y-20.865 E6.97802
G1 X27.164 Y-20.172 E7.03085
G1 X27.507 Y-19.442 E7.08366
G1 X27.775 Y-18.681 E7.13649
G1 X27.967 Y-17.897 E7.18935
G1 X28.08 Y-17.099 E7.24212
G1 X28.114 Y-16.357 E7.29076
G1 X28.114 Y16.357 E9.4329
G1 X28.074 Y17.163 E9.48575
G1 X27.954 Y17.96 E9.53852
G1 X27.757 Y18.742 E9.59133
G1 X27.482 Y19.501 E9.64419
G1 X27.134 Y20.228 E9.69697
G1 X26.716 Y20.918 E9.74979
G1 X26.231 Y21.563 E9.80264
G1 X25.73 Y22.111 E9.85126
G1 X25.577 Y22.264 E9.86542
G1 X24.98 Y22.806 E9.91822
G1 X24.331 Y23.285 E9.97104
G1 X23.638 Y23.698 E10.02387
G1 X22.908 Y24.041 E10.07668
G1 X22.147 Y24.309 E10.12951
G1 X21.363 Y24.501 E10.18237
G1 X20.565 Y24.614 E10.23514
G1 X19.823 Y24.648 E10.28378
G1 X-19.417 Y24.648 E12.85325
G0 F1485 X-19.822 Y24.648
G0 F3600 X-19.822 Y24.123
G1 F3000 E12.87977
G1 F1650 X-20.601 Y24.083 E12.93085
G1 X-21.372 Y23.964 E12.98193
G1 X-22.127 Y23.766 E13.03304
G1 X-22.857 Y23.492 E13.0841
G1 X-23.556 Y23.144 E13.13523
G1 X-24.215 Y22.728 E13.18626
G1 X-24.828 Y22.245 E13.23736
G1 X-25.205 Y21.893 E13.27113
G1 X-25.358 Y21.74 E13.2853
G1 X-25.881 Y21.161 E13.33639
G1 X-26.342 Y20.531 E13.38751
G1 X-26.735 Y19.858 E13.43854
G1 X-27.058 Y19.148 E13.48962
G1 X-27.306 Y18.408 E13.54072
G1 X-27.478 Y17.647 E13.59181
G1 X-27.571 Y16.872 E13.64292
G1 X-27.588 Y16.357 E13.67667
G1 X-27.588 Y-16.357 E15.81881
G1 X-27.548 Y-17.136 E15.86988
G1 X-27.429 Y-17.907 E15.92097
G1 X-27.231 Y-18.662 E15.97208
G1 X-26.957 Y-19.392 E16.02314
G1 X-26.609 Y-20.091 E16.07426
G1 X-26.193 Y-20.75 E16.1253
G1 X-25.71 Y-21.363 E16.1764
G1 X-25.358 Y-21.74 E16.21017
G1 X-25.205 Y-21.893 E16.22434
G1 X-24.626 Y-22.416 E16.27543
G1 X-23.996 Y-22.877 E16.32655
G1 X-23.323 Y-23.27 E16.37758
G1 X-22.613 Y-23.593 E16.42866
G1 X-21.873 Y-23.841 E16.47976
G1 X-21.112 Y-24.013 E16.53085
G1 X-20.337 Y-24.106 E16.58196
G1 X-19.822 Y-24.123 E16.6157
G1 X19.823 Y-24.123 E19.21169
G1 X20.602 Y-24.083 E19.26277
G1 X21.373 Y-23.964 E19.31385
G1 X22.128 Y-23.766 E19.36496
G1 X22.858 Y-23.492 E19.41602
G1 X23.557 Y-23.144 E19.46715
G1 X24.216 Y-22.728 E19.51818
G1 X24.829 Y-22.245 E19.56928
G1 X25.206 Y-21.893 E19.60306
G1 X25.359 Y-21.74 E19.61723
G1 X25.882 Y-21.161 E19.66832
G1 X26.343 Y-20.531 E19.71943
G1 X26.736 Y-19.858 E19.77047
G1 X27.059 Y-19.148 E19.82154
G1 X27.307 Y-18.408 E19.87265
G1 X27.479 Y-17.647 E19.92374
G1 X27.572 Y-16.872 E19.97485
G1 X27.589 Y-16.357 E20.00859
G1 X27.589 Y16.357 E22.15073
G1 X27.549 Y17.136 E22.20181
G1 X27.43 Y17.907 E22.25289
G1 X27.232 Y18.662 E22.304
G1 X26.958 Y19.392 E22.35506
G1 X26.61 Y20.091 E22.40619
G1 X26.194 Y20.75 E22.45722
G1 X25.711 Y21.363 E22.50832
G1 X25.359 Y21.74 E22.54209
G1 X25.206 Y21.893 E22.55626
G1 X24.627 Y22.416 E22.60735
G1 X23.997 Y22.877 E22.65847
G1 X23.324 Y23.27 E22.7095
G1 X22.614 Y23.593 E22.76058
G1 X21.874 Y23.841 E22.81168
G1 X21.113 Y24.013 E22.86277
G1 X20.338 Y24.106 E22.91388
G1 X19.823 Y24.123 E22.94763
G1 X-19.417 Y24.123 E25.5171
G0 F1485 X-19.822 Y24.123
G0 F3600 X-19.822 Y23.598
G1 F3000 E25.54362
G1 F1650 X-20.574 Y23.558 E25.59293
G1 X-21.317 Y23.439 E25.6422
G1 X-22.043 Y23.241 E25.69147
G1 X-22.745 Y22.967 E25.74082
G1 X-23.413 Y22.621 E25.79008
G1 X-24.041 Y22.206 E25.83937
G1 X-24.834 Y21.522 E25.90794
G1 X-24.987 Y21.369 E25.92211
G1 X-25.49 Y20.809 E25.9714
G1 X-25.931 Y20.199 E26.02069
G1 X-26.305 Y19.546 E26.06997
G1 X-26.608 Y18.857 E26.11925
G1 X-26.835 Y18.139 E26.16856
G1 X-26.986 Y17.401 E26.21789
G1 X-27.063 Y16.357 E26.28643
G1 X-27.063 Y-16.357 E28.42858
G1 X-27.023 Y-17.109 E28.47789
G1 X-26.904 Y-17.852 E28.52716
G1 X-26.706 Y-18.578 E28.57644
G1 X-26.432 Y-19.28 E28.62578
G1 X-26.086 Y-19.948 E28.67504
G1 X-25.671 Y-20.576 E28.72433
G1 X-24.987 Y-21.369 E28.79291
G1 X-24.834 Y-21.522 E28.80707
G1 X-24.274 Y-22.025 E28.85636
G1 X-23.664 Y-22.466 E28.90565
G1 X-23.011 Y-22.84 E28.95493
G1 X-22.322 Y-23.143 E29.00421
G1 X-21.604 Y-23.37 E29.05352
G1 X-20.866 Y-23.521 E29.10285
G1 X-19.822 Y-23.598 E29.1714
G1 X19.823 Y-23.598 E31.76739
G1 X20.575 Y-23.558 E31.8167
G1 X21.318 Y-23.439 E31.86597
G1 X22.044 Y-23.241 E31.91525
G1 X22.746 Y-22.967 E31.96459
G1 X23.414 Y-22.621 E32.01385
G1 X24.042 Y-22.206 E32.06314
G1 X24.835 Y-21.522 E32.13171
G1 X24.988 Y-21.369 E32.14588
G1 X25.491 Y-20.809 E32.19517
G1 X25.932 Y-20.199 E32.24446
G1 X26.306 Y-19.546 E32.29374
G1 X26.609 Y-18.857 E32.34302
G1 X26.836 Y-18.139 E32.39233
G1 X26.987 Y-17.401 E32.44166
G1 X27.064 Y-16.357 E32.51021
G1 X27.064 Y16.357 E34.65235
G1 X27.024 Y17.109 E34.70166
G1 X26.905 Y17.852 E34.75093
G1 X26.707 Y18.578 E34.80021
G1 X26.433 Y19.28 E34.84955
G1 X26.087 Y19.948 E34.89881
G1 X25.672 Y20.576 E34.9481
G1 X24.988 Y21.369 E35.01668
G1 X24.835 Y21.522 E35.03084
G1 X24.275 Y22.025 E35.08013
G1 X23.665 Y22.466 E35.12942
G1 X23.012 Y22.84 E35.1787
G1 X22.323 Y23.143 E35.22798
G1 X21.605 Y23.37 E35.27729
G1 X20.867 Y23.521 E35.32662
G1 X19.823 Y23.598 E35.39517
G1 X-19.417 Y23.598 E37.96464
G0 F1485 X-19.822 Y23.598
G0 F3600 X-19.822 Y23.073
G1 F3000 E37.99116
G1 F1650 X-20.545 Y23.033 E38.03857
G1 X-21.26 Y22.914 E38.08604
G1 X-21.957 Y22.716 E38.13348
G1 X-22.627 Y22.443 E38.18086
G1 X-23.264 Y22.098 E38.22829
G1 X-23.859 Y21.685 E38.27572
G1 X-24.463 Y21.151 E38.32851
G1 X-24.616 Y20.998 E38.34268
G1 X-25.099 Y20.458 E38.39012
G1 X-25.52 Y19.868 E38.43758
G1 X-25.873 Y19.236 E38.48498
G1 X-26.154 Y18.569 E38.53237
G1 X-26.36 Y17.874 E38.57984
G1 X-26.489 Y17.161 E38.62729
G1 X-26.538 Y16.357 E38.68003
G1 X-26.538 Y-16.357 E40.82217
G1 X-26.498 Y-17.08 E40.86959
G1 X-26.379 Y-17.795 E40.91705
G1 X-26.181 Y-18.492 E40.9645
G1 X-25.908 Y-19.162 E41.01187
G1 X-25.563 Y-19.799 E41.05931
G1 X-25.15 Y-20.394 E41.10673
G1 X-24.616 Y-20.998 E41.15953
G1 X-24.463 Y-21.151 E41.17369
G1 X-23.923 Y-21.634 E41.22113
G1 X-23.333 Y-22.055 E41.2686
G1 X-22.701 Y-22.408 E41.316
G1 X-22.034 Y-22.689 E41.36339
G1 X-21.339 Y-22.895 E41.41086
G1 X-20.626 Y-23.024 E41.4583
G1 X-19.822 Y-23.073 E41.51105
G1 X19.823 Y-23.073 E44.10704
G1 X20.546 Y-23.033 E44.15445
G1 X21.261 Y-22.914 E44.20191
G1 X21.958 Y-22.716 E44.24936
G1 X22.628 Y-22.443 E44.29674
G1 X23.265 Y-22.098 E44.34417
G1 X23.86 Y-21.685 E44.3916
G1 X24.464 Y-21.151 E44.44439
G1 X24.617 Y-20.998 E44.45856
G1 X25.1 Y-20.458 E44.506
G1 X25.521 Y-19.868 E44.55346
G1 X25.874 Y-19.236 E44.60086
G1 X26.155 Y-18.569 E44.64825
G1 X26.361 Y-17.874 E44.69572
G1 X26.49 Y-17.161 E44.74317
G1 X26.539 Y-16.357 E44.79591
G1 X26.539 Y16.357 E46.93805
G1 X26.499 Y17.08 E46.98547
G1 X26.38 Y17.795 E47.03293
G1 X26.182 Y18.492 E47.08038
G1 X25.909 Y19.162 E47.12775
G1 X25.564 Y19.799 E47.17519
G1 X25.151 Y20.394 E47.22261
G1 X24.617 Y20.998 E47.27541
G1 X24.464 Y21.151 E47.28957
G1 X23.924 Y21.634 E47.33701
G1 X23.334 Y22.055 E47.38447
G1 X22.702 Y22.408 E47.43188
G1 X22.035 Y22.689 E47.47927
G1 X21.34 Y22.895 E47.52674
G1 X20.627 Y23.024 E47.57418
G1 X19.823 Y23.073 E47.62693
G1 X-19.417 Y23.073 E50.1964
G0 F1485 X-19.822 Y23.073
G0 F3600 X-19.822 Y22.548
G1 F3000 E50.22292
G1 F1650 X-20.516 Y22.508 E50.26844
G1 X-21.2 Y22.389 E50.3139
G1 X-21.866 Y22.191 E50.35939
G1 X-22.505 Y21.919 E50.40487
G1 X-23.109 Y21.575 E50.45038
G1 X-23.669 Y21.164 E50.49587
G1 X-24.092 Y20.78 E50.53328
G1 X-24.245 Y20.627 E50.54745
G1 X-24.707 Y20.108 E50.59295
G1 X-25.106 Y19.539 E50.63845
G1 X-25.438 Y18.929 E50.68393
G1 X-25.697 Y18.284 E50.72944
G1 X-25.881 Y17.614 E50.77494
G1 X-25.986 Y16.928 E50.82038
G1 X-26.013 Y16.357 E50.85781
G1 X-26.013 Y-16.357 E52.99995
G1 X-25.973 Y-17.051 E53.04547
G1 X-25.854 Y-17.735 E53.09094
G1 X-25.656 Y-18.401 E53.13643
G1 X-25.384 Y-19.04 E53.18191
G1 X-25.04 Y-19.644 E53.22742
G1 X-24.629 Y-20.204 E53.27291
G1 X-24.245 Y-20.627 E53.31032
G1 X-24.092 Y-20.78 E53.32449
G1 X-23.573 Y-21.242 E53.36998
G1 X-23.004 Y-21.641 E53.41549
G1 X-22.394 Y-21.973 E53.46097
G1 X-21.749 Y-22.232 E53.50648
G1 X-21.079 Y-22.416 E53.55198
G1 X-20.393 Y-22.521 E53.59742
G1 X-19.822 Y-22.548 E53.63485
G1 X19.823 Y-22.548 E56.23084
G1 X20.517 Y-22.508 E56.27636
G1 X21.201 Y-22.389 E56.32182
G1 X21.867 Y-22.191 E56.36732
G1 X22.506 Y-21.919 E56.41279
G1 X23.11 Y-21.575 E56.45831
G1 X23.67 Y-21.164 E56.50379
G1 X24.093 Y-20.78 E56.5412
G1 X24.246 Y-20.627 E56.55537
G1 X24.708 Y-20.108 E56.60087
G1 X25.107 Y-19.539 E56.64638
G1 X25.439 Y-18.929 E56.69185
G1 X25.698 Y-18.284 E56.73737
G1 X25.882 Y-17.614 E56.78286
G1 X25.987 Y-16.928 E56.82831
G1 X26.014 Y-16.357 E56.86574
G1 X26.014 Y16.357 E59.00788
G1 X25.974 Y17.051 E59.0534
G1 X25.855 Y17.735 E59.09886
G1 X25.657 Y18.401 E59.14436
G1 X25.385 Y19.04 E59.18983
G1 X25.041 Y19.644 E59.23535
G1 X24.63 Y20.204 E59.28083
G1 X24.246 Y20.627 E59.31824
G1 X24.093 Y20.78 E59.33241
G1 X23.574 Y21.242 E59.37791
G1 X23.005 Y21.641 E59.42342
G1 X22.395 Y21.973 E59.46889
G1 X21.75 Y22.232 E59.51441
G1 X21.08 Y22.416 E59.5599
G1 X20.394 Y22.521 E59.60534
G1 X19.823 Y22.548 E59.64278
G1 X-19.417 Y22.548 E62.21225
G0 F1485 X-19.822 Y22.548
G0 F3600 X-19.822 Y22.023
G1 F3000 E62.23877
G1 F1650 X-20.485 Y21.983 E62.28226
G1 X-21.138 Y21.864 E62.32572
G1 X-21.772 Y21.667 E62.3692
G1 X-22.377 Y21.395 E62.41263
G1 X-22.946 Y21.053 E62.4561
G1 X-23.469 Y20.644 E62.49958
G1 X-23.72 Y20.408 E62.52214
G1 X-23.873 Y20.255 E62.5363
G1 X-24.314 Y19.758 E62.57981
G1 X-24.691 Y19.212 E62.62326
G1 X-25 Y18.625 E62.6667
G1 X-25.236 Y18.005 E62.71014
G1 X-25.396 Y17.36 E62.75365
G1 X-25.477 Y16.701 E62.79713
G1 X-25.488 Y16.357 E62.81967
G1 X-25.488 Y-16.357 E64.96181
G1 X-25.448 Y-17.02 E65.0053
G1 X-25.329 Y-17.673 E65.04876
G1 X-25.132 Y-18.307 E65.09224
G1 X-24.86 Y-18.912 E65.13567
G1 X-24.518 Y-19.481 E65.17914
G1 X-24.109 Y-20.004 E65.22262
G1 X-23.873 Y-20.255 E65.24518
G1 X-23.72 Y-20.408 E65.25935
G1 X-23.223 Y-20.849 E65.30286
G1 X-22.677 Y-21.226 E65.3463
G1 X-22.09 Y-21.535 E65.38974
G1 X-21.47 Y-21.771 E65.43318
G1 X-20.825 Y-21.931 E65.4767
G1 X-20.166 Y-22.012 E65.52017
G1 X-19.822 Y-22.023 E65.54271
G1 X19.823 Y-22.023 E68.1387
G1 X20.486 Y-21.983 E68.18219
G1 X21.139 Y-21.864 E68.22566
G1 X21.773 Y-21.667 E68.26913
G1 X22.378 Y-21.395 E68.31256
G1 X22.947 Y-21.053 E68.35603
G1 X23.47 Y-20.644 E68.39951
G1 X23.721 Y-20.408 E68.42207
G1 X23.874 Y-20.255 E68.43624
G1 X24.315 Y-19.758 E68.47975
G1 X24.692 Y-19.212 E68.52319
G1 X25.001 Y-18.625 E68.56663
G1 X25.237 Y-18.005 E68.61007
G1 X25.397 Y-17.36 E68.65359
G1 X25.478 Y-16.701 E68.69706
G1 X25.489 Y-16.357 E68.7196
G1 X25.489 Y16.357 E70.86174
G1 X25.449 Y17.02 E70.90523
G1 X25.33 Y17.673 E70.9487
G1 X25.133 Y18.307 E70.99217
G1 X24.861 Y18.912 E71.03561
G1 X24.519 Y19.481 E71.07908
G1 X24.11 Y20.004 E71.12255
G1 X23.874 Y20.255 E71.14511
G1 X23.721 Y20.408 E71.15928
G1 X23.224 Y20.849 E71.20279
G1 X22.678 Y21.226 E71.24624
G1 X22.091 Y21.535 E71.28967
G1 X21.471 Y21.771 E71.33311
G1 X20.826 Y21.931 E71.37663
G1 X20.167 Y22.012 E71.42011
G1 X19.823 Y22.023 E71.44264
G1 X-19.417 Y22.023 E74.01211
G0 F1485 X-19.822 Y22.023
G0 F3600 X-19.822 Y21.498
G1 F3000 E74.03863
G1 F1650 X-20.452 Y21.458 E74.07997
G1 X-21.072 Y21.339 E74.12131
G1 X-21.672 Y21.142 E74.16266
G1 X-22.242 Y20.871 E74.20399
G1 X-22.774 Y20.531 E74.24533
G1 X-23.349 Y20.037 E74.29497
G1 X-23.502 Y19.884 E74.30914
G1 X-23.919 Y19.41 E74.35048
G1 X-24.273 Y18.888 E74.39178
G1 X-24.559 Y18.324 E74.43318
G1 X-24.77 Y17.729 E74.47452
G1 X-24.905 Y17.113 E74.51582
G1 X-24.963 Y16.357 E74.56546
G1 X-24.963 Y-16.357 E76.70761
G1 X-24.923 Y-16.987 E76.74894
G1 X-24.804 Y-17.607 E76.79028
G1 X-24.607 Y-18.207 E76.83163
G1 X-24.336 Y-18.777 E76.87296
G1 X-23.996 Y-19.309 E76.9143
G1 X-23.502 Y-19.884 E76.96394
G1 X-23.349 Y-20.037 E76.97811
G1 X-22.875 Y-20.454 E77.01945
G1 X-22.353 Y-20.808 E77.06075
G1 X-21.789 Y-21.094 E77.10216
G1 X-21.194 Y-21.305 E77.1435
G1 X-20.578 Y-21.44 E77.18479
G1 X-19.822 Y-21.498 E77.23444
G1 X19.823 Y-21.498 E79.83043
G1 X20.453 Y-21.458 E79.87177
G1 X21.073 Y-21.339 E79.9131
G1 X21.673 Y-21.142 E79.95446
G1 X22.243 Y-20.871 E79.99578
G1 X22.775 Y-20.531 E80.03713
G1 X23.35 Y-20.037 E80.08677
G1 X23.503 Y-19.884 E80.10093
G1 X23.92 Y-19.41 E80.14227
G1 X24.274 Y-18.888 E80.18357
G1 X24.56 Y-18.324 E80.22498
G1 X24.771 Y-17.729 E80.26632
G1 X24.906 Y-17.113 E80.30761
G1 X24.964 Y-16.357 E80.35726
G1 X24.964 Y16.357 E82.4994
G1 X24.924 Y16.987 E82.54074
G1 X24.805 Y17.607 E82.58208
G1 X24.608 Y18.207 E82.62343
G1 X24.337 Y18.777 E82.66476
G1 X23.997 Y19.309 E82.7061
G1 X23.503 Y19.884 E82.75574
G1 X23.35 Y20.037 E82.76991
G1 X22.876 Y20.454 E82.81125
G1 X22.354 Y20.808 E82.85255
G1 X21.79 Y21.094 E82.89396
G1 X21.195 Y21.305 E82.93529
G1 X20.579 Y21.44 E82.97659
G1 X19.823 Y21.498 E83.02624
G1 X-19.417 Y21.498 E85.59571
G0 F1485 X-19.822 Y21.498
G0 F3600 X-19.822 Y20.973
G1 F3000 E85.62223
G1 F1650 X-20.418 Y20.933 E85.66134
G1 X-21.003 Y20.814 E85.70043
G1 X-21.567 Y20.618 E85.73953
G1 X-22.1 Y20.348 E85.77865
G1 X-22.592 Y20.009 E85.81778
G1 X-22.978 Y19.666 E85.85159
G1 X-23.131 Y19.513 E85.86576
G1 X-23.524 Y19.063 E85.90488
G1 X-23.853 Y18.565 E85.94396
G1 X-24.114 Y18.028 E85.98306
G1 X-24.3 Y17.46 E86.0222
