;FLAVOR:Marlin
;TIME:13021
;Filament used: 7.523m
;Layer height: 0.14
;Generated with Cura_SteamEngine 4.0.0
M140 S65
M105
M190 S65
M104 S200
M105
M109 S200
M82 ;absolute extrusion mode
; Calibration part start here
M666 X0 Y0 Z0 ; Add your endstop values here after calibration
M665 L120.80 R61.70 ; Sets default Delta Radius (change when calibrating)
M301 P45.00 I0.07 D1000 ; Hot end settings
M304 P100 I0 D0 ; Bed heater settings
M500 ; Save settings

G90 ; switch to absolute positioning - this line was added in case Cura doesn't include it by default
M82 ; set extruder to absolute mode - this line was added in case Cura doesn't include it by default
G28 ; start from home position
G29 C-0.8 Z0.3 ; probe the bed at 3 points with a 0.3mm overall vertical offset and an additional -0.8mm center offset
G1 Z15.0 F4800  ; move the nozzle up 15mm
G92 E0 ; reset extrusion distance
G1 F200 E3 ; extrude 3mm of feed stock
G92 E0 ; reset extrusion distance again
G0 Z0.01;
G92 Z0;
G1 F4800
G92 E0
G1 F3000 E-4
;LAYER_COUNT:142
;LAYER:0
M107
G0 F3600 X36.685 Y32.094 Z0.3
;TYPE:SKIRT
G1 F3000 E0
G1 F1650 X-37.128 Y32.061 E4.83334
G1 X-37.933 Y32.021 E4.88612
G1 X-38.731 Y31.901 E4.93896
G1 X-39.397 Y31.737 E4.98387
G1 X-40.229 Y31.495 E5.04061
G1 X-40.991 Y31.232 E5.0934
G1 X-41.724 Y30.894 E5.14625
G1 X-42.277 Y30.577 E5.18799
G1 X-43.016 Y30.114 E5.24509
G1 X-43.677 Y29.653 E5.29786
G1 X-44.29 Y29.128 E5.35071
G1 X-44.674 Y28.739 E5.3865
G1 X-45.276 Y28.087 E5.44461
G1 X-45.793 Y27.468 E5.49742
G1 X-46.247 Y26.8 E5.55031
G1 X-46.465 Y26.418 E5.57911
G1 X-46.896 Y25.616 E5.63873
G1 X-47.243 Y24.888 E5.69154
G1 X-47.515 Y24.129 E5.74433
G1 X-47.631 Y23.707 E5.77299
G1 X-47.851 Y22.812 E5.83334
G1 X-48.004 Y22.02 E5.88616
G1 X-48.086 Y20.874 E5.96139
G1 X-48.113 Y-20.317 E8.65862
G1 X-48.062 Y-21.228 E8.71836
G1 X-47.949 Y-22.237 E8.78485
G1 X-47.82 Y-23.033 E8.83765
G1 X-47.612 Y-23.812 E8.89045
G1 X-47.458 Y-24.251 E8.92091
G1 X-47.129 Y-25.107 E8.98096
G1 X-46.803 Y-25.844 E9.03373
G1 X-46.405 Y-26.546 E9.08657
G1 X-46.143 Y-26.934 E9.11723
G1 X-45.613 Y-27.672 E9.17672
G1 X-45.111 Y-28.303 E9.22952
G1 X-44.548 Y-28.881 E9.28236
G1 X-44.162 Y-29.219 E9.31595
G1 X-43.48 Y-29.778 E9.37369
G1 X-42.831 Y-30.258 E9.42655
G1 X-42.139 Y-30.671 E9.47932
G1 X-41.605 Y-30.93 E9.51818
G1 X-40.807 Y-31.282 E9.5753
G1 X-40.054 Y-31.57 E9.62809
G1 X-39.276 Y-31.783 E9.6809
G1 X-38.683 Y-31.891 E9.72037
G1 X-37.85 Y-32.011 E9.77548
G1 X-36.687 Y-32.094 E9.85183
G1 X37.143 Y-32.066 E14.68628
G1 X37.949 Y-32.026 E14.73913
G1 X38.746 Y-31.906 E14.7919
G1 X39.379 Y-31.752 E14.83456
G1 X40.207 Y-31.515 E14.89096
G1 X40.971 Y-31.255 E14.9438
G1 X41.705 Y-30.92 E14.99663
G1 X42.228 Y-30.625 E15.03595
G1 X42.954 Y-30.179 E15.09175
G1 X43.619 Y-29.723 E15.14455
G1 X44.236 Y-29.204 E15.19734
G1 X44.63 Y-28.812 E15.23373
G1 X45.233 Y-28.169 E15.29146
G1 X45.755 Y-27.554 E15.34428
G1 X46.214 Y-26.89 E15.39713
G1 X46.458 Y-26.468 E15.42905
G1 X46.884 Y-25.679 E15.48777
G1 X47.231 Y-24.951 E15.54057
G1 X47.505 Y-24.193 E15.59335
G1 X47.614 Y-23.801 E15.62
G1 X47.837 Y-22.916 E15.67976
G1 X47.995 Y-22.125 E15.73258
G1 X48.084 Y-20.934 E15.81078
G1 X48.113 Y20.273 E18.50905
G1 X48.065 Y21.163 E18.56742
G1 X47.95 Y22.216 E18.63678
G1 X47.823 Y23.012 E18.68956
G1 X47.617 Y23.792 E18.74238
G1 X47.453 Y24.26 E18.77486
G1 X47.121 Y25.121 E18.83528
G1 X46.794 Y25.858 E18.88808
G1 X46.395 Y26.559 E18.9409
G1 X46.151 Y26.921 E18.96948
G1 X45.632 Y27.648 E19.02797
G1 X45.132 Y28.281 E19.08079
G1 X44.571 Y28.861 E19.13363
G1 X44.174 Y29.209 E19.1682
G1 X43.486 Y29.774 E19.2265
G1 X42.838 Y30.254 E19.2793
G1 X42.145 Y30.668 E19.33216
G1 X41.6 Y30.933 E19.37184
G1 X40.805 Y31.283 E19.42872
G1 X40.052 Y31.571 E19.48151
G1 X39.273 Y31.783 E19.53438
G1 X38.69 Y31.889 E19.57318
G1 X37.853 Y32.01 E19.62855
G1 X37.088 Y32.065 E19.67878
G0 F1485 X36.685 Y32.094
G0 F3600 X36.686 Y31.569
G1 F3000 E19.7053
G1 F1650 X-37.127 Y31.536 E24.53864
G1 X-37.907 Y31.496 E24.58978
G1 X-38.677 Y31.376 E24.64081
G1 X-39.25 Y31.233 E24.67948
G1 X-40.082 Y30.991 E24.73622
G1 X-40.819 Y30.735 E24.78731
G1 X-41.526 Y30.405 E24.8384
G1 X-41.998 Y30.132 E24.8741
G1 X-42.737 Y29.669 E24.9312
G1 X-43.376 Y29.222 E24.98227
G1 X-43.966 Y28.711 E25.03338
G1 X-44.288 Y28.382 E25.06352
G1 X-44.89 Y27.73 E25.12163
G1 X-45.39 Y27.131 E25.17272
G1 X-46.003 Y26.17 E25.24736
G1 X-46.434 Y25.368 E25.30698
G1 X-46.768 Y24.663 E25.35806
G1 X-47.121 Y23.581 E25.43259
G1 X-47.341 Y22.686 E25.49294
G1 X-47.488 Y21.92 E25.54401
G1 X-47.561 Y20.874 E25.61267
G1 X-47.588 Y-20.317 E28.30989
G1 X-47.541 Y-21.169 E28.36577
G1 X-47.428 Y-22.178 E28.43225
G1 X-47.301 Y-22.948 E28.48335
G1 X-46.968 Y-24.062 E28.55949
G1 X-46.639 Y-24.918 E28.61954
G1 X-46.322 Y-25.631 E28.67063
G1 X-45.717 Y-26.628 E28.747
G1 X-45.187 Y-27.366 E28.80649
G1 X-44.7 Y-27.975 E28.85755
G1 X-44.153 Y-28.532 E28.90867
G1 X-43.829 Y-28.813 E28.93676
G1 X-43.147 Y-29.372 E28.9945
G1 X-42.519 Y-29.835 E29.04559
G1 X-41.847 Y-30.231 E29.09666
G1 X-41.393 Y-30.449 E29.12964
G1 X-40.595 Y-30.801 E29.18675
G1 X-39.866 Y-31.079 E29.23784
G1 X-39.113 Y-31.281 E29.28889
G1 X-38.609 Y-31.371 E29.32242
G1 X-37.776 Y-31.491 E29.37752
G1 X-36.687 Y-31.569 E29.44902
G1 X37.143 Y-31.541 E34.28347
G1 X37.922 Y-31.501 E34.33455
G1 X38.693 Y-31.381 E34.38564
G1 X39.235 Y-31.247 E34.4222
G1 X40.063 Y-31.01 E34.4786
G1 X40.801 Y-30.757 E34.52968
G1 X41.509 Y-30.43 E34.58075
G1 X41.953 Y-30.178 E34.61418
G1 X42.679 Y-29.732 E34.66997
G1 X43.322 Y-29.29 E34.72106
G1 X43.916 Y-28.784 E34.77216
G1 X44.247 Y-28.453 E34.80281
G1 X44.85 Y-27.81 E34.86053
G1 X45.354 Y-27.214 E34.91164
G1 X45.794 Y-26.57 E34.96271
G1 X45.996 Y-26.219 E34.98923
G1 X46.422 Y-25.43 E35.04795
G1 X46.757 Y-24.725 E35.09906
G1 X47.105 Y-23.673 E35.17161
G1 X47.328 Y-22.788 E35.23138
G1 X47.48 Y-22.023 E35.28245
G1 X47.559 Y-20.933 E35.35401
G1 X47.588 Y20.274 E38.05228
G1 X47.543 Y21.106 E38.10684
G1 X47.428 Y22.159 E38.1762
G1 X47.304 Y22.929 E38.22727
G1 X47.101 Y23.682 E38.27834
G1 X46.963 Y24.071 E38.30537
G1 X46.631 Y24.932 E38.36579
G1 X46.314 Y25.645 E38.41689
G1 X45.724 Y26.616 E38.49129
G1 X45.205 Y27.343 E38.54978
G1 X44.72 Y27.954 E38.60086
G1 X44.175 Y28.512 E38.65193
G1 X43.841 Y28.803 E38.68094
G1 X43.153 Y29.368 E38.73923
G1 X42.525 Y29.832 E38.79036
G1 X41.853 Y30.229 E38.84147
G1 X41.389 Y30.453 E38.87521
G1 X40.594 Y30.803 E38.93209
G1 X39.864 Y31.08 E38.98322
G1 X39.111 Y31.281 E39.03425
G1 X38.615 Y31.37 E39.06725
G1 X37.778 Y31.491 E39.12262
G1 X37.09 Y31.541 E39.16779
G0 F1485 X36.686 Y31.569
G0 F3600 X36.686 Y31.044
G1 F3000 E39.19431
G1 F1650 X-37.127 Y31.011 E44.02765
G1 X-37.879 Y30.971 E44.07697
G1 X-38.622 Y30.851 E44.12625
G1 X-39.104 Y30.729 E44.15881
G1 X-39.936 Y30.487 E44.21554
G1 X-40.646 Y30.239 E44.26479
G1 X-41.327 Y29.916 E44.31414
G1 X-41.719 Y29.687 E44.34387
G1 X-42.458 Y29.224 E44.40097
G1 X-43.074 Y28.792 E44.45024
G1 X-43.903 Y28.026 E44.52415
G1 X-44.505 Y27.374 E44.58226
G1 X-44.985 Y26.795 E44.63151
G1 X-45.541 Y25.921 E44.69934
G1 X-45.972 Y25.119 E44.75896
G1 X-46.292 Y24.438 E44.80823
G1 X-46.611 Y23.456 E44.87584
G1 X-46.831 Y22.561 E44.93619
G1 X-46.972 Y21.821 E44.98551
G1 X-47.036 Y20.874 E45.04766
G1 X-47.063 Y-20.317 E47.74489
G1 X-47.019 Y-21.111 E47.79696
G1 X-46.906 Y-22.12 E47.86344
G1 X-46.783 Y-22.862 E47.91269
G1 X-46.478 Y-23.874 E47.9819
G1 X-46.149 Y-24.73 E48.04195
G1 X-45.842 Y-25.417 E48.09123
G1 X-45.29 Y-26.322 E48.16064
G1 X-44.76 Y-27.06 E48.22014
G1 X-44.289 Y-27.647 E48.26942
G1 X-43.496 Y-28.407 E48.34134
G1 X-42.814 Y-28.966 E48.39908
G1 X-42.208 Y-29.411 E48.44831
G1 X-41.557 Y-29.79 E48.49764
G1 X-41.182 Y-29.969 E48.52485
G1 X-40.384 Y-30.321 E48.58196
G1 X-39.68 Y-30.588 E48.63126
G1 X-38.952 Y-30.779 E48.68055
G1 X-38.534 Y-30.852 E48.70833
G1 X-37.701 Y-30.972 E48.76344
G1 X-36.687 Y-31.044 E48.83
G1 X37.143 Y-31.016 E53.66446
G1 X37.894 Y-30.976 E53.7137
G1 X38.638 Y-30.856 E53.76305
G1 X39.09 Y-30.742 E53.79358
G1 X39.918 Y-30.505 E53.84997
G1 X40.63 Y-30.26 E53.89928
G1 X41.312 Y-29.941 E53.94858
G1 X41.678 Y-29.73 E53.97624
G1 X42.404 Y-29.284 E54.03204
G1 X43.024 Y-28.857 E54.08133
G1 X43.594 Y-28.366 E54.13059
G1 X43.864 Y-28.094 E54.15569
G1 X44.467 Y-27.451 E54.21341
G1 X44.952 Y-26.875 E54.26272
G1 X45.534 Y-25.969 E54.33323
G1 X45.96 Y-25.18 E54.39194
G1 X46.282 Y-24.5 E54.44121
G1 X46.596 Y-23.545 E54.50704
G1 X46.819 Y-22.66 E54.5668
G1 X46.964 Y-21.921 E54.61611
G1 X47.034 Y-20.933 E54.68097
G1 X47.063 Y20.274 E57.37924
G1 X47.021 Y21.049 E57.43006
G1 X46.906 Y22.102 E57.49943
G1 X46.785 Y22.844 E57.54865
G1 X46.473 Y23.882 E57.61963
G1 X46.141 Y24.743 E57.68005
G1 X45.834 Y25.43 E57.72933
G1 X45.297 Y26.311 E57.79689
G1 X44.778 Y27.038 E57.85538
G1 X44.309 Y27.627 E57.90468
G1 X43.507 Y28.398 E57.97753
G1 X42.819 Y28.963 E58.03582
G1 X42.213 Y29.409 E58.08509
G1 X41.563 Y29.788 E58.13436
G1 X41.177 Y29.972 E58.16236
G1 X40.382 Y30.322 E58.21924
G1 X39.678 Y30.588 E58.26852
G1 X38.95 Y30.779 E58.3178
G1 X38.54 Y30.85 E58.34505
G1 X37.703 Y30.971 E58.40043
G1 X37.09 Y31.015 E58.44067
G0 F1485 X36.686 Y31.044
G0 F3600 X36.686 Y30.519
G1 F3000 E58.46719
G1 F1650 X-37.127 Y30.486 E63.30053
G1 X-37.85 Y30.446 E63.34795
G1 X-38.564 Y30.326 E63.39535
G1 X-38.957 Y30.225 E63.42192
G1 X-39.789 Y29.983 E63.47866
G1 X-40.472 Y29.742 E63.52609
G1 X-41.125 Y29.428 E63.57353
G1 X-41.44 Y29.243 E63.59745
G1 X-42.179 Y28.78 E63.65456
G1 X-42.771 Y28.362 E63.70201
G1 X-43.517 Y27.67 E63.76864
G1 X-44.119 Y27.018 E63.82675
G1 X-44.58 Y26.46 E63.87414
G1 X-45.078 Y25.673 E63.93513
G1 X-45.509 Y24.871 E63.99475
G1 X-45.816 Y24.215 E64.04217
G1 X-46.101 Y23.331 E64.10299
G1 X-46.321 Y22.436 E64.16334
G1 X-46.455 Y21.724 E64.21078
G1 X-46.511 Y20.873 E64.26663
G1 X-46.538 Y-20.318 E66.96385
G1 X-46.497 Y-21.052 E67.01199
G1 X-46.384 Y-22.061 E67.07847
G1 X-46.264 Y-22.776 E67.12595
G1 X-45.988 Y-23.686 E67.18822
G1 X-45.659 Y-24.542 E67.24827
G1 X-45.362 Y-25.202 E67.29566
G1 X-44.864 Y-26.015 E67.35809
G1 X-44.334 Y-26.753 E67.41758
G1 X-43.879 Y-27.317 E67.46503
G1 X-43.163 Y-28.001 E67.52987
G1 X-42.481 Y-28.56 E67.58761
G1 X-41.897 Y-28.987 E67.63499
G1 X-40.97 Y-29.489 E67.70402
G1 X-40.172 Y-29.841 E67.76113
G1 X-39.494 Y-30.096 E67.80856
G1 X-38.459 Y-30.332 E67.87807
G1 X-37.626 Y-30.452 E67.93318
G1 X-36.688 Y-30.519 E67.99476
G1 X37.142 Y-30.491 E72.82921
G1 X37.866 Y-30.451 E72.87669
G1 X38.58 Y-30.331 E72.9241
G1 X38.946 Y-30.238 E72.94883
G1 X39.774 Y-30.001 E73.00523
G1 X40.458 Y-29.763 E73.05265
G1 X41.403 Y-29.283 E73.12205
G1 X42.129 Y-28.837 E73.17785
G1 X42.725 Y-28.424 E73.22533
G1 X43.481 Y-27.734 E73.29235
G1 X44.084 Y-27.091 E73.35007
G1 X44.55 Y-26.537 E73.39748
G1 X45.072 Y-25.72 E73.46096
G1 X45.498 Y-24.931 E73.51967
G1 X45.806 Y-24.276 E73.56707
G1 X46.087 Y-23.417 E73.62625
G1 X46.31 Y-22.532 E73.68601
G1 X46.448 Y-21.821 E73.73344
G1 X46.509 Y-20.933 E73.79172
G1 X46.538 Y20.274 E76.48999
G1 X46.499 Y20.992 E76.53708
G1 X46.384 Y22.045 E76.60644
G1 X46.266 Y22.759 E76.65383
G1 X45.984 Y23.693 E76.71771
G1 X45.652 Y24.554 E76.77814
G1 X45.354 Y25.215 E76.82562
G1 X44.87 Y26.006 E76.88634
G1 X44.351 Y26.733 E76.94483
G1 X43.898 Y27.299 E76.9923
G1 X43.174 Y27.992 E77.05793
G1 X42.486 Y28.557 E77.11622
G1 X41.902 Y28.985 E77.16363
G1 X40.965 Y29.492 E77.23339
G1 X40.17 Y29.842 E77.29027
G1 X39.492 Y30.096 E77.33768
G1 X38.465 Y30.33 E77.40665
G1 X37.628 Y30.451 E77.46203
G1 X37.09 Y30.49 E77.49735
G0 F1485 X36.686 Y30.519
G0 F3600 X36.686 Y29.994
G1 F3000 E77.52387
G1 F1650 X-37.127 Y29.961 E82.35721
G1 X-37.82 Y29.921 E82.40267
G1 X-38.81 Y29.721 E82.4688
G1 X-39.642 Y29.479 E82.52554
G1 X-40.297 Y29.247 E82.57104
G1 X-41.162 Y28.798 E82.63486
G1 X-41.901 Y28.335 E82.69196
G1 X-42.467 Y27.933 E82.73742
G1 X-43.131 Y27.314 E82.79686
G1 X-43.733 Y26.662 E82.85497
G1 X-44.174 Y26.125 E82.90047
G1 X-44.616 Y25.424 E82.95474
G1 X-45.047 Y24.622 E83.01436
G1 X-45.34 Y23.992 E83.05985
G1 X-45.591 Y23.205 E83.11394
G1 X-45.811 Y22.31 E83.17429
G1 X-45.938 Y21.627 E83.21978
G1 X-45.986 Y20.873 E83.26926
G1 X-46.013 Y-20.318 E85.96648
G1 X-45.975 Y-20.994 E86.01082
G1 X-45.862 Y-22.003 E86.0773
G1 X-45.746 Y-22.688 E86.12279
G1 X-45.498 Y-23.497 E86.1782
G1 X-45.169 Y-24.353 E86.23825
G1 X-44.883 Y-24.986 E86.28373
G1 X-44.437 Y-25.709 E86.33936
G1 X-43.907 Y-26.447 E86.39885
G1 X-43.47 Y-26.987 E86.44434
G1 X-42.831 Y-27.595 E86.5021
G1 X-42.149 Y-28.154 E86.55984
G1 X-41.587 Y-28.563 E86.60535
G1 X-40.758 Y-29.008 E86.66696
G1 X-39.96 Y-29.36 E86.72408
G1 X-39.309 Y-29.604 E86.7696
G1 X-38.384 Y-29.812 E86.83168
G1 X-37.551 Y-29.932 E86.88679
G1 X-36.688 Y-29.994 E86.94345
G1 X37.142 Y-29.966 E91.7779
G1 X37.836 Y-29.926 E91.82342
G1 X38.802 Y-29.733 E91.88792
G1 X39.63 Y-29.496 E91.94432
G1 X40.285 Y-29.267 E91.98976
G1 X41.129 Y-28.836 E92.05181
G1 X41.855 Y-28.39 E92.1076
G1 X42.425 Y-27.993 E92.15309
G1 X43.098 Y-27.375 E92.21292
G1 X43.701 Y-26.732 E92.27064
G1 X44.147 Y-26.199 E92.31615
G1 X44.61 Y-25.471 E92.37264
G1 X45.036 Y-24.682 E92.43136
G1 X45.33 Y-24.052 E92.47688
G1 X45.578 Y-23.288 E92.52948
G1 X45.801 Y-22.403 E92.58924
G1 X45.932 Y-21.721 E92.63471
G1 X45.984 Y-20.932 E92.68649
G1 X46.013 Y20.275 E95.38476
G1 X45.977 Y20.935 E95.42804
G1 X45.862 Y21.988 E95.49741
G1 X45.747 Y22.673 E95.54289
G1 X45.494 Y23.504 E95.59977
G1 X45.162 Y24.365 E95.66019
G1 X44.875 Y24.998 E95.7057
G1 X44.442 Y25.701 E95.75977
G1 X43.923 Y26.428 E95.81826
G1 X43.488 Y26.97 E95.86377
G1 X42.841 Y27.586 E95.92226
G1 X42.153 Y28.151 E95.98056
G1 X41.592 Y28.56 E96.02602
G1 X40.754 Y29.011 E96.08834
G1 X39.959 Y29.361 E96.14521
G1 X39.308 Y29.604 E96.19072
G1 X38.39 Y29.811 E96.25234
G1 X37.553 Y29.932 E96.30771
G1 X37.09 Y29.966 E96.33811
G0 F1485 X36.686 Y29.994
G0 F3600 X36.687 Y29.469
G1 F3000 E96.36463
G1 F1650 X-37.126 Y29.436 E101.19797
G1 X-37.789 Y29.396 E101.24147
G1 X-38.664 Y29.217 E101.29995
G1 X-39.496 Y28.975 E101.35669
G1 X-40.121 Y28.751 E101.40016
G1 X-40.883 Y28.353 E101.45645
G1 X-41.622 Y27.89 E101.51356
G1 X-42.162 Y27.504 E101.55702
G1 X-42.745 Y26.958 E101.60933
G1 X-43.347 Y26.306 E101.66743
G1 X-43.768 Y25.792 E101.71094
G1 X-44.153 Y25.176 E101.75851
G1 X-44.584 Y24.374 E101.81813
G1 X-44.863 Y23.771 E101.86163
G1 X-45.082 Y23.08 E101.9091
G1 X-45.302 Y22.185 E101.96945
G1 X-45.421 Y21.532 E102.01291
G1 X-45.461 Y20.873 E102.05614
G1 X-45.488 Y-20.318 E104.75337
G1 X-45.454 Y-20.936 E104.79389
G1 X-45.341 Y-21.945 E104.86038
G1 X-45.227 Y-22.599 E104.90385
G1 X-45.008 Y-23.309 E104.9525
G1 X-44.679 Y-24.165 E105.01255
G1 X-44.404 Y-24.769 E105.05601
G1 X-44.011 Y-25.403 E105.10485
G1 X-43.481 Y-26.141 E105.16435
G1 X-43.062 Y-26.656 E105.20782
G1 X-42.498 Y-27.189 E105.25863
G1 X-41.816 Y-27.748 E105.31638
G1 X-41.278 Y-28.137 E105.35985
G1 X-40.546 Y-28.528 E105.41419
G1 X-39.748 Y-28.88 E105.4713
G1 X-39.126 Y-29.111 E105.51475
G1 X-38.309 Y-29.293 E105.56956
G1 X-37.476 Y-29.413 E105.62467
G1 X-36.688 Y-29.469 E105.6764
G1 X37.142 Y-29.441 E110.51085
G1 X37.805 Y-29.401 E110.55434
G1 X38.657 Y-29.228 E110.61127
G1 X39.485 Y-28.991 E110.66767
G1 X40.111 Y-28.77 E110.71114
G1 X40.854 Y-28.388 E110.76584
G1 X41.58 Y-27.942 E110.82164
G1 X42.123 Y-27.562 E110.86503
G1 X42.715 Y-27.016 E110.91777
G1 X43.318 Y-26.373 E110.97549
G1 X43.742 Y-25.863 E111.01892
G1 X44.148 Y-25.221 E111.06866
G1 X44.574 Y-24.432 E111.12737
G1 X44.854 Y-23.83 E111.17085
G1 X45.069 Y-23.16 E111.21692
G1 X45.292 Y-22.275 E111.27669
G1 X45.415 Y-21.623 E111.32013
