;FLAVOR:Marlin
;TIME:5910
;Filament used: 2.95879m
;Layer height: 0.14
;Generated with Cura_SteamEngine 4.0.0
M140 S65
M105
M190 S65
M104 S200
M105
M109 S200
M82 ;absolute extrusion mode
; Calibration part start here
M666 X0 Y0 Z0 ; Add your endstop values here after calibration
M665 L120.80 R61.70 ; Sets default Delta Radius (change when calibrating)
M301 P45.00 I0.07 D1000 ; Hot end settings
M304 P100 I0 D0 ; Bed heater settings
M500 ; Save settings

G90 ; switch to absolute positioning - this line was added in case Cura doesn't include it by default
M82 ; set extruder to absolute mode - this line was added in case Cura doesn't include it by default
G28 ; start from home position
G29 C-0.8 Z0.3 ; probe the bed at 3 points with a 0.3mm overall vertical offset and an additional -0.8mm center offset
G1 Z15.0 F4800  ; move the nozzle up 15mm
G92 E0 ; reset extrusion distance
G1 F200 E3 ; extrude 3mm of feed stock
G92 E0 ; reset extrusion distance again
G0 Z0.01;
G92 Z0;
G1 F4800
G92 E0
G1 F3000 E-4
;LAYER_COUNT:25
;LAYER:0
M107
G0 F3600 X-.132 Y33.085 Z0.3
;TYPE:SKIRT
G1 F3000 E0
G1 F1650 X-.874 Y33.258 E0.04989
G1 X-1.674 Y33.363 E0.10272
G1 X-2.328 Y33.389 E0.14558
G1 X-2.638 Y33.389 E0.16588
G1 X-3.444 Y33.349 E0.21872
G1 X-3.995 Y33.266 E0.25521
G1 X-4.734 Y33.363 E0.30402
G1 X-5.388 Y33.389 E0.34687
G1 X-5.698 Y33.389 E0.36717
G1 X-6.504 Y33.349 E0.42002
G1 X-7.055 Y33.266 E0.4565
G1 X-7.794 Y33.363 E0.50531
G1 X-8.448 Y33.389 E0.54817
G1 X-8.758 Y33.389 E0.56847
G1 X-9.564 Y33.349 E0.62131
G1 X-10.115 Y33.266 E0.6578
G1 X-10.854 Y33.363 E0.7066
G1 X-11.508 Y33.389 E0.74946
G1 X-11.818 Y33.389 E0.76976
G1 X-12.624 Y33.349 E0.8226
G1 X-13.175 Y33.266 E0.85909
G1 X-13.914 Y33.363 E0.90789
G1 X-14.568 Y33.389 E0.95075
G1 X-14.878 Y33.389 E0.97105
G1 X-15.684 Y33.349 E1.02389
G1 X-16.235 Y33.266 E1.06038
G1 X-16.974 Y33.363 E1.10919
G1 X-17.628 Y33.389 E1.15204
G1 X-17.938 Y33.389 E1.17234
G1 X-18.744 Y33.349 E1.22519
G1 X-19.295 Y33.266 E1.26167
G1 X-20.034 Y33.363 E1.31048
G1 X-20.688 Y33.389 E1.35334
G1 X-20.998 Y33.389 E1.37364
G1 X-21.804 Y33.349 E1.42648
G1 X-22.355 Y33.266 E1.46297
G1 X-23.094 Y33.363 E1.51177
G1 X-23.748 Y33.389 E1.55463
G1 X-24.058 Y33.389 E1.57493
G1 X-24.864 Y33.349 E1.62777
G1 X-25.415 Y33.266 E1.66426
G1 X-26.154 Y33.363 E1.71306
G1 X-26.808 Y33.389 E1.75592
G1 X-27.118 Y33.389 E1.77622
G1 X-27.924 Y33.349 E1.82906
G1 X-28.475 Y33.266 E1.86555
G1 X-29.214 Y33.363 E1.91436
G1 X-29.868 Y33.389 E1.95721
G1 X-30.178 Y33.389 E1.97751
G1 X-30.984 Y33.349 E2.03036
G1 X-31.535 Y33.266 E2.06684
G1 X-32.274 Y33.363 E2.11565
G1 X-32.928 Y33.389 E2.15851
G1 X-33.238 Y33.389 E2.17881
G1 X-34.044 Y33.349 E2.23165
G1 X-34.841 Y33.229 E2.28442
G1 X-35.412 Y33.085 E2.32298
G1 X-36.154 Y33.258 E2.37287
G1 X-36.954 Y33.363 E2.42571
G1 X-37.608 Y33.389 E2.46857
G1 X-37.918 Y33.389 E2.48887
G1 X-38.724 Y33.349 E2.54171
G1 X-39.521 Y33.229 E2.59449
G1 X-40.303 Y33.032 E2.64729
G1 X-41.062 Y32.757 E2.70015
G1 X-41.789 Y32.409 E2.75293
G1 X-42.479 Y31.991 E2.80576
G1 X-43.124 Y31.506 E2.8586
G1 X-43.718 Y30.96 E2.91143
G1 X-44.254 Y30.358 E2.96421
G1 X-44.729 Y29.705 E3.01709
G1 X-45.116 Y29.047 E3.06707
G1 X-45.607 Y28.116 E3.13599
G1 X-45.948 Y27.385 E3.18881
G1 X-46.214 Y26.624 E3.2416
G1 X-46.404 Y25.84 E3.29442
G1 X-46.515 Y25.041 E3.34724
G1 X-46.547 Y24.298 E3.39594
G1 X-46.533 Y19.037 E3.74044
G1 X-46.491 Y18.232 E3.79322
G1 X-46.416 Y17.741 E3.82574
G1 X-46.416 Y3.176 E4.77947
G1 X-46.376 Y2.37 E4.83232
G1 X-46.256 Y1.573 E4.88509
G1 X-46.186 Y1.295 E4.90387
G1 X-46.337 Y0.671 E4.9459
G1 X-46.448 Y-.128 E4.99873
G1 X-46.48 Y-.871 E5.04742
G1 X-46.466 Y-6.132 E5.39192
G1 X-46.424 Y-6.937 E5.4447
G1 X-46.349 Y-7.428 E5.47723
G1 X-46.349 Y-21.993 E6.43096
G1 X-46.309 Y-22.799 E6.4838
G1 X-46.189 Y-23.596 E6.53658
G1 X-45.992 Y-24.378 E6.58938
G1 X-45.717 Y-25.137 E6.64224
G1 X-45.369 Y-25.864 E6.69502
G1 X-44.951 Y-26.554 E6.74785
G1 X-44.466 Y-27.199 E6.80069
G1 X-43.965 Y-27.747 E6.84931
G1 X-43.812 Y-27.9 E6.86348
G1 X-43.215 Y-28.442 E6.91628
G1 X-42.566 Y-28.921 E6.9691
G1 X-41.873 Y-29.334 E7.02192
G1 X-41.143 Y-29.677 E7.07474
G1 X-40.382 Y-29.945 E7.12757
G1 X-39.598 Y-30.137 E7.18042
G1 X-38.8 Y-30.25 E7.2332
G1 X-38.058 Y-30.284 E7.28183
G1 X37.906 Y-30.284 E12.25602
G1 X38.712 Y-30.244 E12.30887
G1 X39.509 Y-30.124 E12.36164
G1 X40.291 Y-29.927 E12.41445
G1 X41.05 Y-29.652 E12.46731
G1 X41.777 Y-29.304 E12.52009
G1 X42.467 Y-28.886 E12.57291
G1 X43.112 Y-28.401 E12.62576
G1 X43.66 Y-27.9 E12.67438
G1 X43.813 Y-27.747 E12.68854
G1 X44.355 Y-27.15 E12.74134
G1 X44.834 Y-26.501 E12.79416
G1 X45.247 Y-25.808 E12.84699
G1 X45.59 Y-25.078 E12.8998
G1 X45.858 Y-24.317 E12.95263
G1 X46.05 Y-23.533 E13.00549
G1 X46.163 Y-22.735 E13.05826
G1 X46.197 Y-21.993 E13.1069
G1 X46.197 Y-7.466 E14.05814
G1 X46.235 Y-7.28 E14.07057
G1 X46.317 Y-6.478 E14.12336
G1 X46.328 Y-6.03 E14.15271
G1 X46.313 Y-.769 E14.4972
G1 X46.271 Y0.037 E14.55005
G1 X46.149 Y0.834 E14.60285
G1 X45.964 Y1.557 E14.65172
G1 X45.983 Y1.636 E14.65704
G1 X46.096 Y2.434 E14.70981
G1 X46.13 Y3.176 E14.75845
G1 X46.13 Y17.704 E15.70976
G1 X46.17 Y17.901 E15.72292
G1 X46.251 Y18.704 E15.77577
G1 X46.261 Y19.14 E15.80432
G1 X46.246 Y24.4 E16.14875
G1 X46.204 Y25.206 E16.2016
G1 X46.082 Y26.003 E16.2544
G1 X45.882 Y26.784 E16.30719
G1 X45.605 Y27.542 E16.36004
G1 X45.255 Y28.269 E16.41287
G1 X44.779 Y29.143 E16.47804
G1 X44.358 Y29.832 E16.53091
G1 X43.872 Y30.475 E16.58369
G1 X43.324 Y31.067 E16.63651
G1 X42.72 Y31.602 E16.68935
G1 X42.067 Y32.075 E16.74214
G1 X41.369 Y32.48 E16.79499
G1 X40.635 Y32.815 E16.84782
G1 X39.872 Y33.075 E16.9006
G1 X39.086 Y33.258 E16.95345
G1 X38.286 Y33.363 E17.00628
G1 X37.632 Y33.389 E17.04914
G1 X37.322 Y33.389 E17.06944
G1 X36.516 Y33.349 E17.12228
G1 X35.719 Y33.229 E17.17506
G1 X35.148 Y33.085 E17.21362
G1 X34.406 Y33.258 E17.26351
G1 X33.606 Y33.363 E17.31634
G1 X32.952 Y33.389 E17.3592
G1 X32.642 Y33.389 E17.3795
G1 X31.836 Y33.349 E17.43234
G1 X31.285 Y33.266 E17.46883
G1 X30.546 Y33.363 E17.51763
G1 X29.892 Y33.389 E17.56049
G1 X29.582 Y33.389 E17.58079
G1 X28.776 Y33.349 E17.63363
G1 X28.225 Y33.266 E17.67012
G1 X27.486 Y33.363 E17.71892
G1 X26.832 Y33.389 E17.76178
G1 X26.522 Y33.389 E17.78208
G1 X25.716 Y33.349 E17.83492
G1 X25.165 Y33.266 E17.87141
G1 X24.426 Y33.363 E17.92022
G1 X23.772 Y33.389 E17.96308
G1 X23.462 Y33.389 E17.98337
G1 X22.656 Y33.349 E18.03622
G1 X22.105 Y33.266 E18.0727
G1 X21.366 Y33.363 E18.12151
G1 X20.712 Y33.389 E18.16437
G1 X20.402 Y33.389 E18.18467
G1 X19.596 Y33.349 E18.23751
G1 X19.045 Y33.266 E18.274
G1 X18.306 Y33.363 E18.3228
G1 X17.652 Y33.389 E18.36566
G1 X17.342 Y33.389 E18.38596
G1 X16.536 Y33.349 E18.4388
G1 X15.985 Y33.266 E18.47529
G1 X15.246 Y33.363 E18.52409
G1 X14.592 Y33.389 E18.56695
G1 X14.282 Y33.389 E18.58725
G1 X13.476 Y33.349 E18.64009
G1 X12.925 Y33.266 E18.67658
G1 X12.186 Y33.363 E18.72539
G1 X11.532 Y33.389 E18.76825
G1 X11.222 Y33.389 E18.78854
G1 X10.416 Y33.349 E18.84139
G1 X9.865 Y33.266 E18.87787
G1 X9.126 Y33.363 E18.92668
G1 X8.472 Y33.389 E18.96954
G1 X8.162 Y33.389 E18.98984
G1 X7.356 Y33.349 E19.04268
G1 X6.805 Y33.266 E19.07917
G1 X6.066 Y33.363 E19.12797
G1 X5.412 Y33.389 E19.17083
G1 X5.102 Y33.389 E19.19113
G1 X4.296 Y33.349 E19.24397
G1 X3.745 Y33.266 E19.28046
G1 X3.006 Y33.363 E19.32926
G1 X2.352 Y33.389 E19.37212
G1 X2.042 Y33.389 E19.39242
G1 X1.236 Y33.349 E19.44526
G1 X0.439 Y33.229 E19.49804
G1 X0.261 Y33.184 E19.51006
G0 F1485 X-.132 Y33.085
G0 F3600 X-.43 Y32.624
G1 F3000 E19.53658
G1 F1650 X-1.195 Y32.779 E19.58769
G1 X-2.328 Y32.864 E19.66209
G1 X-2.638 Y32.864 E19.68239
G1 X-3.417 Y32.824 E19.73347
G1 X-4.019 Y32.731 E19.77336
G1 X-4.255 Y32.779 E19.78912
G1 X-5.388 Y32.864 E19.86352
G1 X-5.698 Y32.864 E19.88382
G1 X-6.477 Y32.824 E19.9349
G1 X-7.079 Y32.731 E19.97479
G1 X-7.315 Y32.779 E19.99056
G1 X-8.448 Y32.864 E20.06495
G1 X-8.758 Y32.864 E20.08525
G1 X-9.537 Y32.824 E20.13633
G1 X-10.139 Y32.731 E20.17622
G1 X-10.375 Y32.779 E20.19199
G1 X-11.508 Y32.864 E20.26639
G1 X-11.818 Y32.864 E20.28668
G1 X-12.597 Y32.824 E20.33776
G1 X-13.199 Y32.731 E20.37765
G1 X-13.435 Y32.779 E20.39342
G1 X-14.568 Y32.864 E20.46782
G1 X-14.878 Y32.864 E20.48812
G1 X-15.657 Y32.824 E20.53919
G1 X-16.259 Y32.731 E20.57908
G1 X-16.495 Y32.779 E20.59485
G1 X-17.628 Y32.864 E20.66925
G1 X-17.938 Y32.864 E20.68955
G1 X-18.717 Y32.824 E20.74062
G1 X-19.319 Y32.731 E20.78051
G1 X-19.555 Y32.779 E20.79628
G1 X-20.688 Y32.864 E20.87068
G1 X-20.998 Y32.864 E20.89098
G1 X-21.777 Y32.824 E20.94206
G1 X-22.379 Y32.731 E20.98194
G1 X-22.615 Y32.779 E20.99771
G1 X-23.748 Y32.864 E21.07211
G1 X-24.058 Y32.864 E21.09241
G1 X-24.837 Y32.824 E21.14349
G1 X-25.439 Y32.731 E21.18337
G1 X-25.675 Y32.779 E21.19914
G1 X-26.808 Y32.864 E21.27354
G1 X-27.118 Y32.864 E21.29384
G1 X-27.897 Y32.824 E21.34492
G1 X-28.499 Y32.731 E21.3848
G1 X-28.735 Y32.779 E21.40057
G1 X-29.868 Y32.864 E21.47497
G1 X-30.178 Y32.864 E21.49527
G1 X-30.957 Y32.824 E21.54635
G1 X-31.559 Y32.731 E21.58624
G1 X-31.795 Y32.779 E21.60201
G1 X-32.928 Y32.864 E21.6764
G1 X-33.238 Y32.864 E21.6967
G1 X-34.017 Y32.824 E21.74778
G1 X-34.788 Y32.705 E21.79886
G1 X-35.431 Y32.536 E21.8424
G1 X-35.71 Y32.624 E21.86155
G1 X-36.475 Y32.779 E21.91267
G1 X-37.608 Y32.864 E21.98706
G1 X-37.918 Y32.864 E22.00736
G1 X-38.697 Y32.824 E22.05844
G1 X-39.468 Y32.705 E22.10952
G1 X-40.223 Y32.507 E22.16063
G1 X-40.953 Y32.233 E22.21169
G1 X-41.652 Y31.885 E22.26282
G1 X-42.311 Y31.469 E22.31385
G1 X-42.924 Y30.986 E22.36495
G1 X-43.485 Y30.444 E22.41603
G1 X-43.987 Y29.847 E22.46711
G1 X-44.426 Y29.202 E22.5182
G1 X-44.652 Y28.802 E22.54828
G1 X-45.143 Y27.871 E22.6172
G1 X-45.471 Y27.164 E22.66824
G1 X-45.725 Y26.426 E22.71934
G1 X-45.902 Y25.666 E22.77044
G1 X-46 Y24.892 E22.82153
G1 X-46.022 Y24.3 E22.86032
G1 X-46.008 Y19.039 E23.20482
G1 X-45.966 Y18.26 E23.2559
G1 X-45.891 Y17.786 E23.28732
G1 X-45.891 Y3.176 E24.244
G1 X-45.851 Y2.397 E24.29508
G1 X-45.732 Y1.626 E24.34616
G1 X-45.645 Y1.295 E24.36857
G1 X-45.658 Y1.257 E24.3712
G1 X-45.835 Y0.497 E24.4223
G1 X-45.933 Y-.277 E24.47338
G1 X-45.955 Y-.869 E24.51218
G1 X-45.941 Y-6.13 E24.85667
G1 X-45.899 Y-6.909 E24.90776
G1 X-45.824 Y-7.383 E24.93918
G1 X-45.824 Y-21.993 E25.89585
G1 X-45.784 Y-22.772 E25.94693
G1 X-45.665 Y-23.543 E25.99802
G1 X-45.467 Y-24.298 E26.04913
G1 X-45.193 Y-25.028 E26.10018
G1 X-44.845 Y-25.727 E26.15131
G1 X-44.429 Y-26.386 E26.20234
G1 X-43.946 Y-26.999 E26.25345
G1 X-43.594 Y-27.376 E26.28722
G1 X-43.441 Y-27.529 E26.30139
G1 X-42.862 Y-28.052 E26.35248
G1 X-42.232 Y-28.513 E26.4036
G1 X-41.559 Y-28.906 E26.45463
G1 X-40.849 Y-29.229 E26.5057
G1 X-40.109 Y-29.477 E26.55681
G1 X-39.348 Y-29.649 E26.6079
G1 X-38.573 Y-29.742 E26.65901
G1 X-38.058 Y-29.759 E26.69275
G1 X37.906 Y-29.759 E31.66694
G1 X38.685 Y-29.719 E31.71802
G1 X39.456 Y-29.6 E31.7691
G1 X40.211 Y-29.402 E31.82021
G1 X40.941 Y-29.128 E31.87127
G1 X41.64 Y-28.78 E31.9224
G1 X42.299 Y-28.364 E31.97343
G1 X42.912 Y-27.881 E32.02453
G1 X43.289 Y-27.529 E32.05831
G1 X43.442 Y-27.376 E32.07247
G1 X43.965 Y-26.797 E32.12356
G1 X44.426 Y-26.167 E32.17468
G1 X44.819 Y-25.494 E32.22571
G1 X45.142 Y-24.784 E32.27679
G1 X45.39 Y-24.044 E32.3279
G1 X45.562 Y-23.283 E32.37898
G1 X45.655 Y-22.508 E32.4301
G1 X45.672 Y-21.993 E32.46384
G1 X45.672 Y-7.408 E33.41887
G1 X45.727 Y-7.125 E33.43775
G1 X45.803 Y-6.031 E33.50956
G1 X45.788 Y-.77 E33.85406
G1 X45.746 Y0.009 E33.90514
G1 X45.624 Y0.779 E33.95619
G1 X45.424 Y1.533 E34.00727
G1 X45.419 Y1.548 E34.00831
G1 X45.495 Y1.886 E34.03099
G1 X45.588 Y2.661 E34.0821
G1 X45.605 Y3.176 E34.11584
G1 X45.605 Y17.761 E35.07088
G1 X45.662 Y18.056 E35.09056
G1 X45.736 Y19.139 E35.16164
G1 X45.721 Y24.399 E35.50607
G1 X45.679 Y25.178 E35.55715
G1 X45.557 Y25.948 E35.6082
G1 X45.357 Y26.702 E35.65928
G1 X45.081 Y27.432 E35.71039
G1 X44.794 Y28.018 E35.75311
G1 X44.318 Y28.892 E35.81828
G1 X43.91 Y29.557 E35.86937
G1 X43.436 Y30.177 E35.92047
G1 X42.902 Y30.745 E35.97152
G1 X42.312 Y31.256 E36.02263
G1 X41.673 Y31.703 E36.07369
G1 X40.991 Y32.083 E36.12481
G1 X40.274 Y32.391 E36.17591
G1 X39.53 Y32.624 E36.22696
G1 X38.765 Y32.779 E36.27807
G1 X37.632 Y32.864 E36.35247
G1 X37.322 Y32.864 E36.37277
G1 X36.543 Y32.824 E36.42385
G1 X35.772 Y32.705 E36.47493
G1 X35.129 Y32.536 E36.51847
G1 X34.85 Y32.624 E36.53762
G1 X34.085 Y32.779 E36.58873
G1 X32.952 Y32.864 E36.66313
G1 X32.642 Y32.864 E36.68343
G1 X31.863 Y32.824 E36.73451
G1 X31.261 Y32.731 E36.7744
G1 X31.025 Y32.779 E36.79017
G1 X29.892 Y32.864 E36.86456
G1 X29.582 Y32.864 E36.88486
G1 X28.803 Y32.824 E36.93594
G1 X28.201 Y32.731 E36.97583
G1 X27.965 Y32.779 E36.9916
G1 X26.832 Y32.864 E37.06599
G1 X26.522 Y32.864 E37.08629
G1 X25.743 Y32.824 E37.13737
G1 X25.141 Y32.731 E37.17726
G1 X24.905 Y32.779 E37.19303
G1 X23.772 Y32.864 E37.26743
G1 X23.462 Y32.864 E37.28773
G1 X22.683 Y32.824 E37.3388
G1 X22.081 Y32.731 E37.37869
G1 X21.845 Y32.779 E37.39446
G1 X20.712 Y32.864 E37.46886
G1 X20.402 Y32.864 E37.48916
G1 X19.623 Y32.824 E37.54023
G1 X19.021 Y32.731 E37.58012
G1 X18.785 Y32.779 E37.59589
G1 X17.652 Y32.864 E37.67029
G1 X17.342 Y32.864 E37.69059
G1 X16.563 Y32.824 E37.74166
G1 X15.961 Y32.731 E37.78155
G1 X15.725 Y32.779 E37.79732
G1 X14.592 Y32.864 E37.87172
G1 X14.282 Y32.864 E37.89202
G1 X13.503 Y32.824 E37.9431
G1 X12.901 Y32.731 E37.98298
G1 X12.665 Y32.779 E37.99875
G1 X11.532 Y32.864 E38.07315
G1 X11.222 Y32.864 E38.09345
G1 X10.443 Y32.824 E38.14453
G1 X9.841 Y32.731 E38.18441
G1 X9.605 Y32.779 E38.20018
G1 X8.472 Y32.864 E38.27458
G1 X8.162 Y32.864 E38.29488
G1 X7.383 Y32.824 E38.34596
G1 X6.781 Y32.731 E38.38585
G1 X6.545 Y32.779 E38.40162
G1 X5.412 Y32.864 E38.47601
G1 X5.102 Y32.864 E38.49631
G1 X4.323 Y32.824 E38.54739
G1 X3.721 Y32.731 E38.58728
G1 X3.485 Y32.779 E38.60305
G1 X2.352 Y32.864 E38.67744
G1 X2.042 Y32.864 E38.69774
G1 X1.263 Y32.824 E38.74882
G1 X0.492 Y32.705 E38.7999
G1 X-0.042 Y32.564 E38.83607
G0 F1485 X-.151 Y32.536
G0 X-.43 Y32.624
G0 F3600 X-.149 Y31.99
G1 F3000 E38.86259
G1 F1650 X-.767 Y32.165 E38.90465
G1 X-1.509 Y32.292 E38.95394
G1 X-2.328 Y32.339 E39.00766
G1 X-2.638 Y32.339 E39.02796
G1 X-3.39 Y32.299 E39.07727
G1 X-4.02 Y32.198 E39.11905
G1 X-4.569 Y32.292 E39.15552
G1 X-5.388 Y32.339 E39.20924
G1 X-5.698 Y32.339 E39.22954
G1 X-6.45 Y32.299 E39.27885
G1 X-7.08 Y32.198 E39.32063
G1 X-7.629 Y32.292 E39.3571
G1 X-8.448 Y32.339 E39.41082
G1 X-8.758 Y32.339 E39.43112
G1 X-9.51 Y32.299 E39.48043
G1 X-10.14 Y32.198 E39.52221
G1 X-10.689 Y32.292 E39.55868
G1 X-11.508 Y32.339 E39.6124
G1 X-11.818 Y32.339 E39.63269
G1 X-12.57 Y32.299 E39.68201
G1 X-13.2 Y32.198 E39.72379
G1 X-13.749 Y32.292 E39.76026
G1 X-14.568 Y32.339 E39.81397
G1 X-14.878 Y32.339 E39.83427
G1 X-15.63 Y32.299 E39.88359
G1 X-16.26 Y32.198 E39.92537
G1 X-16.809 Y32.292 E39.96184
G1 X-17.628 Y32.339 E40.01555
G1 X-17.938 Y32.339 E40.03585
G1 X-18.69 Y32.299 E40.08516
G1 X-19.32 Y32.198 E40.12694
G1 X-19.869 Y32.292 E40.16342
G1 X-20.688 Y32.339 E40.21713
G1 X-20.998 Y32.339 E40.23743
G1 X-21.75 Y32.299 E40.28674
G1 X-22.38 Y32.198 E40.32852
G1 X-22.929 Y32.292 E40.365
G1 X-23.748 Y32.339 E40.41871
G1 X-24.058 Y32.339 E40.43901
G1 X-24.81 Y32.299 E40.48832
G1 X-25.44 Y32.198 E40.5301
G1 X-25.989 Y32.292 E40.56658
G1 X-26.808 Y32.339 E40.62029
G1 X-27.118 Y32.339 E40.64059
G1 X-27.87 Y32.299 E40.6899
G1 X-28.5 Y32.198 E40.73168
G1 X-29.049 Y32.292 E40.76815
G1 X-29.868 Y32.339 E40.82187
G1 X-30.178 Y32.339 E40.84217
