;FLAVOR:Marlin
;TIME:4890
;Filament used: 2.72688m
;Layer height: 0.14
;Generated with Cura_SteamEngine 4.0.0
M140 S65
M105
M190 S65
M104 S200
M105
M109 S200
M82 ;absolute extrusion mode
; Calibration part start here
M666 X0 Y0 Z0 ; Add your endstop values here after calibration
M665 L120.80 R61.70 ; Sets default Delta Radius (change when calibrating)
M301 P45.00 I0.07 D1000 ; Hot end settings
M304 P100 I0 D0 ; Bed heater settings
M500 ; Save settings

G90 ; switch to absolute positioning - this line was added in case Cura doesn't include it by default
M82 ; set extruder to absolute mode - this line was added in case Cura doesn't include it by default
G28 ; start from home position
G29 C-0.8 Z0.3 ; probe the bed at 3 points with a 0.3mm overall vertical offset and an additional -0.8mm center offset
G1 Z15.0 F4800  ; move the nozzle up 15mm
G92 E0 ; reset extrusion distance
G1 F200 E3 ; extrude 3mm of feed stock
G92 E0 ; reset extrusion distance again
G0 Z0.01;
G92 Z0;
G1 F4800
G92 E0
G1 F3000 E-4
;LAYER_COUNT:499
;LAYER:-7
M107
G0 F7200 X-9.301 Y21.034 Z0.36
;TYPE:SUPPORT-INTERFACE
G1 F3000 E0
G1 F1237.5 X-11.587 Y19.875 E0.30689
G1 X-12.546 Y19.339 E0.43843
G1 X-13.308 Y18.841 E0.54743
G1 X-13.467 Y18.729 E0.57072
G1 X-14.139 Y18.216 E0.67194
G1 X-14.316 Y18.069 E0.69949
G1 X-15.321 Y17.155 E0.86215
G1 X-17.159 Y15.324 E1.17279
G1 X-17.802 Y14.636 E1.28555
G1 X-17.923 Y14.497 E1.30762
G1 X-18.474 Y13.815 E1.4126
G1 X-18.587 Y13.663 E1.43527
G1 X-19.091 Y12.934 E1.54139
G1 X-19.195 Y12.769 E1.56475
G1 X-19.856 Y11.614 E1.72409
G1 X-21.075 Y9.23 E2.04469
G1 X-21.459 Y8.409 E2.15322
G1 X-21.525 Y8.251 E2.17372
G1 X-21.847 Y7.407 E2.28188
G1 X-21.902 Y7.244 E2.30248
G1 X-22.156 Y6.394 E2.4087
G1 X-22.2 Y6.223 E2.42984
G1 X-22.482 Y4.853 E2.59732
G1 X-22.889 Y2.319 E2.90462
G1 X-23.006 Y1.371 E3.01899
G1 X-23.021 Y1.195 E3.04014
G1 X-23.066 Y0.313 E3.14589
G1 X-23.069 Y0.137 E3.16697
G1 X-23.048 Y-.755 E3.2738
G1 X-23.034 Y-.949 E3.29709
G1 X-22.883 Y-2.319 E3.46212
G1 X-22.487 Y-4.859 E3.76993
G1 X-22.302 Y-5.812 E3.88617
G1 X-22.036 Y-6.821 E4.01111
G1 X-21.976 Y-7.016 E4.03554
G1 X-21.695 Y-7.817 E4.13718
G1 X-21.617 Y-8.015 E4.16266
G1 X-21.038 Y-9.293 E4.33065
G1 X-19.875 Y-11.587 E4.63861
G1 X-19.339 Y-12.546 E4.77016
G1 X-18.854 Y-13.289 E4.8764
G1 X-18.72 Y-13.479 E4.90424
G1 X-18.217 Y-14.138 E5.0035
G1 X-18.069 Y-14.316 E5.03122
G1 X-17.163 Y-15.313 E5.19252
G1 X-15.324 Y-17.159 E5.50452
G1 X-14.636 Y-17.802 E5.61727
G1 X-14.497 Y-17.923 E5.63934
G1 X-13.815 Y-18.474 E5.74432
G1 X-13.674 Y-18.579 E5.76537
G1 X-12.934 Y-19.091 E5.87312
G1 X-12.776 Y-19.191 E5.89551
G1 X-11.614 Y-19.856 E6.05581
G1 X-9.248 Y-21.066 E6.37401
G1 X-8.422 Y-21.453 E6.48323
G1 X-8.251 Y-21.525 E6.50544
G1 X-7.407 Y-21.847 E6.61361
G1 X-7.244 Y-21.902 E6.6342
G1 X-6.394 Y-22.156 E6.74043
G1 X-6.232 Y-22.198 E6.76047
G1 X-5.007 Y-22.455 E6.91034
G1 X-2.326 Y-22.888 E7.23551
G1 X-1.375 Y-23.006 E7.35025
G1 X-1.196 Y-23.021 E7.37176
G1 X-.313 Y-23.066 E7.47762
G1 X-.131 Y-23.069 E7.49942
G1 X0.748 Y-23.048 E7.6047
G1 X0.949 Y-23.034 E7.62882
G1 X2.319 Y-22.883 E7.79386
G1 X4.859 Y-22.487 E8.10166
G1 X5.815 Y-22.301 E8.21827
G1 X6.827 Y-22.034 E8.34359
G1 X7.016 Y-21.976 E8.36727
G1 X7.817 Y-21.695 E8.46891
G1 X8.02 Y-21.615 E8.49503
G1 X9.293 Y-21.038 E8.66238
G1 X11.587 Y-19.875 E8.97034
G1 X12.546 Y-19.339 E9.10189
G1 X13.289 Y-18.854 E9.20813
G1 X13.479 Y-18.72 E9.23596
G1 X14.138 Y-18.217 E9.33523
G1 X14.316 Y-18.069 E9.36295
G1 X15.321 Y-17.155 E9.52561
G1 X17.159 Y-15.324 E9.83625
G1 X17.802 Y-14.636 E9.949
G1 X17.923 Y-14.497 E9.97107
G1 X18.474 Y-13.815 E10.07605
G1 X18.579 Y-13.674 E10.0971
G1 X19.091 Y-12.934 E10.20485
G1 X19.186 Y-12.784 E10.22611
G1 X19.852 Y-11.622 E10.38647
G1 X21.073 Y-9.235 E10.7075
G1 X21.453 Y-8.422 E10.81496
G1 X21.525 Y-8.251 E10.83717
G1 X21.847 Y-7.407 E10.94534
G1 X21.898 Y-7.257 E10.96431
G1 X22.156 Y-6.394 E11.07216
G1 X22.196 Y-6.24 E11.09121
G1 X22.455 Y-5.005 E11.2423
G1 X22.874 Y-2.416 E11.55633
G1 X23.006 Y-1.375 E11.68198
G1 X23.021 Y-1.196 E11.70348
G1 X23.066 Y-.313 E11.80935
G1 X23.069 Y-.137 E11.83043
G1 X23.048 Y0.748 E11.93642
G1 X23.034 Y0.948 E11.96043
G1 X22.884 Y2.314 E12.12497
G1 X22.49 Y4.847 E12.43191
G1 X22.302 Y5.812 E12.54963
G1 X22.038 Y6.815 E12.67381
G1 X21.981 Y7.002 E12.69722
G1 X21.695 Y7.817 E12.80064
G1 X21.617 Y8.015 E12.82612
G1 X21.041 Y9.288 E12.99342
G1 X19.875 Y11.587 E13.30208
G1 X19.339 Y12.546 E13.43362
G1 X18.854 Y13.289 E13.53987
G1 X18.722 Y13.476 E13.56727
G1 X18.217 Y14.138 E13.66697
G1 X18.069 Y14.316 E13.69469
G1 X17.163 Y15.313 E13.85599
G1 X15.324 Y17.159 E14.16799
G1 X14.636 Y17.802 E14.28074
G1 X14.497 Y17.923 E14.30281
G1 X13.815 Y18.474 E14.40779
G1 X13.674 Y18.579 E14.42884
G1 X12.937 Y19.089 E14.53615
G1 X12.776 Y19.191 E14.55897
G1 X11.614 Y19.856 E14.71928
G1 X9.248 Y21.066 E15.03748
G1 X8.424 Y21.452 E15.14643
G1 X8.251 Y21.525 E15.16891
G1 X7.406 Y21.847 E15.27718
G1 X7.247 Y21.901 E15.29729
G1 X6.394 Y22.156 E15.40389
G1 X6.232 Y22.198 E15.42393
G1 X5.007 Y22.455 E15.5738
G1 X2.382 Y22.879 E15.89218
G1 X1.375 Y23.006 E16.01371
G1 X1.196 Y23.021 E16.03522
G1 X0.313 Y23.066 E16.14109
G1 X0.131 Y23.069 E16.16288
G1 X-.748 Y23.048 E16.26816
G1 X-.949 Y23.034 E16.29228
G1 X-2.319 Y22.883 E16.45732
G1 X-4.859 Y22.487 E16.76512
G1 X-5.815 Y22.301 E16.88174
G1 X-6.827 Y22.034 E17.00706
G1 X-7.016 Y21.976 E17.03073
G1 X-7.817 Y21.695 E17.13237
G1 X-8.02 Y21.615 E17.15849
G1 X-9.1 Y21.125 E17.3005
G0 F1113.8 X-9.301 Y21.034
G0 F7200 X-9.6 Y20.882
G1 F3000 E17.32696
G1 F1237.5 X-9.6 Y-20.886 E22.32811
G0 F7200 X-8 Y-21.621
G1 F1237.5 X-8 Y21.622 E27.50588
G0 F7200 X-6.4 Y22.146
G1 F1237.5 X-6.4 Y-22.155 E32.81032
G0 F7200 X-4.8 Y-22.489
G1 F1237.5 X-4.8 Y22.496 E38.19667
G0 F7200 X-3.2 Y22.745
G1 F1237.5 X-3.2 Y-22.747 E43.64372
G0 F7200 X-1.6 Y-22.979
G1 F1237.5 X-1.6 Y22.962 E49.14453
G0 F7200 X0.00 Y23.065
G1 F1237.5 X0.00 Y-23.065 E54.66798
G0 F7200 X1.6 Y-22.962
G1 F1237.5 X1.6 Y22.978 E60.16867
G0 F7200 X3.2 Y22.747
G1 F1237.5 X3.2 Y-22.745 E65.61572
G0 F7200 X4.8 Y-22.496
G1 F1237.5 X4.8 Y22.489 E71.00207
G0 F7200 X6.4 Y22.155
G1 F1237.5 X6.4 Y-22.146 E76.30652
G0 F7200 X8 Y-21.622
G1 F1237.5 X8 Y21.621 E81.48428
G0 F7200 X9.6 Y20.886
G1 F1237.5 X9.6 Y-20.882 E86.48543
G0 F7200 X11.2 Y-20.071
G1 F1237.5 X11.2 Y20.068 E91.29154
G0 F7200 X12.8 Y19.176
G1 F1237.5 X12.8 Y-19.173 E95.88331
G0 F7200 X14.4 Y-17.992
G1 F1237.5 X14.4 Y18.002 E100.19311
G0 F7200 X16 Y16.481
G1 F1237.5 X16 Y-16.478 E104.1395
G0 F7200 X17.6 Y-14.852
G1 F1237.5 X17.6 Y14.833 E107.69388
G0 F7200 X19.2 Y12.759
G1 F1237.5 X19.2 Y-12.759 E110.74931
G0 F7200 X20.8 Y-9.768
G1 F1237.5 X20.8 Y9.764 E113.08801
G0 F7200 X22.4 Y5.309
G1 F1237.5 X22.4 Y-5.267 E114.35434
G0 F7200 X-11.2 Y-20.068
G1 F1237.5 X-11.2 Y20.071 E119.16044
G0 F7200 X-12.8 Y19.173
G1 F1237.5 X-12.8 Y-19.176 E123.75222
G0 F7200 X-14.4 Y-18.002
G1 F1237.5 X-14.4 Y17.992 E128.06201
G0 F7200 X-16 Y16.478
G1 F1237.5 X-16 Y-16.481 E132.00841
G0 F7200 X-17.6 Y-14.833
G1 F1237.5 X-17.6 Y14.852 E135.56279
G0 F7200 X-19.2 Y12.76
G1 F1237.5 X-19.2 Y-12.759 E138.61834
G0 F7200 X-20.8 Y-9.763
G1 F1237.5 X-20.8 Y9.767 E140.95679
G0 F7200 X-22.4 Y5.251
G1 F1237.5 X-22.4 Y-5.308 E142.22109
G1 F3000 E138.22109
G0 F7200 X-19.52 Y12.299
;TIME_ELAPSED:61.673496
;LAYER:-6
M140 S60
G0 X-19.52 Y12.299 Z0.57
;TYPE:SUPPORT
G1 F3000 E142.22109
G1 F1237.5 X-12.271 Y19.548 E142.84763
G1 X-12.585 Y19.373 E142.8696
G1 X-13.324 Y18.889 E142.92358
G1 X-13.507 Y18.76 E142.93727
G1 X-14.169 Y18.255 E142.98815
G1 X-14.347 Y18.106 E143.00234
G1 X-15.355 Y17.191 E143.08554
G1 X-17.194 Y15.359 E143.24418
G1 X-17.847 Y14.659 E143.30269
G1 X-17.96 Y14.529 E143.31322
G1 X-18.513 Y13.845 E143.36697
G1 X-18.625 Y13.693 E143.37851
G1 X-19.131 Y12.962 E143.43285
G1 X-19.236 Y12.795 E143.4449
G0 F7200 X-12.271 Y19.548
G1 F1237.5 X-11.619 Y19.912 E143.49054
G1 X-9.619 Y20.927 E143.62761
G1 X-20.936 Y9.61 E144.60574
G1 X-21.119 Y9.252 E144.63031
G1 X-21.503 Y8.43 E144.68576
G1 X-21.575 Y8.256 E144.69727
G1 X-21.888 Y7.438 E144.7508
G1 X-21.916 Y7.358 E144.75598
G1 X-7.371 Y21.902 E146.01306
G1 X-7.031 Y22.022 E146.0351
G1 X-6.835 Y22.082 E146.04763
G1 X-5.98 Y22.314 E146.10177
G1 X-5.615 Y22.386 E146.12451
G1 X-22.372 Y5.629 E147.57282
G1 X-22.529 Y4.867 E147.62037
G1 X-22.657 Y4.071 E147.66964
G1 X-4.069 Y22.659 E149.27621
G1 X-2.56 Y22.895 E149.36955
G1 X-22.901 Y2.554 E151.12763
G1 X-22.938 Y2.32 E151.14211
G1 X-23.055 Y1.375 E151.20031
G1 X-23.07 Y1.199 E151.2111
G1 X-23.075 Y1.108 E151.21667
G1 X-1.117 Y23.065 E153.11447
G1 X-.958 Y23.082 E153.12424
G1 X-.751 Y23.097 E153.13693
G1 X0.131 Y23.118 E153.19084
G1 X0.206 Y23.116 E153.19543
G1 X-23.111 Y-.2 E155.21068
G1 X-23.097 Y-.755 E155.24461
G1 X-23.083 Y-.955 E155.25687
G1 X-23.035 Y-1.397 E155.28404
G1 X1.413 Y23.05 E157.39704
G1 X2.32 Y22.938 E157.4529
G1 X2.538 Y22.903 E157.46639
G1 X-22.899 Y-2.534 E159.66492
G1 X-22.727 Y-3.635 E159.73302
G1 X3.634 Y22.726 E162.01142
G1 X4.731 Y22.55 E162.07932
G1 X-22.555 Y-4.736 E164.43766
G1 X-22.534 Y-4.869 E164.44588
G1 X-22.349 Y-5.803 E164.50408
G1 X5.791 Y22.338 E166.93627
G1 X6.25 Y22.243 E166.96492
G1 X6.421 Y22.198 E166.97572
G1 X6.809 Y22.082 E167.00047
G1 X-22.088 Y-6.815 E169.49805
G1 X-22.082 Y-6.835 E169.49933
G1 X-22.022 Y-7.031 E169.51185
G1 X-21.766 Y-7.765 E169.55936
G1 X7.763 Y21.764 E172.11157
G1 X8.268 Y21.57 E172.14463
G1 X8.442 Y21.497 E172.15616
G1 X8.664 Y21.392 E172.17117
G1 X-21.382 Y-8.654 E174.76806
G1 X-21.078 Y-9.323 E174.81296
G1 X-20.977 Y-9.522 E174.8266
G1 X9.524 Y20.979 E177.46282
G1 X10.366 Y20.548 E177.52063
G1 X-20.549 Y-10.366 E180.19258
G1 X-20.121 Y-11.211 E180.25047
G1 X11.208 Y20.117 E182.9582
G1 X11.643 Y19.895 E182.98805
G1 X12.034 Y19.671 E183.01559
G1 X-19.678 Y-12.042 E185.75651
G1 X-19.38 Y-12.573 E185.79372
G1 X-19.205 Y-12.841 E185.81328
G1 X12.842 Y19.206 E188.58312
G1 X12.975 Y19.122 E188.59273
G1 X13.599 Y18.69 E188.63912
G1 X-18.69 Y-13.599 E191.42987
G1 X-18.255 Y-14.169 E191.47369
G1 X-18.134 Y-14.316 E191.48532
G1 X14.314 Y18.133 E194.28986
G1 X14.529 Y17.96 E194.30672
G1 X14.668 Y17.839 E194.31799
G1 X14.991 Y17.536 E194.34505
G1 X-17.529 Y-14.984 E197.15577
G1 X-17.198 Y-15.348 E197.18584
G1 X-16.91 Y-15.637 E197.21077
G1 X15.64 Y16.913 E200.02408
G1 X16.275 Y16.275 E200.07909
G1 X-16.275 Y-16.275 E202.8924
G1 X-15.64 Y-16.913 E202.94742
G1 X16.91 Y15.637 E205.76072
G1 X17.198 Y15.348 E205.78566
G1 X17.529 Y14.984 E205.81573
G1 X-14.991 Y-17.536 E208.62644
G1 X-14.668 Y-17.839 E208.65351
G1 X-14.529 Y-17.96 E208.66477
G1 X-14.314 Y-18.133 E208.68164
G1 X18.134 Y14.316 E211.48617
G1 X18.255 Y14.169 E211.49781
G1 X18.69 Y13.599 E211.54163
G1 X-13.599 Y-18.69 E214.33238
G1 X-12.975 Y-19.122 E214.37877
G1 X-12.842 Y-19.206 E214.38838
G1 X19.205 Y12.841 E217.15821
G1 X19.38 Y12.573 E217.17777
G1 X19.678 Y12.042 E217.21499
G1 X-12.034 Y-19.671 E219.95591
G1 X-11.643 Y-19.895 E219.98345
G1 X-11.208 Y-20.117 E220.0133
G1 X20.121 Y11.211 E222.72103
G1 X20.549 Y10.367 E222.77887
G1 X-10.366 Y-20.548 E225.45086
G1 X-9.524 Y-20.979 E225.50867
G1 X20.977 Y9.522 E228.14488
G1 X21.085 Y9.31 E228.15942
G1 X21.382 Y8.654 E228.20343
G1 X-8.664 Y-21.392 E230.80032
G1 X-8.44 Y-21.498 E230.81547
G1 X-8.268 Y-21.57 E230.82686
G1 X-7.763 Y-21.764 E230.85992
G1 X21.766 Y7.765 E233.41213
G1 X22.022 Y7.031 E233.45963
G1 X22.084 Y6.829 E233.47255
G1 X22.088 Y6.815 E233.47344
G1 X-6.809 Y-22.082 E235.97102
G1 X-6.421 Y-22.198 E235.99577
G1 X-6.25 Y-22.243 E236.00657
G1 X-5.791 Y-22.338 E236.03522
G1 X22.349 Y5.803 E238.46741
G1 X22.537 Y4.855 E238.52648
G1 X22.556 Y4.737 E238.53378
G1 X-4.731 Y-22.55 E240.89221
G1 X-3.635 Y-22.727 E240.96006
G1 X22.728 Y3.636 E243.23862
G1 X22.899 Y2.534 E243.30678
G1 X-2.539 Y-22.903 E245.50535
G1 X-2.385 Y-22.929 E245.5149
G1 X-1.412 Y-23.05 E245.57482
G1 X23.035 Y1.397 E247.68778
G1 X23.083 Y0.953 E247.71508
G1 X23.097 Y0.751 E247.72745
G1 X23.111 Y0.2 E247.76114
G1 X-.206 Y-23.116 E249.77639
G1 X-.131 Y-23.118 E249.78097
G1 X0.751 Y-23.097 E249.83489
G1 X0.958 Y-23.082 E249.84758
G1 X1.117 Y-23.065 E249.85735
G1 X23.075 Y-1.108 E251.75515
G1 X23.069 Y-1.211 E251.76145
G1 X23.055 Y-1.379 E251.77175
G1 X22.937 Y-2.332 E251.83044
G1 X22.901 Y-2.554 E251.84419
G1 X2.56 Y-22.895 E253.60227
G1 X4.069 Y-22.659 E253.69561
G1 X22.656 Y-4.072 E255.30209
G1 X22.503 Y-5.014 E255.36042
G1 X22.374 Y-5.626 E255.39864
G1 X5.615 Y-22.386 E256.84717
G1 X5.98 Y-22.314 E256.86991
G1 X6.835 Y-22.082 E256.92405
G1 X7.031 Y-22.022 E256.93658
G1 X7.371 Y-21.902 E256.95862
G1 X21.916 Y-7.358 E258.2157
G1 X21.888 Y-7.438 E258.22088
G1 X21.57 Y-8.268 E258.2752
G1 X21.498 Y-8.44 E258.2866
G1 X21.117 Y-9.256 E258.34164
G1 X20.935 Y-9.611 E258.36602
G1 X9.619 Y-20.927 E259.34406
G1 X11.619 Y-19.912 E259.48114
G1 X12.271 Y-19.548 E259.52677
G1 X19.521 Y-12.298 E260.15339
G0 F7200 X19.236 Y-12.795
G1 F1237.5 X19.122 Y-12.975 E260.16641
G1 X18.618 Y-13.703 E260.22053
G1 X18.513 Y-13.845 E260.23132
G1 X17.96 Y-14.529 E260.28508
G1 X17.839 Y-14.668 E260.29634
G1 X17.19 Y-15.363 E260.35445
G1 X15.348 Y-17.198 E260.51336
G1 X14.347 Y-18.106 E260.59595
G1 X14.169 Y-18.255 E260.61014
G1 X13.507 Y-18.76 E260.66103
G1 X13.318 Y-18.894 E260.67519
G1 X12.585 Y-19.373 E260.7287
G1 X12.271 Y-19.548 E260.75067
G1 F3000 E256.75067
G0 F7200 X-2.347 Y23.106
;TIME_ELAPSED:156.961958
;LAYER:-5
G0 X-2.347 Y23.106 Z0.71
;TYPE:SUPPORT-INTERFACE
G1 F3000 E260.75067
G1 F1650 X-.979 Y23.257 E260.77871
G1 X-.751 Y23.273 E260.78336
G1 X0.128 Y23.294 E260.80128
G1 X0.309 Y23.291 E260.80496
G1 X1.219 Y23.245 E260.82353
G1 X1.385 Y23.231 E260.82692
G1 X2.423 Y23.1 E260.84823
G1 X-2.386 Y23.1 E260.9462
G1 X-4.626 Y22.75 E260.99239
G1 X4.601 Y22.75 E261.18036
G1 X4.913 Y22.7 E261.1868
G1 X6.277 Y22.418 E261.21517
G1 X6.345 Y22.4 E261.2166
G1 X-6.322 Y22.4 E261.47465
G1 X-6.892 Y22.249 E261.48667
G1 X-7.075 Y22.193 E261.49056
G1 X-7.483 Y22.05 E261.49937
G1 X7.504 Y22.05 E261.80469
G1 X8.331 Y21.735 E261.82271
G1 X8.413 Y21.7 E261.82453
G1 X-8.376 Y21.7 E262.16655
G1 X-9.148 Y21.35 E262.18382
G1 X9.168 Y21.35 E262.55695
G1 X9.441 Y21.222 E262.56309
G1 X9.873 Y21 E262.57299
G1 X-9.865 Y21 E262.97509
G1 X-10.555 Y20.65 E262.99085
G1 X10.556 Y20.65 E263.42092
G1 X11.239 Y20.3 E263.43655
G1 X-11.246 Y20.3 E263.89461
G1 X-11.699 Y20.07 E263.90496
G1 X-11.914 Y19.95 E263.90998
G1 X11.901 Y19.95 E264.39513
G1 X12.512 Y19.6 E264.40948
G1 X-12.539 Y19.6 E264.91981
G1 X-12.674 Y19.524 E264.92297
G1 X-13.094 Y19.25 E264.93319
G1 X13.098 Y19.25 E265.46676
G1 X13.605 Y18.9 E265.47932
G1 X-13.614 Y18.9 E266.03382
G1 X-14.072 Y18.55 E266.04556
G1 X14.078 Y18.55 E266.61903
G1 X14.511 Y18.2 E266.63037
G1 X-14.506 Y18.2 E267.2215
G1 X-14.891 Y17.85 E267.2321
G1 X14.913 Y17.85 E267.83926
G1 X15.287 Y17.5 E267.84969
G1 X-15.275 Y17.5 E268.4723
G1 X-15.474 Y17.319 E268.47778
G1 X-15.644 Y17.15 E268.48266
G1 X15.649 Y17.15 E269.12016
G1 X15.997 Y16.8 E269.13021
G1 X-15.996 Y16.8 E269.78197
G1 X-16.347 Y16.45 E269.79207
G1 X16.346 Y16.45 E270.45808
G1 X16.695 Y16.1 E270.46815
G1 X-16.699 Y16.099 E271.14845
G1 X-17.05 Y15.749 E271.15855
G1 X17.044 Y15.75 E271.8531
G1 X17.319 Y15.474 E271.86104
G1 X17.386 Y15.4 E271.86308
G1 X-17.396 Y15.399 E272.57165
G1 X-17.724 Y15.049 E272.58142
G1 X17.704 Y15.05 E273.30315
G1 X18.022 Y14.7 E273.31279
G1 X-18.046 Y14.699 E274.04756
G1 X-18.093 Y14.644 E274.04903
G1 X-18.332 Y14.349 E274.05677
G1 X18.332 Y14.35 E274.80368
G1 X18.39 Y14.281 E274.80552
G1 X18.604 Y14 E274.81271
