;FLAVOR:Marlin
;TIME:3703
;Filament used: 1.9305m
;Layer height: 0.14
;Generated with Cura_SteamEngine 4.0.0
M140 S65
M105
M190 S65
M104 S200
M105
M109 S200
M82 ;absolute extrusion mode
; Calibration part start here
M666 X0 Y0 Z0 ; Add your endstop values here after calibration
M665 L120.80 R61.70 ; Sets default Delta Radius (change when calibrating)
M301 P45.00 I0.07 D1000 ; Hot end settings
M304 P100 I0 D0 ; Bed heater settings
M500 ; Save settings

G90 ; switch to absolute positioning - this line was added in case Cura doesn't include it by default
M82 ; set extruder to absolute mode - this line was added in case Cura doesn't include it by default
G28 ; start from home position
G29 C-0.8 Z0.3 ; probe the bed at 3 points with a 0.3mm overall vertical offset and an additional -0.8mm center offset
G1 Z15.0 F4800  ; move the nozzle up 15mm
G92 E0 ; reset extrusion distance
G1 F200 E3 ; extrude 3mm of feed stock
G92 E0 ; reset extrusion distance again
G0 Z0.01;
G92 Z0;
G1 F4800
G92 E0
G1 F3000 E-4
;LAYER_COUNT:178
;LAYER:0
M107
G0 F3600 X13.667 Y-7.263 Z0.3
;TYPE:SKIRT
G1 F3000 E0
G1 F1650 X19.227 Y-4.251 E0.41406
G1 X19.917 Y-3.832 E0.46692
G1 X20.561 Y-3.347 E0.51971
G1 X21.154 Y-2.8 E0.57254
G1 X21.691 Y-2.198 E0.62537
G1 X22.334 Y-1.274 E0.69908
G1 X22.407 Y-1.152 E0.70839
G1 X22.787 Y-.44 E0.76123
G1 X23.094 Y0.306 E0.81406
G1 X23.325 Y1.079 E0.86689
G1 X23.479 Y1.871 E0.91972
G1 X23.562 Y3.027 E0.99561
G1 X23.562 Y9.331 E1.4084
G1 X23.522 Y10.137 E1.46124
G1 X23.402 Y10.934 E1.51402
G1 X23.205 Y11.716 E1.56683
G1 X22.93 Y12.475 E1.61969
G1 X22.407 Y13.51 E1.69562
G1 X22.334 Y13.632 E1.70493
G1 X21.886 Y14.302 E1.75771
G1 X21.374 Y14.925 E1.81051
G1 X20.803 Y15.495 E1.86334
G1 X20.178 Y16.005 E1.91616
G1 X19.227 Y16.609 E1.98993
G1 X13.39 Y19.771 E2.42462
G1 X12.663 Y20.119 E2.4774
G1 X11.905 Y20.394 E2.5302
G1 X11.123 Y20.592 E2.58302
G1 X10.325 Y20.712 E2.63586
G1 X9.514 Y20.753 E2.68904
G1 X9.384 Y20.753 E2.69755
G1 X8.578 Y20.713 E2.75039
G1 X7.781 Y20.593 E2.80317
G1 X6.999 Y20.396 E2.85598
G1 X6.24 Y20.121 E2.90884
G1 X5.507 Y19.77 E2.96205
G1 X-.329 Y16.608 E3.39669
G1 X-1.018 Y16.189 E3.44949
G1 X-1.663 Y15.704 E3.50233
G1 X-2.022 Y15.373 E3.53431
G1 X-2.844 Y15.895 E3.59807
G1 X-8.681 Y19.057 E4.03276
G1 X-9.408 Y19.405 E4.08554
G1 X-10.166 Y19.68 E4.13834
G1 X-10.948 Y19.878 E4.19116
G1 X-11.746 Y19.998 E4.244
G1 X-12.557 Y20.039 E4.29717
G1 X-12.687 Y20.039 E4.30569
G1 X-13.493 Y19.999 E4.35853
G1 X-14.29 Y19.879 E4.41131
G1 X-15.072 Y19.682 E4.46411
G1 X-15.831 Y19.407 E4.51697
G1 X-16.564 Y19.056 E4.57019
G1 X-22.4 Y15.894 E5.00482
G1 X-23.089 Y15.475 E5.05763
G1 X-23.734 Y14.99 E5.11047
G1 X-24.327 Y14.444 E5.16325
G1 X-24.863 Y13.841 E5.21608
G1 X-25.506 Y12.918 E5.28974
G1 X-25.579 Y12.796 E5.29905
G1 X-25.959 Y12.084 E5.3519
G1 X-26.266 Y11.338 E5.40472
G1 X-26.497 Y10.565 E5.45755
G1 X-26.651 Y9.773 E5.51038
G1 X-26.734 Y8.617 E5.58627
G1 X-26.734 Y2.313 E5.99906
G1 X-26.694 Y1.507 E6.05191
G1 X-26.574 Y0.71 E6.10468
G1 X-26.377 Y-0.072 E6.15749
G1 X-26.102 Y-.831 E6.21035
G1 X-25.579 Y-1.866 E6.28628
G1 X-25.506 Y-1.988 E6.29559
G1 X-25.058 Y-2.658 E6.34837
G1 X-24.546 Y-3.281 E6.40117
G1 X-23.975 Y-3.851 E6.454
G1 X-23.35 Y-4.361 E6.50683
G1 X-22.4 Y-4.964 E6.58051
G1 X-16.564 Y-8.126 E7.01514
G1 X-15.836 Y-8.475 E7.068
G1 X-15.078 Y-8.75 E7.1208
G1 X-14.558 Y-8.882 E7.15593
G1 X-14.558 Y-13.073 E7.43036
G1 X-14.518 Y-13.879 E7.48321
G1 X-14.398 Y-14.676 E7.53598
G1 X-14.201 Y-15.458 E7.58879
G1 X-13.926 Y-16.217 E7.64165
G1 X-13.403 Y-17.252 E7.71758
G1 X-13.33 Y-17.374 E7.72689
G1 X-12.882 Y-18.044 E7.77967
G1 X-12.37 Y-18.667 E7.83247
G1 X-11.799 Y-19.237 E7.8853
G1 X-11.174 Y-19.747 E7.93813
G1 X-10.224 Y-20.35 E8.01181
G1 X-4.388 Y-23.512 E8.44644
G1 X-3.66 Y-23.861 E8.4993
G1 X-2.902 Y-24.136 E8.5521
G1 X-2.12 Y-24.334 E8.60493
G1 X-1.323 Y-24.454 E8.6577
G1 X-.511 Y-24.495 E8.71094
G1 X-.381 Y-24.495 E8.71945
G1 X0.425 Y-24.455 E8.7723
G1 X1.222 Y-24.335 E8.82507
G1 X2.004 Y-24.138 E8.87788
G1 X2.763 Y-23.863 E8.93074
G1 X3.495 Y-23.513 E8.98387
G1 X9.332 Y-20.351 E9.41856
G1 X10.022 Y-19.932 E9.47142
G1 X10.666 Y-19.447 E9.52421
G1 X11.259 Y-18.9 E9.57704
G1 X11.796 Y-18.298 E9.62986
G1 X12.439 Y-17.374 E9.70357
G1 X12.512 Y-17.252 E9.71288
G1 X12.892 Y-16.54 E9.76573
G1 X13.199 Y-15.794 E9.81855
G1 X13.43 Y-15.021 E9.87138
G1 X13.584 Y-14.229 E9.92421
G1 X13.667 Y-13.073 E10.00011
G1 X13.667 Y-7.668 E10.35403
G0 F1485 X13.667 Y-7.263
G0 F3600 X13.142 Y-6.95
G1 F3000 E10.38055
G1 F1650 X18.977 Y-3.789 E10.81509
G1 X19.643 Y-3.383 E10.86617
G1 X20.264 Y-2.91 E10.91728
G1 X20.834 Y-2.377 E10.96838
G1 X21.345 Y-1.788 E11.01944
G1 X21.884 Y-1.004 E11.08174
G1 X21.957 Y-.882 E11.09105
G1 X22.323 Y-.193 E11.14214
G1 X22.616 Y0.53 E11.19322
G1 X22.834 Y1.279 E11.2443
G1 X22.974 Y2.047 E11.29542
G1 X23.037 Y3.027 E11.35972
G1 X23.037 Y9.331 E11.77252
G1 X22.997 Y10.11 E11.82359
G1 X22.878 Y10.881 E11.87468
G1 X22.68 Y11.636 E11.92579
G1 X22.406 Y12.366 E11.97684
G1 X21.957 Y13.24 E12.04118
G1 X21.884 Y13.362 E12.05049
G1 X21.449 Y14.01 E12.1016
G1 X20.951 Y14.61 E12.15266
G1 X20.394 Y15.156 E12.20373
G1 X19.784 Y15.642 E12.2548
G1 X18.977 Y16.147 E12.31714
G1 X13.14 Y19.309 E12.75183
G1 X12.436 Y19.645 E12.80291
G1 X11.701 Y19.907 E12.854
G1 X10.944 Y20.093 E12.90505
G1 X10.171 Y20.2 E12.95615
G1 X9.514 Y20.228 E12.99921
G1 X9.384 Y20.228 E13.00772
G1 X8.605 Y20.188 E13.0588
G1 X7.834 Y20.069 E13.10988
G1 X7.079 Y19.871 E13.16099
G1 X6.349 Y19.597 E13.21205
G1 X5.757 Y19.309 E13.25515
G1 X-0.079 Y16.147 E13.68979
G1 X-.745 Y15.74 E13.7409
G1 X-1.366 Y15.268 E13.79197
G1 X-1.935 Y14.735 E13.84303
G1 X-1.98 Y14.683 E13.84753
G1 X-2.287 Y14.928 E13.87325
G1 X-3.094 Y15.433 E13.93558
G1 X-8.931 Y18.595 E14.37027
G1 X-9.635 Y18.931 E14.42135
G1 X-10.37 Y19.193 E14.47245
G1 X-11.127 Y19.379 E14.52349
G1 X-11.9 Y19.486 E14.57459
G1 X-12.557 Y19.514 E14.61765
G1 X-12.687 Y19.514 E14.62616
G1 X-13.466 Y19.474 E14.67724
G1 X-14.237 Y19.355 E14.72832
G1 X-14.992 Y19.157 E14.77943
G1 X-15.722 Y18.883 E14.83049
G1 X-16.314 Y18.595 E14.8736
G1 X-22.15 Y15.433 E15.30823
G1 X-22.816 Y15.026 E15.35934
G1 X-23.437 Y14.554 E15.41042
G1 X-24.006 Y14.021 E15.46147
G1 X-24.518 Y13.432 E15.51257
G1 X-25.056 Y12.648 E15.57484
G1 X-25.129 Y12.526 E15.58415
G1 X-25.495 Y11.837 E15.63523
G1 X-25.788 Y11.114 E15.68631
G1 X-26.006 Y10.365 E15.73739
G1 X-26.146 Y9.597 E15.78851
G1 X-26.209 Y8.617 E15.85282
G1 X-26.209 Y2.313 E16.26561
G1 X-26.169 Y1.534 E16.31669
G1 X-26.05 Y0.763 E16.36777
G1 X-25.852 Y0.008 E16.41888
G1 X-25.578 Y-.722 E16.46994
G1 X-25.129 Y-1.596 E16.53428
G1 X-25.056 Y-1.718 E16.54359
G1 X-24.621 Y-2.366 E16.59469
G1 X-24.123 Y-2.966 E16.64575
G1 X-23.566 Y-3.512 E16.69682
G1 X-22.956 Y-3.998 E16.74789
G1 X-22.15 Y-4.503 E16.81018
G1 X-16.314 Y-7.665 E17.24481
G1 X-15.61 Y-8.001 E17.29589
G1 X-14.875 Y-8.263 E17.34698
G1 X-14.117 Y-8.448 E17.39807
G1 X-14.033 Y-8.46 E17.40363
G1 X-14.033 Y-13.073 E17.70569
G1 X-13.993 Y-13.852 E17.75677
G1 X-13.874 Y-14.623 E17.80785
G1 X-13.676 Y-15.378 E17.85896
G1 X-13.402 Y-16.108 E17.91002
G1 X-12.953 Y-16.982 E17.97436
G1 X-12.88 Y-17.104 E17.98367
G1 X-12.445 Y-17.752 E18.03478
G1 X-11.947 Y-18.352 E18.08584
G1 X-11.39 Y-18.898 E18.13691
G1 X-10.78 Y-19.384 E18.18798
G1 X-9.974 Y-19.889 E18.25026
G1 X-4.138 Y-23.051 E18.6849
G1 X-3.434 Y-23.387 E18.73597
G1 X-2.699 Y-23.649 E18.78707
G1 X-1.941 Y-23.834 E18.83816
G1 X-1.168 Y-23.942 E18.88927
G1 X-.511 Y-23.97 E18.93233
G1 X-.381 Y-23.97 E18.94084
G1 X0.398 Y-23.93 E18.99192
G1 X1.169 Y-23.811 E19.043
G1 X1.924 Y-23.613 E19.09411
G1 X2.654 Y-23.339 E19.14517
G1 X3.245 Y-23.051 E19.18822
G1 X9.082 Y-19.889 E19.62291
G1 X9.748 Y-19.483 E19.67398
G1 X10.369 Y-19.01 E19.7251
G1 X10.939 Y-18.477 E19.7762
G1 X11.45 Y-17.888 E19.82726
G1 X11.989 Y-17.104 E19.88956
G1 X12.062 Y-16.982 E19.89887
G1 X12.428 Y-16.293 E19.94996
G1 X12.721 Y-15.57 E20.00104
G1 X12.939 Y-14.821 E20.05212
G1 X13.079 Y-14.053 E20.10324
G1 X13.142 Y-13.073 E20.16754
G1 X13.142 Y-7.355 E20.54196
G0 F1485 X13.142 Y-6.95
G0 F3600 X12.89 Y-6.489
G1 F3000 E20.56848
G1 F1650 X18.727 Y-3.327 E21.00317
G1 X19.369 Y-2.934 E21.05246
G1 X19.966 Y-2.475 E21.10177
G1 X20.51 Y-1.955 E21.15105
G1 X20.997 Y-1.381 E21.20034
G1 X21.433 Y-.734 E21.25143
G1 X21.506 Y-.612 E21.26074
G1 X21.858 Y0.053 E21.31001
G1 X22.137 Y0.752 E21.35929
G1 X22.34 Y1.477 E21.40859
G1 X22.466 Y2.219 E21.45787
G1 X22.512 Y3.027 E21.51086
G1 X22.512 Y9.331 E21.92366
G1 X22.472 Y10.083 E21.97297
G1 X22.353 Y10.826 E22.02224
G1 X22.155 Y11.552 E22.07152
G1 X21.881 Y12.254 E22.12086
G1 X21.506 Y12.97 E22.17379
G1 X21.433 Y13.092 E22.1831
G1 X21.013 Y13.717 E22.2324
G1 X20.529 Y14.293 E22.28167
G1 X19.986 Y14.815 E22.33099
G1 X19.392 Y15.277 E22.38026
G1 X18.727 Y15.685 E22.43135
G1 X12.89 Y18.847 E22.86604
G1 X12.21 Y19.17 E22.91534
G1 X11.5 Y19.419 E22.9646
G1 X10.767 Y19.591 E23.01391
G1 X10.02 Y19.685 E23.06321
G1 X9.514 Y19.703 E23.09636
G1 X9.384 Y19.703 E23.10487
G1 X8.632 Y19.663 E23.15418
G1 X7.889 Y19.544 E23.20346
G1 X7.163 Y19.346 E23.25273
G1 X6.461 Y19.072 E23.30208
G1 X6.007 Y18.847 E23.33526
G1 X0.171 Y15.685 E23.76989
G1 X-.47 Y15.292 E23.81912
G1 X-1.067 Y14.833 E23.86843
G1 X-1.612 Y14.313 E23.91776
G1 X-1.923 Y13.945 E23.94931
G1 X-2.085 Y14.101 E23.96403
G1 X-2.679 Y14.563 E24.01331
G1 X-3.344 Y14.971 E24.0644
G1 X-9.181 Y18.133 E24.49909
G1 X-9.861 Y18.456 E24.54838
G1 X-10.571 Y18.705 E24.59765
G1 X-11.304 Y18.877 E24.64695
G1 X-12.051 Y18.971 E24.69625
G1 X-12.557 Y18.989 E24.72941
G1 X-12.687 Y18.989 E24.73792
G1 X-13.439 Y18.949 E24.78723
G1 X-14.182 Y18.83 E24.8365
G1 X-14.908 Y18.632 E24.88578
G1 X-15.61 Y18.358 E24.93512
G1 X-16.064 Y18.133 E24.9683
G1 X-21.9 Y14.971 E25.40293
G1 X-22.541 Y14.578 E25.45217
G1 X-23.138 Y14.119 E25.50148
G1 X-23.683 Y13.599 E25.5508
G1 X-24.169 Y13.024 E25.6001
G1 X-24.605 Y12.378 E25.65114
G1 X-24.678 Y12.256 E25.66045
G1 X-25.03 Y11.591 E25.70972
G1 X-25.309 Y10.892 E25.759
G1 X-25.512 Y10.167 E25.8083
G1 X-25.638 Y9.425 E25.85758
G1 X-25.684 Y8.617 E25.91057
G1 X-25.684 Y2.313 E26.32337
G1 X-25.644 Y1.561 E26.37268
G1 X-25.525 Y0.818 E26.42195
G1 X-25.327 Y0.092 E26.47122
G1 X-25.053 Y-.61 E26.52057
G1 X-24.678 Y-1.326 E26.57349
G1 X-24.605 Y-1.448 E26.5828
G1 X-24.185 Y-2.073 E26.63211
G1 X-23.701 Y-2.649 E26.68138
G1 X-23.158 Y-3.171 E26.7307
G1 X-22.564 Y-3.633 E26.77997
G1 X-21.9 Y-4.041 E26.831
G1 X-16.064 Y-7.203 E27.26564
G1 X-15.384 Y-7.526 E27.31493
G1 X-14.673 Y-7.775 E27.36426
G1 X-13.94 Y-7.947 E27.41356
G1 X-13.508 Y-8.001 E27.44207
G1 X-13.508 Y-13.073 E27.77419
G1 X-13.468 Y-13.825 E27.8235
G1 X-13.349 Y-14.568 E27.87277
G1 X-13.151 Y-15.294 E27.92205
G1 X-12.877 Y-15.996 E27.97139
G1 X-12.502 Y-16.712 E28.02432
G1 X-12.429 Y-16.834 E28.03363
G1 X-12.009 Y-17.459 E28.08294
G1 X-11.525 Y-18.035 E28.1322
G1 X-10.982 Y-18.557 E28.18152
G1 X-10.388 Y-19.019 E28.2308
G1 X-9.724 Y-19.427 E28.28183
G1 X-3.888 Y-22.589 E28.71646
G1 X-3.208 Y-22.912 E28.76576
G1 X-2.497 Y-23.161 E28.81509
G1 X-1.764 Y-23.333 E28.86439
G1 X-1.018 Y-23.427 E28.91362
G1 X-.511 Y-23.445 E28.94684
G1 X-.381 Y-23.445 E28.95536
G1 X0.371 Y-23.405 E29.00467
G1 X1.114 Y-23.286 E29.05394
G1 X1.84 Y-23.088 E29.10321
G1 X2.542 Y-22.814 E29.15256
G1 X2.995 Y-22.589 E29.18568
G1 X8.832 Y-19.427 E29.62037
G1 X9.474 Y-19.034 E29.66966
G1 X10.071 Y-18.575 E29.71897
G1 X10.615 Y-18.055 E29.76825
G1 X11.102 Y-17.481 E29.81754
G1 X11.538 Y-16.834 E29.86863
G1 X11.611 Y-16.712 E29.87794
G1 X11.963 Y-16.047 E29.92721
G1 X12.242 Y-15.348 E29.97649
G1 X12.445 Y-14.623 E30.02579
G1 X12.571 Y-13.881 E30.07507
G1 X12.617 Y-13.073 E30.12807
G1 X12.617 Y-6.769 E30.54086
G1 X12.614 Y-6.721 E30.54401
G0 F1485 X12.61 Y-6.628
G0 X12.89 Y-6.489
G0 F3600 X12.64 Y-6.028
G1 F3000 E30.57053
G1 F1650 X18.477 Y-2.866 E31.00522
G1 X19.094 Y-2.486 E31.05267
G1 X19.665 Y-2.041 E31.10007
G1 X20.184 Y-1.535 E31.14753
G1 X20.644 Y-.976 E31.19494
G1 X20.983 Y-.465 E31.23509
G1 X21.056 Y-.343 E31.2444
G1 X21.393 Y0.298 E31.29182
G1 X21.657 Y0.973 E31.33928
G1 X21.846 Y1.672 E31.3867
G1 X21.956 Y2.388 E31.43413
G1 X21.987 Y3.027 E31.47602
G1 X21.987 Y9.331 E31.88881
G1 X21.947 Y10.054 E31.93623
G1 X21.828 Y10.769 E31.98369
G1 X21.63 Y11.466 E32.03114
G1 X21.357 Y12.136 E32.07851
G1 X21.056 Y12.701 E32.12043
G1 X20.983 Y12.823 E32.12974
G1 X20.577 Y13.423 E32.17718
G1 X20.108 Y13.975 E32.22461
G1 X19.581 Y14.471 E32.272
G1 X19.002 Y14.907 E32.31946
G1 X18.477 Y15.224 E32.35962
G1 X12.64 Y18.386 E32.79431
G1 X11.985 Y18.695 E32.84173
G1 X11.3 Y18.93 E32.88915
G1 X10.593 Y19.089 E32.9366
G1 X9.514 Y19.178 E33.00749
G1 X9.384 Y19.178 E33.01601
G1 X8.661 Y19.138 E33.06342
G1 X7.946 Y19.019 E33.11089
G1 X7.249 Y18.821 E33.15833
G1 X6.258 Y18.385 E33.22923
G1 X0.422 Y15.223 E33.66386
G1 X-.195 Y14.844 E33.71127
G1 X-.767 Y14.398 E33.75877
G1 X-1.285 Y13.893 E33.80614
G1 X-1.745 Y13.333 E33.85359
G1 X-1.868 Y13.149 E33.86809
G1 X-1.963 Y13.261 E33.8777
G1 X-2.49 Y13.757 E33.92509
G1 X-3.069 Y14.193 E33.97255
G1 X-3.594 Y14.51 E34.01271
G1 X-9.431 Y17.672 E34.4474
G1 X-10.086 Y17.981 E34.49482
G1 X-10.771 Y18.216 E34.54225
G1 X-11.478 Y18.375 E34.5897
G1 X-12.557 Y18.464 E34.66059
G1 X-12.687 Y18.464 E34.6691
G1 X-13.41 Y18.424 E34.71652
G1 X-14.125 Y18.305 E34.76398
G1 X-14.822 Y18.107 E34.81143
G1 X-15.813 Y17.671 E34.88232
G1 X-21.649 Y14.509 E35.31695
G1 X-22.266 Y14.13 E35.36437
G1 X-22.838 Y13.684 E35.41186
G1 X-23.356 Y13.179 E35.45924
G1 X-23.816 Y12.619 E35.50669
G1 X-24.155 Y12.109 E35.54679
G1 X-24.228 Y11.987 E35.5561
G1 X-24.565 Y11.346 E35.60352
G1 X-24.829 Y10.671 E35.65098
G1 X-25.018 Y9.972 E35.69839
G1 X-25.128 Y9.256 E35.74583
G1 X-25.159 Y8.617 E35.78772
G1 X-25.159 Y2.313 E36.20051
G1 X-25.119 Y1.59 E36.24793
G1 X-25 Y0.875 E36.29539
G1 X-24.802 Y0.178 E36.34284
G1 X-24.529 Y-.492 E36.39021
G1 X-24.228 Y-1.057 E36.43213
G1 X-24.155 Y-1.179 E36.44144
G1 X-23.749 Y-1.779 E36.48888
G1 X-23.28 Y-2.331 E36.53631
G1 X-22.753 Y-2.827 E36.5837
G1 X-22.174 Y-3.263 E36.63116
G1 X-21.649 Y-3.579 E36.67128
G1 X-15.813 Y-6.741 E37.10591
G1 X-15.159 Y-7.051 E37.15331
G1 X-14.474 Y-7.286 E37.20073
G1 X-13.767 Y-7.445 E37.24818
G1 X-12.983 Y-7.51 E37.29969
G1 X-12.983 Y-13.073 E37.66396
G1 X-12.943 Y-13.796 E37.71138
G1 X-12.824 Y-14.511 E37.75884
G1 X-12.626 Y-15.208 E37.80628
G1 X-12.353 Y-15.878 E37.85366
G1 X-12.052 Y-16.443 E37.89558
G1 X-11.979 Y-16.565 E37.90489
G1 X-11.573 Y-17.165 E37.95233
G1 X-11.104 Y-17.717 E37.99976
G1 X-10.577 Y-18.213 E38.04715
G1 X-9.998 Y-18.649 E38.09461
G1 X-9.473 Y-18.965 E38.13473
G1 X-3.637 Y-22.127 E38.56936
G1 X-2.983 Y-22.437 E38.61676
G1 X-2.298 Y-22.672 E38.66418
G1 X-1.591 Y-22.831 E38.71163
G1 X-.511 Y-22.92 E38.78259
G1 X-.381 Y-22.92 E38.7911
G1 X0.342 Y-22.88 E38.83851
G1 X1.057 Y-22.761 E38.88598
G1 X1.754 Y-22.563 E38.93342
G1 X2.745 Y-22.128 E39.00429
G1 X8.582 Y-18.966 E39.43898
G1 X9.199 Y-18.586 E39.48643
G1 X9.77 Y-18.141 E39.53383
G1 X10.289 Y-17.635 E39.5813
G1 X10.749 Y-17.076 E39.6287
G1 X11.088 Y-16.565 E39.66886
G1 X11.161 Y-16.443 E39.67816
G1 X11.498 Y-15.802 E39.72559
G1 X11.762 Y-15.127 E39.77305
G1 X11.951 Y-14.428 E39.82046
G1 X12.061 Y-13.712 E39.86789
G1 X12.092 Y-13.073 E39.90979
G1 X12.092 Y-6.769 E40.32258
G1 X12.065 Y-6.28 E40.35465
G1 X12.269 Y-6.19 E40.36925
G0 F1485 X12.64 Y-6.028
G0 F3600 X12.39 Y-5.566
G1 F3000 E40.39577
G1 F1650 X18.227 Y-2.404 E40.83046
G1 X18.818 Y-2.039 E40.87594
G1 X19.363 Y-1.608 E40.92144
G1 X19.855 Y-1.117 E40.96695
