;FLAVOR:Marlin
;TIME:4234
;Filament used: 2.14625m
;Layer height: 0.14
;Generated with Cura_SteamEngine 4.0.0
M140 S65
M105
M190 S65
M104 S200
M105
M109 S200
M82 ;absolute extrusion mode
; Calibration part start here
M666 X0 Y0 Z0 ; Add your endstop values here after calibration
M665 L120.80 R61.70 ; Sets default Delta Radius (change when calibrating)
M301 P45.00 I0.07 D1000 ; Hot end settings
M304 P100 I0 D0 ; Bed heater settings
M500 ; Save settings

G90 ; switch to absolute positioning - this line was added in case Cura doesn't include it by default
M82 ; set extruder to absolute mode - this line was added in case Cura doesn't include it by default
G28 ; start from home position
G29 C-0.8 Z0.3 ; probe the bed at 3 points with a 0.3mm overall vertical offset and an additional -0.8mm center offset
G1 Z15.0 F4800  ; move the nozzle up 15mm
G92 E0 ; reset extrusion distance
G1 F200 E3 ; extrude 3mm of feed stock
G92 E0 ; reset extrusion distance again
G0 Z0.01;
G92 Z0;
G1 F4800
G92 E0
G1 F3000 E-4
;LAYER_COUNT:178
;LAYER:0
M107
G0 F3600 X-7.322 Y-22.113 Z0.3
;TYPE:SKIRT
G1 F3000 E0
G1 F1650 X7.322 Y-22.113 E0.9589
G1 X8.128 Y-22.073 E1.01174
G1 X8.925 Y-21.953 E1.06452
G1 X9.707 Y-21.756 E1.11733
G1 X10.001 Y-21.65 E1.13779
G1 X10.354 Y-21.774 E1.16229
G1 X11.138 Y-21.966 E1.21515
G1 X11.936 Y-22.079 E1.26792
G1 X12.678 Y-22.113 E1.31656
G1 X27.322 Y-22.113 E2.27546
G1 X28.128 Y-22.073 E2.3283
G1 X28.925 Y-21.953 E2.38108
G1 X29.707 Y-21.756 E2.43388
G1 X30.466 Y-21.481 E2.48675
G1 X31.193 Y-21.133 E2.53952
G1 X31.883 Y-20.715 E2.59235
G1 X32.528 Y-20.23 E2.64519
G1 X33.076 Y-19.729 E2.69381
G1 X33.229 Y-19.576 E2.70798
G1 X33.771 Y-18.979 E2.76078
G1 X34.25 Y-18.33 E2.8136
G1 X34.663 Y-17.637 E2.86642
G1 X35.006 Y-16.907 E2.91924
G1 X35.274 Y-16.146 E2.97207
G1 X35.466 Y-15.362 E3.02492
G1 X35.579 Y-14.564 E3.0777
G1 X35.613 Y-13.822 E3.12634
G1 X35.613 Y13.822 E4.93649
G1 X35.573 Y14.628 E4.98933
G1 X35.453 Y15.425 E5.04211
G1 X35.256 Y16.207 E5.09492
G1 X34.981 Y16.966 E5.14778
G1 X34.633 Y17.693 E5.20055
G1 X34.215 Y18.383 E5.25338
G1 X33.73 Y19.028 E5.30622
G1 X33.229 Y19.576 E5.35484
G1 X33.076 Y19.729 E5.36901
G1 X32.479 Y20.271 E5.42181
G1 X31.83 Y20.75 E5.47463
G1 X31.137 Y21.163 E5.52745
G1 X30.407 Y21.506 E5.58027
G1 X29.646 Y21.774 E5.6331
G1 X28.862 Y21.966 E5.68595
G1 X28.064 Y22.079 E5.73873
G1 X27.322 Y22.113 E5.78737
G1 X12.678 Y22.113 E6.74627
G1 X11.872 Y22.073 E6.79911
G1 X11.075 Y21.953 E6.85189
G1 X10.293 Y21.756 E6.90469
G1 X9.999 Y21.65 E6.92516
G1 X9.646 Y21.774 E6.94966
G1 X8.862 Y21.966 E7.00251
G1 X8.064 Y22.079 E7.05529
G1 X7.322 Y22.113 E7.10393
G1 X-7.322 Y22.113 E8.06283
G1 X-8.128 Y22.073 E8.11567
G1 X-8.925 Y21.953 E8.16845
G1 X-9.707 Y21.756 E8.22125
G1 X-10.001 Y21.65 E8.24172
G1 X-10.354 Y21.774 E8.26622
G1 X-11.138 Y21.966 E8.31907
G1 X-11.936 Y22.079 E8.37185
G1 X-12.678 Y22.113 E8.42048
G1 X-27.322 Y22.113 E9.37939
G1 X-28.128 Y22.073 E9.43223
G1 X-28.925 Y21.953 E9.485
G1 X-29.707 Y21.756 E9.53781
G1 X-30.466 Y21.481 E9.59067
G1 X-31.193 Y21.133 E9.64345
G1 X-31.883 Y20.715 E9.69627
G1 X-32.528 Y20.23 E9.74912
G1 X-33.076 Y19.729 E9.79774
G1 X-33.229 Y19.576 E9.81191
G1 X-33.771 Y18.979 E9.86471
G1 X-34.25 Y18.33 E9.91752
G1 X-34.663 Y17.637 E9.97035
G1 X-35.006 Y16.907 E10.02316
G1 X-35.274 Y16.146 E10.07599
G1 X-35.466 Y15.362 E10.12885
G1 X-35.579 Y14.564 E10.18162
G1 X-35.613 Y13.822 E10.23026
G1 X-35.613 Y-13.822 E12.04042
G1 X-35.573 Y-14.628 E12.09326
G1 X-35.453 Y-15.425 E12.14603
G1 X-35.256 Y-16.207 E12.19884
G1 X-34.981 Y-16.966 E12.2517
G1 X-34.633 Y-17.693 E12.30448
G1 X-34.215 Y-18.383 E12.35731
G1 X-33.73 Y-19.028 E12.41015
G1 X-33.229 Y-19.576 E12.45877
G1 X-33.076 Y-19.729 E12.47294
G1 X-32.479 Y-20.271 E12.52574
G1 X-31.83 Y-20.75 E12.57855
G1 X-31.137 Y-21.163 E12.63138
G1 X-30.407 Y-21.506 E12.68419
G1 X-29.646 Y-21.774 E12.73703
G1 X-28.862 Y-21.966 E12.78988
G1 X-28.064 Y-22.079 E12.84265
G1 X-27.322 Y-22.113 E12.89129
G1 X-12.678 Y-22.113 E13.85019
G1 X-11.872 Y-22.073 E13.90304
G1 X-11.075 Y-21.953 E13.95581
G1 X-10.293 Y-21.756 E14.00862
G1 X-9.999 Y-21.65 E14.02908
G1 X-9.646 Y-21.774 E14.05358
G1 X-8.862 Y-21.966 E14.10644
G1 X-8.064 Y-22.079 E14.15921
G1 X-7.727 Y-22.095 E14.1813
G0 F1485 X-7.322 Y-22.113
G0 F3600 X-7.322 Y-21.588
G1 F3000 E14.20782
G1 F1650 X7.322 Y-21.588 E15.16673
G1 X8.101 Y-21.548 E15.2178
G1 X8.872 Y-21.429 E15.26889
G1 X9.627 Y-21.231 E15.32
G1 X9.993 Y-21.094 E15.34559
G1 X10.627 Y-21.306 E15.38936
G1 X11.388 Y-21.478 E15.44045
G1 X12.163 Y-21.571 E15.49156
G1 X12.678 Y-21.588 E15.5253
G1 X27.322 Y-21.588 E16.4842
G1 X28.101 Y-21.548 E16.53528
G1 X28.872 Y-21.429 E16.58636
G1 X29.627 Y-21.231 E16.63747
G1 X30.357 Y-20.957 E16.68853
G1 X31.056 Y-20.609 E16.73966
G1 X31.715 Y-20.193 E16.79069
G1 X32.328 Y-19.71 E16.84179
G1 X32.705 Y-19.358 E16.87557
G1 X32.858 Y-19.205 E16.88974
G1 X33.381 Y-18.626 E16.94083
G1 X33.842 Y-17.996 E16.99195
G1 X34.235 Y-17.323 E17.04298
G1 X34.558 Y-16.613 E17.09405
G1 X34.806 Y-15.873 E17.14516
G1 X34.978 Y-15.112 E17.19625
G1 X35.071 Y-14.337 E17.24736
G1 X35.088 Y-13.822 E17.2811
G1 X35.088 Y13.822 E19.09125
G1 X35.048 Y14.601 E19.14233
G1 X34.929 Y15.372 E19.19341
G1 X34.731 Y16.127 E19.24452
G1 X34.457 Y16.857 E19.29558
G1 X34.109 Y17.556 E19.34671
G1 X33.693 Y18.215 E19.39774
G1 X33.21 Y18.828 E19.44884
G1 X32.858 Y19.205 E19.48262
G1 X32.705 Y19.358 E19.49679
G1 X32.126 Y19.881 E19.54788
G1 X31.496 Y20.342 E19.59899
G1 X30.823 Y20.735 E19.65003
G1 X30.113 Y21.058 E19.7011
G1 X29.373 Y21.306 E19.75221
G1 X28.612 Y21.478 E19.8033
G1 X27.837 Y21.571 E19.85441
G1 X27.322 Y21.588 E19.88815
G1 X12.678 Y21.588 E20.84705
G1 X11.899 Y21.548 E20.89813
G1 X11.128 Y21.429 E20.94921
G1 X10.373 Y21.231 E21.00032
G1 X10.007 Y21.094 E21.02591
G1 X9.373 Y21.306 E21.06968
G1 X8.612 Y21.478 E21.12077
G1 X7.837 Y21.571 E21.17188
G1 X7.322 Y21.588 E21.20563
G1 X-7.322 Y21.588 E22.16453
G1 X-8.101 Y21.548 E22.2156
G1 X-8.872 Y21.429 E22.26669
G1 X-9.627 Y21.231 E22.3178
G1 X-9.993 Y21.094 E22.34339
G1 X-10.627 Y21.306 E22.38716
G1 X-11.388 Y21.478 E22.43825
G1 X-12.163 Y21.571 E22.48936
G1 X-12.678 Y21.588 E22.5231
G1 X-27.322 Y21.588 E23.482
G1 X-28.101 Y21.548 E23.53308
G1 X-28.872 Y21.429 E23.58417
G1 X-29.627 Y21.231 E23.63528
G1 X-30.357 Y20.957 E23.68633
G1 X-31.056 Y20.609 E23.73746
G1 X-31.715 Y20.193 E23.78849
G1 X-32.328 Y19.71 E23.8396
G1 X-32.705 Y19.358 E23.87337
G1 X-32.858 Y19.205 E23.88754
G1 X-33.381 Y18.626 E23.93863
G1 X-33.842 Y17.996 E23.98975
G1 X-34.235 Y17.323 E24.04078
G1 X-34.558 Y16.613 E24.09185
G1 X-34.806 Y15.873 E24.14296
G1 X-34.978 Y15.112 E24.19405
G1 X-35.071 Y14.337 E24.24516
G1 X-35.088 Y13.822 E24.2789
G1 X-35.088 Y-13.822 E26.08905
G1 X-35.048 Y-14.601 E26.14013
G1 X-34.929 Y-15.372 E26.19121
G1 X-34.731 Y-16.127 E26.24232
G1 X-34.457 Y-16.857 E26.29338
G1 X-34.109 Y-17.556 E26.34451
G1 X-33.693 Y-18.215 E26.39554
G1 X-33.21 Y-18.828 E26.44664
G1 X-32.858 Y-19.205 E26.48042
G1 X-32.705 Y-19.358 E26.49459
G1 X-32.126 Y-19.881 E26.54568
G1 X-31.496 Y-20.342 E26.5968
G1 X-30.823 Y-20.735 E26.64783
G1 X-30.113 Y-21.058 E26.6989
G1 X-29.373 Y-21.306 E26.75001
G1 X-28.612 Y-21.478 E26.8011
G1 X-27.837 Y-21.571 E26.85221
G1 X-27.322 Y-21.588 E26.88595
G1 X-12.678 Y-21.588 E27.84485
G1 X-11.899 Y-21.548 E27.89593
G1 X-11.128 Y-21.429 E27.94701
G1 X-10.373 Y-21.231 E27.99812
G1 X-10.007 Y-21.094 E28.02371
G1 X-9.373 Y-21.306 E28.06749
G1 X-8.612 Y-21.478 E28.11857
G1 X-7.837 Y-21.571 E28.16969
G1 X-7.727 Y-21.575 E28.17689
G0 F1485 X-7.322 Y-21.588
G0 F3600 X-7.322 Y-21.063
G1 F3000 E28.20341
G1 F1650 X7.322 Y-21.063 E29.16232
G1 X8.074 Y-21.023 E29.21163
G1 X8.817 Y-20.904 E29.2609
G1 X9.543 Y-20.706 E29.31017
G1 X9.997 Y-20.529 E29.34208
G1 X10.178 Y-20.608 E29.35501
G1 X10.896 Y-20.835 E29.40432
G1 X11.634 Y-20.986 E29.45365
G1 X12.678 Y-21.063 E29.5222
G1 X27.322 Y-21.063 E30.4811
G1 X28.074 Y-21.023 E30.53041
G1 X28.817 Y-20.904 E30.57968
G1 X29.543 Y-20.706 E30.62896
G1 X30.245 Y-20.432 E30.6783
G1 X30.913 Y-20.086 E30.72756
G1 X31.541 Y-19.671 E30.77685
G1 X32.334 Y-18.987 E30.84543
G1 X32.487 Y-18.834 E30.8596
G1 X32.99 Y-18.274 E30.90889
G1 X33.431 Y-17.664 E30.95817
G1 X33.805 Y-17.011 E31.00745
G1 X34.108 Y-16.322 E31.05674
G1 X34.335 Y-15.604 E31.10604
G1 X34.486 Y-14.866 E31.15537
G1 X34.563 Y-13.822 E31.22392
G1 X34.563 Y13.822 E33.03407
G1 X34.523 Y14.574 E33.08338
G1 X34.404 Y15.317 E33.13266
G1 X34.206 Y16.043 E33.18193
G1 X33.932 Y16.745 E33.23128
G1 X33.586 Y17.413 E33.28054
G1 X33.171 Y18.041 E33.32983
G1 X32.487 Y18.834 E33.3984
G1 X32.334 Y18.987 E33.41257
G1 X31.774 Y19.49 E33.46186
G1 X31.164 Y19.931 E33.51115
G1 X30.511 Y20.305 E33.56042
G1 X29.822 Y20.608 E33.60971
G1 X29.104 Y20.835 E33.65902
G1 X28.366 Y20.986 E33.70834
G1 X27.322 Y21.063 E33.77689
G1 X12.678 Y21.063 E34.73579
G1 X11.926 Y21.023 E34.78511
G1 X11.183 Y20.904 E34.83438
G1 X10.457 Y20.706 E34.88365
G1 X10.003 Y20.529 E34.91556
G1 X9.822 Y20.608 E34.92849
G1 X9.104 Y20.835 E34.9778
G1 X8.366 Y20.986 E35.02713
G1 X7.322 Y21.063 E35.09568
G1 X-7.322 Y21.063 E36.05458
G1 X-8.074 Y21.023 E36.10389
G1 X-8.817 Y20.904 E36.15316
G1 X-9.543 Y20.706 E36.20244
G1 X-9.997 Y20.529 E36.23434
G1 X-10.178 Y20.608 E36.24728
G1 X-10.896 Y20.835 E36.29659
G1 X-11.634 Y20.986 E36.34591
G1 X-12.678 Y21.063 E36.41446
G1 X-27.322 Y21.063 E37.37336
G1 X-28.074 Y21.023 E37.42267
G1 X-28.817 Y20.904 E37.47194
G1 X-29.543 Y20.706 E37.52122
G1 X-30.245 Y20.432 E37.57057
G1 X-30.913 Y20.086 E37.61983
G1 X-31.541 Y19.671 E37.66912
G1 X-32.334 Y18.987 E37.73769
G1 X-32.487 Y18.834 E37.75186
G1 X-32.99 Y18.274 E37.80115
G1 X-33.431 Y17.664 E37.85044
G1 X-33.805 Y17.011 E37.89971
G1 X-34.108 Y16.322 E37.949
G1 X-34.335 Y15.604 E37.99831
G1 X-34.486 Y14.866 E38.04763
G1 X-34.563 Y13.822 E38.11618
G1 X-34.563 Y-13.822 E39.92633
G1 X-34.523 Y-14.574 E39.97565
G1 X-34.404 Y-15.317 E40.02492
G1 X-34.206 Y-16.043 E40.07419
G1 X-33.932 Y-16.745 E40.12354
G1 X-33.586 Y-17.413 E40.1728
G1 X-33.171 Y-18.041 E40.22209
G1 X-32.487 Y-18.834 E40.29066
G1 X-32.334 Y-18.987 E40.30483
G1 X-31.774 Y-19.49 E40.35412
G1 X-31.164 Y-19.931 E40.40341
G1 X-30.511 Y-20.305 E40.45269
G1 X-29.822 Y-20.608 E40.50197
G1 X-29.104 Y-20.835 E40.55128
G1 X-28.366 Y-20.986 E40.60061
G1 X-27.322 Y-21.063 E40.66915
G1 X-12.678 Y-21.063 E41.62806
G1 X-11.926 Y-21.023 E41.67737
G1 X-11.183 Y-20.904 E41.72664
G1 X-10.457 Y-20.706 E41.77592
G1 X-10.003 Y-20.529 E41.80782
G1 X-9.822 Y-20.608 E41.82075
G1 X-9.104 Y-20.835 E41.87006
G1 X-8.366 Y-20.986 E41.91939
G1 X-7.726 Y-21.034 E41.96142
G0 F1485 X-7.322 Y-21.063
G0 F3600 X-7.322 Y-20.538
G1 F3000 E41.98794
G1 F1650 X7.322 Y-20.538 E42.94684
G1 X8.045 Y-20.498 E42.99425
G1 X8.76 Y-20.379 E43.04172
G1 X9.457 Y-20.181 E43.08916
G1 X10.002 Y-19.959 E43.1277
G1 X10.466 Y-20.154 E43.16065
G1 X11.161 Y-20.36 E43.20812
G1 X11.874 Y-20.489 E43.25556
G1 X12.678 Y-20.538 E43.30831
G1 X27.322 Y-20.538 E44.26721
G1 X28.045 Y-20.498 E44.31463
G1 X28.76 Y-20.379 E44.36209
G1 X29.457 Y-20.181 E44.40954
G1 X30.127 Y-19.908 E44.45691
G1 X30.764 Y-19.563 E44.50435
G1 X31.359 Y-19.15 E44.55177
G1 X31.963 Y-18.616 E44.60456
G1 X32.116 Y-18.463 E44.61873
G1 X32.599 Y-17.923 E44.66617
G1 X33.02 Y-17.333 E44.71363
G1 X33.373 Y-16.701 E44.76104
G1 X33.654 Y-16.034 E44.80843
G1 X33.86 Y-15.339 E44.85589
G1 X33.989 Y-14.626 E44.90334
G1 X34.038 Y-13.822 E44.95609
G1 X34.038 Y13.822 E46.76624
G1 X33.998 Y14.545 E46.81365
G1 X33.879 Y15.26 E46.86112
G1 X33.681 Y15.957 E46.90856
G1 X33.408 Y16.627 E46.95594
G1 X33.063 Y17.264 E47.00337
G1 X32.65 Y17.859 E47.0508
G1 X32.116 Y18.463 E47.10359
G1 X31.963 Y18.616 E47.11776
G1 X31.423 Y19.099 E47.1652
G1 X30.833 Y19.52 E47.21266
G1 X30.201 Y19.873 E47.26006
G1 X29.534 Y20.154 E47.30746
G1 X28.839 Y20.36 E47.35492
G1 X28.126 Y20.489 E47.40237
G1 X27.322 Y20.538 E47.45511
G1 X12.678 Y20.538 E48.41401
G1 X11.955 Y20.498 E48.46143
G1 X11.24 Y20.379 E48.50889
G1 X10.543 Y20.181 E48.55634
G1 X9.998 Y19.959 E48.59487
G1 X9.534 Y20.154 E48.62783
G1 X8.839 Y20.36 E48.6753
G1 X8.126 Y20.489 E48.72274
G1 X7.322 Y20.538 E48.77549
G1 X-7.322 Y20.538 E49.73439
G1 X-8.045 Y20.498 E49.7818
G1 X-8.76 Y20.379 E49.82927
G1 X-9.457 Y20.181 E49.87671
G1 X-10.002 Y19.959 E49.91525
G1 X-10.466 Y20.154 E49.9482
G1 X-11.161 Y20.36 E49.99567
G1 X-11.874 Y20.489 E50.04312
G1 X-12.678 Y20.538 E50.09586
G1 X-27.322 Y20.538 E51.05476
G1 X-28.045 Y20.498 E51.10218
G1 X-28.76 Y20.379 E51.14964
G1 X-29.457 Y20.181 E51.19709
G1 X-30.127 Y19.908 E51.24446
G1 X-30.764 Y19.563 E51.2919
G1 X-31.359 Y19.15 E51.33932
G1 X-31.963 Y18.616 E51.39212
G1 X-32.116 Y18.463 E51.40628
G1 X-32.599 Y17.923 E51.45372
G1 X-33.02 Y17.333 E51.50119
G1 X-33.373 Y16.701 E51.54859
G1 X-33.654 Y16.034 E51.59598
G1 X-33.86 Y15.339 E51.64345
G1 X-33.989 Y14.626 E51.69089
G1 X-34.038 Y13.822 E51.74364
G1 X-34.038 Y-13.822 E53.55379
G1 X-33.998 Y-14.545 E53.60121
G1 X-33.879 Y-15.26 E53.64867
G1 X-33.681 Y-15.957 E53.69611
G1 X-33.408 Y-16.627 E53.74349
G1 X-33.063 Y-17.264 E53.79092
G1 X-32.65 Y-17.859 E53.83835
G1 X-32.116 Y-18.463 E53.89114
G1 X-31.963 Y-18.616 E53.90531
G1 X-31.423 Y-19.099 E53.95275
G1 X-30.833 Y-19.52 E54.00021
G1 X-30.201 Y-19.873 E54.04761
G1 X-29.534 Y-20.154 E54.09501
G1 X-28.839 Y-20.36 E54.14247
G1 X-28.126 Y-20.489 E54.18992
G1 X-27.322 Y-20.538 E54.24266
G1 X-12.678 Y-20.538 E55.20157
G1 X-11.955 Y-20.498 E55.24898
G1 X-11.24 Y-20.379 E55.29644
G1 X-10.543 Y-20.181 E55.34389
G1 X-9.998 Y-19.959 E55.38242
G1 X-9.534 Y-20.154 E55.41538
G1 X-8.839 Y-20.36 E55.46285
G1 X-8.126 Y-20.489 E55.51029
G1 X-7.726 Y-20.514 E55.53654
G0 F1485 X-7.322 Y-20.538
G0 F3600 X-7.322 Y-20.013
G1 F3000 E55.56306
G1 F1650 X7.322 Y-20.013 E56.52196
G1 X8.016 Y-19.973 E56.56748
G1 X8.7 Y-19.854 E56.61294
G1 X9.366 Y-19.656 E56.65844
G1 X10.005 Y-19.384 E56.70391
G1 X10.006 Y-19.384 E56.70398
G1 X10.106 Y-19.438 E56.71142
G1 X10.751 Y-19.697 E56.75693
G1 X11.421 Y-19.881 E56.80243
G1 X12.107 Y-19.986 E56.84787
G1 X12.678 Y-20.013 E56.8853
G1 X27.322 Y-20.013 E57.84421
G1 X28.016 Y-19.973 E57.88972
G1 X28.7 Y-19.854 E57.93519
G1 X29.366 Y-19.656 E57.98068
G1 X30.005 Y-19.384 E58.02616
G1 X30.609 Y-19.04 E58.07167
G1 X31.169 Y-18.629 E58.11716
G1 X31.592 Y-18.245 E58.15457
G1 X31.745 Y-18.092 E58.16874
G1 X32.207 Y-17.573 E58.21424
G1 X32.606 Y-17.004 E58.25974
G1 X32.938 Y-16.394 E58.30522
G1 X33.197 Y-15.749 E58.35073
G1 X33.381 Y-15.079 E58.39623
G1 X33.486 Y-14.393 E58.44167
G1 X33.513 Y-13.822 E58.4791
G1 X33.513 Y13.822 E60.28926
G1 X33.473 Y14.516 E60.33478
G1 X33.354 Y15.2 E60.38024
G1 X33.156 Y15.866 E60.42573
G1 X32.884 Y16.505 E60.47121
G1 X32.54 Y17.109 E60.51672
G1 X32.129 Y17.669 E60.56221
G1 X31.745 Y18.092 E60.59962
G1 X31.592 Y18.245 E60.61379
G1 X31.073 Y18.707 E60.65929
G1 X30.504 Y19.106 E60.70479
G1 X29.894 Y19.438 E60.75027
G1 X29.249 Y19.697 E60.79578
G1 X28.579 Y19.881 E60.84128
G1 X27.893 Y19.986 E60.88672
G1 X27.322 Y20.013 E60.92415
G1 X12.678 Y20.013 E61.88305
G1 X11.984 Y19.973 E61.92857
G1 X11.3 Y19.854 E61.97404
G1 X10.634 Y19.656 E62.01953
G1 X9.995 Y19.384 E62.06501
G1 X9.994 Y19.384 E62.06507
G1 X9.894 Y19.438 E62.07251
G1 X9.249 Y19.697 E62.11803
G1 X8.579 Y19.881 E62.16352
G1 X7.893 Y19.986 E62.20897
G1 X7.322 Y20.013 E62.2464
G1 X-7.322 Y20.013 E63.2053
G1 X-8.016 Y19.973 E63.25082
G1 X-8.7 Y19.854 E63.29628
G1 X-9.366 Y19.656 E63.34178
G1 X-10.005 Y19.384 E63.38725
G1 X-10.006 Y19.384 E63.38732
G1 X-10.106 Y19.438 E63.39476
G1 X-10.751 Y19.697 E63.44027
