;FLAVOR:Marlin
;TIME:1330
;Filament used: 0.661647m
;Layer height: 0.14
;Generated with Cura_SteamEngine 4.0.0
M140 S65
M105
M190 S65
M104 S200
M105
M109 S200
M82 ;absolute extrusion mode
; Calibration part start here
M666 X0 Y0 Z0 ; Add your endstop values here after calibration
M665 L120.80 R61.70 ; Sets default Delta Radius (change when calibrating)
M301 P45.00 I0.07 D1000 ; Hot end settings
M304 P100 I0 D0 ; Bed heater settings
M500 ; Save settings

G90 ; switch to absolute positioning - this line was added in case Cura doesn't include it by default
M82 ; set extruder to absolute mode - this line was added in case Cura doesn't include it by default
G28 ; start from home position
G29 C-0.8 Z0.3 ; probe the bed at 3 points with a 0.3mm overall vertical offset and an additional -0.8mm center offset
G1 Z15.0 F4800  ; move the nozzle up 15mm
G92 E0 ; reset extrusion distance
G1 F200 E3 ; extrude 3mm of feed stock
G92 E0 ; reset extrusion distance again
G0 Z0.01;
G92 Z0;
G1 F4800
G92 E0
G1 F3000 E-4
;LAYER_COUNT:178
;LAYER:0
M107
G0 F3600 X4.059 Y-13.776 Z0.3
;TYPE:SKIRT
G1 F3000 E0
G1 F1650 X9.894 Y-10.494 E0.43837
G1 X10.576 Y-10.064 E0.49117
G1 X11.213 Y-9.569 E0.54399
G1 X11.797 Y-9.013 E0.59679
G1 X12.324 Y-8.402 E0.64963
G1 X12.952 Y-7.469 E0.72327
G1 X13.023 Y-7.346 E0.73257
G1 X13.391 Y-6.629 E0.78534
G1 X13.686 Y-5.878 E0.83818
G1 X13.906 Y-5.102 E0.89099
G1 X14.048 Y-4.308 E0.94381
G1 X14.113 Y-3.278 E1.01139
G1 X14.113 Y3.278 E1.44068
G1 X14.073 Y4.084 E1.49352
G1 X13.953 Y4.881 E1.5463
G1 X13.756 Y5.663 E1.59911
G1 X13.481 Y6.422 E1.65197
G1 X13.023 Y7.346 E1.7195
G1 X12.952 Y7.469 E1.7288
G1 X12.515 Y8.147 E1.78162
G1 X12.012 Y8.778 E1.83446
G1 X11.45 Y9.357 E1.88729
G1 X10.833 Y9.876 E1.94009
G1 X9.894 Y10.494 E2.0137
G1 X4.059 Y13.776 E2.45207
G1 X3.337 Y14.136 E2.5049
G1 X2.583 Y14.423 E2.55773
G1 X1.804 Y14.634 E2.61057
G1 X1.009 Y14.767 E2.66335
G1 X0.069 Y14.821 E2.72501
G1 X-0.069 Y14.821 E2.73404
G1 X-.875 Y14.781 E2.78689
G1 X-1.672 Y14.661 E2.83966
G1 X-2.454 Y14.464 E2.89247
G1 X-3.213 Y14.189 E2.94533
G1 X-4.059 Y13.776 E3.00698
G1 X-9.894 Y10.494 E3.44535
G1 X-10.576 Y10.064 E3.49814
G1 X-11.213 Y9.569 E3.55097
G1 X-11.797 Y9.013 E3.60377
G1 X-12.324 Y8.402 E3.6566
G1 X-12.952 Y7.469 E3.73025
G1 X-13.023 Y7.346 E3.73955
G1 X-13.391 Y6.629 E3.79232
G1 X-13.686 Y5.878 E3.84515
G1 X-13.906 Y5.102 E3.89797
G1 X-14.048 Y4.308 E3.95079
G1 X-14.113 Y3.278 E4.01837
G1 X-14.113 Y-3.278 E4.44766
G1 X-14.073 Y-4.084 E4.5005
G1 X-13.953 Y-4.881 E4.55328
G1 X-13.756 Y-5.663 E4.60608
G1 X-13.481 Y-6.422 E4.65894
G1 X-13.023 Y-7.346 E4.72647
G1 X-12.952 Y-7.469 E4.73577
G1 X-12.515 Y-8.147 E4.78859
G1 X-12.012 Y-8.778 E4.84143
G1 X-11.45 Y-9.357 E4.89427
G1 X-10.833 Y-9.876 E4.94706
G1 X-9.894 Y-10.494 E5.02067
G1 X-4.059 Y-13.776 E5.45904
G1 X-3.337 Y-14.136 E5.51187
G1 X-2.583 Y-14.423 E5.5647
G1 X-1.804 Y-14.634 E5.61755
G1 X-1.009 Y-14.767 E5.67033
G1 X-0.069 Y-14.821 E5.73198
G1 X0.069 Y-14.821 E5.74102
G1 X0.875 Y-14.781 E5.79386
G1 X1.672 Y-14.661 E5.84664
G1 X2.454 Y-14.464 E5.89944
G1 X3.213 Y-14.189 E5.95231
G1 X3.695 Y-13.953 E5.98745
G0 F1485 X4.059 Y-13.776
G0 F3600 X3.801 Y-13.318
G1 F3000 E6.01397
G1 F1650 X9.636 Y-10.036 E6.45234
G1 X10.296 Y-9.62 E6.50343
G1 X10.909 Y-9.137 E6.55453
G1 X11.47 Y-8.595 E6.60561
G1 X11.972 Y-7.998 E6.65668
G1 X12.497 Y-7.207 E6.71885
G1 X12.568 Y-7.084 E6.72815
G1 X12.923 Y-6.389 E6.77925
G1 X13.205 Y-5.662 E6.83031
G1 X13.411 Y-4.909 E6.88143
G1 X13.539 Y-4.14 E6.93248
G1 X13.588 Y-3.278 E6.98902
G1 X13.588 Y3.278 E7.41831
G1 X13.548 Y4.057 E7.46938
G1 X13.429 Y4.828 E7.52047
G1 X13.231 Y5.583 E7.57158
G1 X12.957 Y6.313 E7.62264
G1 X12.568 Y7.084 E7.67918
G1 X12.497 Y7.207 E7.68848
G1 X12.073 Y7.862 E7.73957
G1 X11.584 Y8.47 E7.79067
G1 X11.036 Y9.024 E7.84169
G1 X10.433 Y9.52 E7.89282
G1 X9.636 Y10.036 E7.95499
G1 X3.801 Y13.318 E8.39336
G1 X3.103 Y13.666 E8.44443
G1 X2.372 Y13.939 E8.49553
G1 X1.617 Y14.137 E8.54664
G1 X0.846 Y14.256 E8.59772
G1 X0.069 Y14.296 E8.64867
G1 X-0.069 Y14.296 E8.65771
G1 X-.848 Y14.256 E8.70878
G1 X-1.619 Y14.137 E8.75987
G1 X-2.374 Y13.939 E8.81098
G1 X-3.104 Y13.665 E8.86203
G1 X-3.801 Y13.318 E8.91302
G1 X-9.636 Y10.036 E9.35139
G1 X-10.296 Y9.62 E9.40248
G1 X-10.909 Y9.137 E9.45358
G1 X-11.47 Y8.595 E9.50466
G1 X-11.972 Y7.998 E9.55573
G1 X-12.497 Y7.207 E9.6179
G1 X-12.568 Y7.084 E9.6272
G1 X-12.923 Y6.389 E9.6783
G1 X-13.205 Y5.662 E9.72936
G1 X-13.411 Y4.909 E9.78048
G1 X-13.539 Y4.14 E9.83153
G1 X-13.588 Y3.278 E9.88806
G1 X-13.588 Y-3.278 E10.31736
G1 X-13.548 Y-4.057 E10.36843
G1 X-13.429 Y-4.828 E10.41952
G1 X-13.231 Y-5.583 E10.47063
G1 X-12.957 Y-6.313 E10.52168
G1 X-12.568 Y-7.084 E10.57823
G1 X-12.497 Y-7.207 E10.58753
G1 X-12.073 Y-7.862 E10.63862
G1 X-11.584 Y-8.47 E10.68971
G1 X-11.036 Y-9.024 E10.74074
G1 X-10.433 Y-9.52 E10.79187
G1 X-9.636 Y-10.036 E10.85404
G1 X-3.801 Y-13.318 E11.29241
G1 X-3.103 Y-13.666 E11.34348
G1 X-2.372 Y-13.939 E11.39458
G1 X-1.617 Y-14.137 E11.44569
G1 X-.846 Y-14.256 E11.49677
G1 X-0.069 Y-14.296 E11.54772
G1 X0.069 Y-14.296 E11.55675
G1 X0.848 Y-14.256 E11.60783
G1 X1.619 Y-14.137 E11.65891
G1 X2.374 Y-13.939 E11.71002
G1 X3.104 Y-13.665 E11.76108
G1 X3.439 Y-13.498 E11.78559
G0 F1485 X3.801 Y-13.318
G0 F3600 X3.544 Y-12.861
G1 F3000 E11.81211
G1 F1650 X9.379 Y-9.579 E12.25049
G1 X10.014 Y-9.175 E12.29977
G1 X10.604 Y-8.707 E12.34908
G1 X11.14 Y-8.179 E12.39835
G1 X11.617 Y-7.596 E12.44767
G1 X12.043 Y-6.944 E12.49867
G1 X12.114 Y-6.821 E12.50797
G1 X12.455 Y-6.15 E12.55726
G1 X12.723 Y-5.447 E12.60652
G1 X12.915 Y-4.719 E12.65582
G1 X13.029 Y-3.975 E12.70511
G1 X13.063 Y-3.278 E12.7508
G1 X13.063 Y3.278 E13.18009
G1 X13.023 Y4.03 E13.22941
G1 X12.904 Y4.773 E13.27868
G1 X12.706 Y5.499 E13.32795
G1 X12.432 Y6.201 E13.3773
G1 X12.114 Y6.821 E13.42292
G1 X12.043 Y6.944 E13.43222
G1 X11.632 Y7.576 E13.48159
G1 X11.157 Y8.159 E13.53083
G1 X10.623 Y8.69 E13.58014
G1 X10.036 Y9.16 E13.62938
G1 X9.379 Y9.579 E13.68041
G1 X3.544 Y12.861 E14.11878
G1 X2.869 Y13.194 E14.16807
G1 X2.163 Y13.455 E14.21736
G1 X1.433 Y13.639 E14.26665
G1 X0.687 Y13.744 E14.31598
G1 X0.069 Y13.771 E14.35649
G1 X-0.069 Y13.771 E14.36552
G1 X-.821 Y13.731 E14.41484
G1 X-1.564 Y13.612 E14.46411
G1 X-2.29 Y13.414 E14.51338
G1 X-2.992 Y13.14 E14.56273
G1 X-3.544 Y12.861 E14.60323
G1 X-9.379 Y9.579 E15.0416
G1 X-10.014 Y9.175 E15.09088
G1 X-10.604 Y8.707 E15.1402
G1 X-11.14 Y8.179 E15.18946
G1 X-11.617 Y7.596 E15.23879
G1 X-12.043 Y6.944 E15.28979
G1 X-12.114 Y6.821 E15.29909
G1 X-12.455 Y6.15 E15.34837
G1 X-12.723 Y5.447 E15.39764
G1 X-12.915 Y4.719 E15.44694
G1 X-13.029 Y3.975 E15.49622
G1 X-13.063 Y3.278 E15.54192
G1 X-13.063 Y-3.278 E15.97121
G1 X-13.023 Y-4.03 E16.02052
G1 X-12.904 Y-4.773 E16.06979
G1 X-12.706 Y-5.499 E16.11907
G1 X-12.432 Y-6.201 E16.16841
G1 X-12.114 Y-6.821 E16.21404
G1 X-12.043 Y-6.944 E16.22334
G1 X-11.632 Y-7.576 E16.27271
G1 X-11.157 Y-8.159 E16.32195
G1 X-10.623 Y-8.69 E16.37126
G1 X-10.036 Y-9.16 E16.4205
G1 X-9.379 Y-9.579 E16.47152
G1 X-3.544 Y-12.861 E16.9099
G1 X-2.869 Y-13.194 E16.95918
G1 X-2.163 Y-13.455 E17.00847
G1 X-1.433 Y-13.639 E17.05777
G1 X-.687 Y-13.744 E17.1071
G1 X-0.069 Y-13.771 E17.1476
G1 X0.069 Y-13.771 E17.15664
G1 X0.821 Y-13.731 E17.20595
G1 X1.564 Y-13.612 E17.25522
G1 X2.29 Y-13.414 E17.3045
G1 X2.992 Y-13.14 E17.35384
G1 X3.183 Y-13.043 E17.36787
G0 F1485 X3.544 Y-12.861
G0 F3600 X3.286 Y-12.403
G1 F3000 E17.39439
G1 F1650 X9.121 Y-9.121 E17.83276
G1 X9.732 Y-8.732 E17.88019
G1 X10.296 Y-8.278 E17.9276
G1 X10.807 Y-7.764 E17.97506
G1 X11.258 Y-7.197 E18.0225
G1 X11.588 Y-6.682 E18.06256
G1 X11.659 Y-6.559 E18.07186
G1 X11.986 Y-5.913 E18.11927
G1 X12.24 Y-5.234 E18.16674
G1 X12.417 Y-4.532 E18.21414
G1 X12.516 Y-3.814 E18.2616
G1 X12.538 Y-3.278 E18.29673
G1 X12.538 Y3.278 E18.72602
G1 X12.498 Y4.001 E18.77344
G1 X12.379 Y4.716 E18.8209
G1 X12.181 Y5.413 E18.86835
G1 X11.908 Y6.083 E18.91572
G1 X11.659 Y6.559 E18.9509
G1 X11.588 Y6.682 E18.9602
G1 X11.192 Y7.288 E19.0076
G1 X10.731 Y7.847 E19.05505
G1 X10.212 Y8.352 E19.10246
G1 X9.64 Y8.797 E19.14992
G1 X9.121 Y9.121 E19.18998
G1 X3.286 Y12.403 E19.62836
G1 X2.637 Y12.723 E19.67574
G1 X1.955 Y12.969 E19.72321
G1 X1.251 Y13.139 E19.77064
G1 X0.533 Y13.23 E19.81803
G1 X0.069 Y13.246 E19.84843
G1 X-0.069 Y13.246 E19.85746
G1 X-.792 Y13.206 E19.90488
G1 X-1.507 Y13.087 E19.95234
G1 X-2.204 Y12.889 E19.99979
G1 X-2.874 Y12.616 E20.04716
G1 X-3.286 Y12.403 E20.07753
G1 X-9.121 Y9.121 E20.51591
G1 X-9.732 Y8.732 E20.56334
G1 X-10.296 Y8.278 E20.61075
G1 X-10.807 Y7.764 E20.65821
G1 X-11.258 Y7.197 E20.70565
G1 X-11.588 Y6.682 E20.7457
G1 X-11.659 Y6.559 E20.755
G1 X-11.986 Y5.913 E20.80241
G1 X-12.24 Y5.234 E20.84988
G1 X-12.417 Y4.532 E20.89729
G1 X-12.516 Y3.814 E20.94475
G1 X-12.538 Y3.278 E20.97987
G1 X-12.538 Y-3.278 E21.40917
G1 X-12.498 Y-4.001 E21.45658
G1 X-12.379 Y-4.716 E21.50404
G1 X-12.181 Y-5.413 E21.55149
G1 X-11.908 Y-6.083 E21.59886
G1 X-11.659 Y-6.559 E21.63404
G1 X-11.588 Y-6.682 E21.64334
G1 X-11.192 Y-7.288 E21.69074
G1 X-10.731 Y-7.847 E21.73819
G1 X-10.212 Y-8.352 E21.7856
G1 X-9.64 Y-8.797 E21.83306
G1 X-9.121 Y-9.121 E21.87312
G1 X-3.286 Y-12.403 E22.3115
G1 X-2.637 Y-12.723 E22.35888
G1 X-1.955 Y-12.969 E22.40635
G1 X-1.251 Y-13.139 E22.45378
G1 X-.533 Y-13.23 E22.50117
G1 X-0.069 Y-13.246 E22.53157
G1 X0.069 Y-13.246 E22.54061
G1 X0.792 Y-13.206 E22.58802
G1 X1.507 Y-13.087 E22.63548
G1 X2.204 Y-12.889 E22.68293
G1 X2.874 Y-12.616 E22.7303
G1 X2.926 Y-12.589 E22.73414
G0 F1485 X3.286 Y-12.403
G0 F3600 X3.029 Y-11.946
G1 F3000 E22.76066
G1 F1650 X8.864 Y-8.664 E23.19903
G1 X9.449 Y-8.289 E23.24453
G1 X9.987 Y-7.849 E23.29005
G1 X10.471 Y-7.351 E23.33552
G1 X10.894 Y-6.8 E23.381
G1 X11.133 Y-6.42 E23.4104
G1 X11.204 Y-6.297 E23.4197
G1 X11.516 Y-5.676 E23.46521
G1 X11.755 Y-5.023 E23.51074
G1 X11.917 Y-4.348 E23.55619
G1 X12.001 Y-3.658 E23.60171
G1 X12.013 Y-3.278 E23.6266
G1 X12.013 Y3.278 E24.0559
G1 X11.973 Y3.972 E24.10142
G1 X11.854 Y4.656 E24.14688
G1 X11.656 Y5.322 E24.19237
G1 X11.384 Y5.961 E24.23785
G1 X11.204 Y6.297 E24.26281
G1 X11.133 Y6.42 E24.27211
G1 X10.752 Y7 E24.31755
G1 X10.306 Y7.533 E24.36306
G1 X9.803 Y8.012 E24.40854
G1 X9.247 Y8.429 E24.45405
G1 X8.864 Y8.664 E24.48347
G1 X3.029 Y11.946 E24.92185
G1 X2.405 Y12.251 E24.96733
G1 X1.75 Y12.482 E25.01281
G1 X1.073 Y12.637 E25.05828
G1 X0.069 Y12.721 E25.12426
G1 X-0.069 Y12.721 E25.13329
G1 X-.763 Y12.681 E25.17881
G1 X-1.447 Y12.562 E25.22427
G1 X-2.113 Y12.364 E25.26977
G1 X-3.029 Y11.946 E25.3357
G1 X-8.864 Y8.664 E25.77407
G1 X-9.449 Y8.289 E25.81957
G1 X-9.987 Y7.849 E25.86508
G1 X-10.471 Y7.351 E25.91056
G1 X-10.894 Y6.8 E25.95604
G1 X-11.133 Y6.42 E25.98544
G1 X-11.204 Y6.297 E25.99474
G1 X-11.516 Y5.676 E26.04025
G1 X-11.755 Y5.023 E26.08578
G1 X-11.917 Y4.348 E26.13123
G1 X-12.001 Y3.658 E26.17675
G1 X-12.013 Y3.278 E26.20164
G1 X-12.013 Y-3.278 E26.63094
G1 X-11.973 Y-3.972 E26.67646
G1 X-11.854 Y-4.656 E26.72192
G1 X-11.656 Y-5.322 E26.76741
G1 X-11.384 Y-5.961 E26.81289
G1 X-11.204 Y-6.297 E26.83785
G1 X-11.133 Y-6.42 E26.84715
G1 X-10.752 Y-7 E26.89259
G1 X-10.306 Y-7.533 E26.9381
G1 X-9.803 Y-8.012 E26.98358
G1 X-9.247 Y-8.429 E27.02909
G1 X-8.864 Y-8.664 E27.05851
G1 X-3.029 Y-11.946 E27.49689
G1 X-2.405 Y-12.251 E27.54237
G1 X-1.75 Y-12.482 E27.58785
G1 X-1.073 Y-12.637 E27.63332
G1 X-0.069 Y-12.721 E27.6993
G1 X0.069 Y-12.721 E27.70833
G1 X0.763 Y-12.681 E27.75385
G1 X1.447 Y-12.562 E27.79931
G1 X2.113 Y-12.364 E27.84481
G1 X2.661 Y-12.114 E27.88425
G0 F1485 X3.029 Y-11.946
G0 F3600 X2.772 Y-11.488
G1 F3000 E27.91077
G1 F1650 X8.607 Y-8.206 E28.34914
G1 X9.165 Y-7.846 E28.39263
G1 X9.675 Y-7.422 E28.43606
G1 X10.131 Y-6.94 E28.4795
G1 X10.679 Y-6.157 E28.54209
G1 X10.75 Y-6.034 E28.55138
G1 X11.046 Y-5.44 E28.59484
G1 X11.269 Y-4.815 E28.63829
G1 X11.416 Y-4.168 E28.68174
G1 X11.488 Y-3.278 E28.74021
G1 X11.488 Y3.278 E29.1695
G1 X11.448 Y3.941 E29.21299
G1 X11.329 Y4.594 E29.25646
G1 X11.132 Y5.228 E29.29993
G1 X10.75 Y6.034 E29.35834
G1 X10.679 Y6.157 E29.36764
G1 X10.313 Y6.711 E29.41111
G1 X9.883 Y7.217 E29.45459
G1 X9.396 Y7.667 E29.49801
G1 X8.607 Y8.206 E29.56058
G1 X2.772 Y11.488 E29.99896
G1 X2.175 Y11.778 E30.04242
G1 X1.547 Y11.994 E30.0859
G1 X0.898 Y12.133 E30.12936
G1 X0.069 Y12.196 E30.1838
G1 X-0.069 Y12.196 E30.19284
G1 X-.732 Y12.156 E30.23633
G1 X-1.385 Y12.037 E30.2798
G1 X-2.019 Y11.84 E30.32327
G1 X-2.772 Y11.488 E30.3777
G1 X-8.607 Y8.206 E30.81607
G1 X-9.165 Y7.846 E30.85955
G1 X-9.675 Y7.422 E30.90298
G1 X-10.131 Y6.94 E30.94643
G1 X-10.679 Y6.157 E31.00901
G1 X-10.75 Y6.034 E31.01831
G1 X-11.046 Y5.44 E31.06177
G1 X-11.269 Y4.815 E31.10522
G1 X-11.416 Y4.168 E31.14867
G1 X-11.488 Y3.278 E31.20714
G1 X-11.488 Y-3.278 E31.63643
G1 X-11.448 Y-3.941 E31.67992
G1 X-11.329 Y-4.594 E31.72338
G1 X-11.132 Y-5.228 E31.76686
G1 X-10.75 Y-6.034 E31.82526
G1 X-10.679 Y-6.157 E31.83456
G1 X-10.313 Y-6.711 E31.87804
G1 X-9.883 Y-7.217 E31.92152
G1 X-9.396 Y-7.667 E31.96494
G1 X-8.607 Y-8.206 E32.02751
G1 X-2.772 Y-11.488 E32.46588
G1 X-2.175 Y-11.778 E32.50934
G1 X-1.547 Y-11.994 E32.55283
G1 X-.898 Y-12.133 E32.59629
G1 X-0.069 Y-12.196 E32.65073
G1 X0.069 Y-12.196 E32.65977
G1 X0.732 Y-12.156 E32.70326
G1 X1.385 Y-12.037 E32.74672
G1 X2.019 Y-11.84 E32.7902
G1 X2.406 Y-11.659 E32.81817
G0 F1485 X2.772 Y-11.488
G0 F3600 X2.514 Y-11.03
G1 F3000 E32.84469
G1 F1650 X8.349 Y-7.748 E33.28307
G1 X8.879 Y-7.405 E33.3244
G1 X9.361 Y-6.997 E33.36575
G1 X9.787 Y-6.531 E33.4071
G1 X10.224 Y-5.895 E33.45763
G1 X10.295 Y-5.772 E33.46693
G1 X10.575 Y-5.206 E33.50828
G1 X10.782 Y-4.609 E33.54965
G1 X10.912 Y-3.991 E33.591
G1 X10.963 Y-3.278 E33.63781
G1 X10.963 Y3.278 E34.0671
G1 X10.923 Y3.908 E34.10844
G1 X10.804 Y4.528 E34.14978
G1 X10.607 Y5.128 E34.19113
G1 X10.295 Y5.772 E34.23799
G1 X10.224 Y5.895 E34.24729
G1 X9.874 Y6.42 E34.28861
G1 X9.461 Y6.898 E34.32997
G1 X8.991 Y7.319 E34.37129
G1 X8.349 Y7.748 E34.42185
G1 X2.514 Y11.03 E34.86022
G1 X1.946 Y11.305 E34.90154
G1 X1.347 Y11.505 E34.9429
G1 X0.727 Y11.627 E34.98427
G1 X0.069 Y11.671 E35.02746
G1 X-0.069 Y11.671 E35.03649
G1 X-.699 Y11.631 E35.07783
G1 X-1.319 Y11.512 E35.11917
G1 X-1.919 Y11.315 E35.16052
G1 X-2.514 Y11.03 E35.20372
G1 X-8.349 Y7.748 E35.64209
G1 X-8.879 Y7.405 E35.68343
G1 X-9.361 Y6.997 E35.72478
G1 X-9.787 Y6.531 E35.76613
G1 X-10.224 Y5.895 E35.81665
G1 X-10.295 Y5.772 E35.82595
G1 X-10.575 Y5.206 E35.8673
G1 X-10.782 Y4.609 E35.90868
G1 X-10.912 Y3.991 E35.95003
G1 X-10.963 Y3.278 E35.99684
G1 X-10.963 Y-3.278 E36.42613
G1 X-10.923 Y-3.908 E36.46747
G1 X-10.804 Y-4.528 E36.50881
G1 X-10.607 Y-5.128 E36.55016
G1 X-10.295 Y-5.772 E36.59702
G1 X-10.224 Y-5.895 E36.60632
G1 X-9.874 Y-6.42 E36.64763
G1 X-9.461 Y-6.898 E36.689
G1 X-8.991 Y-7.319 E36.73032
G1 X-8.349 Y-7.748 E36.78088
G1 X-2.514 Y-11.03 E37.21925
G1 X-1.946 Y-11.305 E37.26057
G1 X-1.347 Y-11.505 E37.30192
G1 X-.727 Y-11.627 E37.3433
G1 X-0.069 Y-11.671 E37.38648
G1 X0.069 Y-11.671 E37.39552
G1 X0.699 Y-11.631 E37.43686
G1 X1.319 Y-11.512 E37.4782
G1 X1.919 Y-11.315 E37.51955
G1 X2.149 Y-11.205 E37.53624
G0 F1485 X2.514 Y-11.03
G0 F3600 X2.257 Y-10.573
G1 F3000 E37.56276
G1 F1650 X8.092 Y-7.291 E38.00114
G1 X8.592 Y-6.964 E38.04026
G1 X9.043 Y-6.573 E38.07934
G1 X9.439 Y-6.126 E38.11844
G1 X9.769 Y-5.632 E38.15735
G1 X9.84 Y-5.509 E38.16665
G1 X10.104 Y-4.973 E38.20577
G1 X10.293 Y-4.407 E38.24484
G1 X10.405 Y-3.82 E38.28397
G1 X10.438 Y-3.278 E38.31953
G1 X10.438 Y3.278 E38.74882
