;FLAVOR:Marlin
;TIME:5235
;Filament used: 2.69673m
;Layer height: 0.14
;Generated with Cura_SteamEngine 4.0.0
M140 S65
M105
M190 S65
M104 S200
M105
M109 S200
M82 ;absolute extrusion mode
; Calibration part start here
M666 X0 Y0 Z0 ; Add your endstop values here after calibration
M665 L120.80 R61.70 ; Sets default Delta Radius (change when calibrating)
M301 P45.00 I0.07 D1000 ; Hot end settings
M304 P100 I0 D0 ; Bed heater settings
M500 ; Save settings

G90 ; switch to absolute positioning - this line was added in case Cura doesn't include it by default
M82 ; set extruder to absolute mode - this line was added in case Cura doesn't include it by default
G28 ; start from home position
G29 C-0.8 Z0.3 ; probe the bed at 3 points with a 0.3mm overall vertical offset and an additional -0.8mm center offset
G1 Z15.0 F4800  ; move the nozzle up 15mm
G92 E0 ; reset extrusion distance
G1 F200 E3 ; extrude 3mm of feed stock
G92 E0 ; reset extrusion distance again
G0 Z0.01;
G92 Z0;
G1 F4800
G92 E0
G1 F3000 E-4
;LAYER_COUNT:564
;LAYER:0
M107
G0 F3600 X-1.307 Y-15.006 Z0.3
;TYPE:SKIRT
G1 F3000 E0
G1 F1650 X-.505 Y-15.094 E0.05283
G1 X0.301 Y-15.103 E0.10561
G1 X1.241 Y-15.012 E0.16745
G1 X3.853 Y-14.604 E0.34056
G1 X4.643 Y-14.44 E0.39339
G1 X5.412 Y-14.198 E0.44618
G1 X6.273 Y-13.823 E0.50768
G1 X8.625 Y-12.632 E0.68031
G1 X9.326 Y-12.233 E0.73313
G1 X9.984 Y-11.766 E0.78596
G1 X10.677 Y-11.153 E0.84654
G1 X12.553 Y-9.294 E1.01948
G1 X13.097 Y-8.698 E1.07232
G1 X13.58 Y-8.052 E1.12514
G1 X14.057 Y-7.244 E1.18658
G1 X15.277 Y-4.879 E1.36083
G1 X15.611 Y-4.145 E1.41364
G1 X15.871 Y-3.381 E1.46648
G1 X16.078 Y-2.448 E1.52906
G1 X16.504 Y0.184 E1.70365
G1 X16.594 Y0.985 E1.75643
G1 X16.603 Y1.792 E1.80928
G1 X16.511 Y2.746 E1.87204
G1 X16.1 Y5.365 E2.04563
G1 X15.935 Y6.154 E2.09841
G1 X15.693 Y6.924 E2.15126
G1 X15.32 Y7.779 E2.21235
G1 X14.126 Y10.137 E2.38542
G1 X13.727 Y10.838 E2.43823
G1 X13.26 Y11.496 E2.49107
G1 X12.637 Y12.198 E2.55253
G1 X10.774 Y14.072 E2.72556
G1 X10.178 Y14.616 E2.7784
G1 X9.531 Y15.097 E2.83119
G1 X8.719 Y15.575 E2.89289
G1 X6.352 Y16.79 E3.06711
G1 X5.617 Y17.122 E3.11992
G1 X4.853 Y17.38 E3.17272
G1 X3.927 Y17.585 E3.23483
G1 X1.306 Y18.006 E3.40865
G1 X0.504 Y18.094 E3.46148
G1 X-.303 Y18.103 E3.51433
G1 X-1.248 Y18.01 E3.57651
G1 X-3.865 Y17.599 E3.74997
G1 X-4.654 Y17.435 E3.80274
G1 X-5.424 Y17.193 E3.85559
G1 X-6.278 Y16.82 E3.91661
G1 X-8.636 Y15.626 E4.08968
G1 X-9.337 Y15.227 E4.1425
G1 X-9.995 Y14.76 E4.19533
G1 X-10.696 Y14.139 E4.25666
G1 X-12.579 Y12.268 E4.43048
G1 X-13.122 Y11.672 E4.48327
G1 X-13.604 Y11.025 E4.5361
G1 X-14.088 Y10.201 E4.59868
G1 X-15.291 Y7.849 E4.77167
G1 X-15.623 Y7.113 E4.82454
G1 X-15.879 Y6.349 E4.8773
G1 X-16.079 Y5.448 E4.93773
G1 X-16.505 Y2.826 E5.11167
G1 X-16.594 Y2.024 E5.16451
G1 X-16.604 Y1.218 E5.21729
G1 X-16.512 Y0.263 E5.28012
G1 X-16.102 Y-2.357 E5.45376
G1 X-15.938 Y-3.147 E5.5066
G1 X-15.697 Y-3.917 E5.55943
G1 X-15.319 Y-4.782 E5.62124
G1 X-14.115 Y-7.154 E5.79543
G1 X-13.714 Y-7.855 E5.84831
G1 X-13.247 Y-8.512 E5.90109
G1 X-12.625 Y-9.213 E5.96246
G1 X-10.764 Y-11.082 E6.13516
G1 X-10.167 Y-11.625 E6.18801
G1 X-9.519 Y-12.106 E6.24085
G1 X-8.705 Y-12.584 E6.30266
G1 X-6.341 Y-13.794 E6.47656
G1 X-5.606 Y-14.126 E6.52937
G1 X-4.841 Y-14.383 E6.58221
G1 X-3.925 Y-14.585 E6.64363
G1 X-1.706 Y-14.942 E6.79081
G0 F1485 X-1.307 Y-15.006
G0 F3600 X-1.224 Y-14.487
G1 F3000 E6.81733
G1 F1650 X-.448 Y-14.572 E6.86844
G1 X0.332 Y-14.576 E6.91952
G1 X1.16 Y-14.493 E6.97401
G1 X3.772 Y-14.085 E7.14712
G1 X4.536 Y-13.925 E7.19823
G1 X5.279 Y-13.688 E7.2493
G1 X6.036 Y-13.355 E7.30345
G1 X8.388 Y-12.164 E7.47608
G1 X9.065 Y-11.776 E7.52718
G1 X9.699 Y-11.321 E7.57828
G1 X10.308 Y-10.78 E7.63162
G1 X12.184 Y-8.921 E7.80456
G1 X12.709 Y-8.344 E7.85564
G1 X13.172 Y-7.716 E7.90673
G1 X13.591 Y-7.003 E7.96088
G1 X14.811 Y-4.638 E8.13513
G1 X15.132 Y-3.927 E8.18622
G1 X15.38 Y-3.187 E8.23732
G1 X15.56 Y-2.364 E8.29249
G1 X15.986 Y0.268 E8.46707
G1 X16.071 Y1.043 E8.51813
G1 X16.076 Y1.823 E8.5692
G1 X15.992 Y2.664 E8.62455
G1 X15.581 Y5.283 E8.79814
G1 X15.421 Y6.047 E8.84925
G1 X15.183 Y6.79 E8.90034
G1 X14.852 Y7.542 E8.95414
G1 X13.658 Y9.9 E9.12721
G1 X13.27 Y10.577 E9.1783
G1 X12.815 Y11.211 E9.2294
G1 X12.265 Y11.828 E9.28353
G1 X10.402 Y13.702 E9.45656
G1 X9.824 Y14.227 E9.50769
G1 X9.196 Y14.689 E9.55874
G1 X8.48 Y15.108 E9.61306
G1 X6.113 Y16.323 E9.78728
G1 X5.401 Y16.643 E9.8384
G1 X4.661 Y16.889 E9.88946
G1 X3.843 Y17.067 E9.94428
G1 X1.222 Y17.488 E10.1181
G1 X0.447 Y17.572 E10.16915
G1 X-.333 Y17.576 E10.22022
G1 X-1.166 Y17.492 E10.27505
G1 X-3.783 Y17.081 E10.44851
G1 X-4.547 Y16.92 E10.49964
G1 X-5.29 Y16.683 E10.5507
G1 X-6.041 Y16.352 E10.60444
G1 X-8.399 Y15.158 E10.77751
G1 X-9.076 Y14.77 E10.82861
G1 X-9.71 Y14.315 E10.87971
G1 X-10.326 Y13.766 E10.93374
G1 X-12.209 Y11.895 E11.10756
G1 X-12.733 Y11.318 E11.1586
G1 X-13.196 Y10.69 E11.20968
G1 X-13.621 Y9.962 E11.26488
G1 X-14.824 Y7.61 E11.43787
G1 X-15.143 Y6.898 E11.48896
G1 X-15.388 Y6.157 E11.54006
G1 X-15.56 Y5.364 E11.5932
G1 X-15.986 Y2.742 E11.76714
G1 X-16.072 Y1.966 E11.81826
G1 X-16.078 Y1.186 E11.86934
G1 X-15.993 Y0.344 E11.92476
G1 X-15.583 Y-2.276 E12.0984
G1 X-15.424 Y-3.04 E12.1495
G1 X-15.186 Y-3.783 E12.20059
G1 X-14.851 Y-4.545 E12.2551
G1 X-13.647 Y-6.917 E12.42928
G1 X-13.258 Y-7.593 E12.48035
G1 X-12.803 Y-8.227 E12.53145
G1 X-12.253 Y-8.843 E12.58552
G1 X-10.392 Y-10.712 E12.75823
G1 X-9.814 Y-11.236 E12.80932
G1 X-9.185 Y-11.698 E12.86042
G1 X-8.466 Y-12.117 E12.91491
G1 X-6.102 Y-13.327 E13.08881
G1 X-5.39 Y-13.646 E13.1399
G1 X-4.649 Y-13.891 E13.191
G1 X-3.842 Y-14.066 E13.24507
G1 X-1.623 Y-14.423 E13.39224
G0 F1485 X-1.224 Y-14.487
G0 F3600 X-1.14 Y-13.969
G1 F3000 E13.41876
G1 F1650 X-.392 Y-14.049 E13.46802
G1 X0.361 Y-14.049 E13.51733
G1 X1.079 Y-13.974 E13.5646
G1 X3.691 Y-13.566 E13.73771
G1 X4.427 Y-13.411 E13.78696
G1 X5.143 Y-13.178 E13.83627
G1 X5.799 Y-12.886 E13.88328
G1 X8.151 Y-11.695 E14.05592
G1 X8.804 Y-11.32 E14.10522
G1 X9.413 Y-10.878 E14.1545
G1 X9.938 Y-10.407 E14.20068
G1 X11.814 Y-8.548 E14.37362
G1 X12.32 Y-7.99 E14.42295
G1 X12.764 Y-7.382 E14.47224
G1 X13.124 Y-6.763 E14.51913
G1 X14.344 Y-4.398 E14.69339
G1 X14.653 Y-3.711 E14.74271
G1 X14.888 Y-2.996 E14.792
G1 X15.042 Y-2.28 E14.83995
G1 X15.468 Y0.352 E15.01454
G1 X15.549 Y1.1 E15.06381
G1 X15.549 Y1.853 E15.11311
G1 X15.473 Y2.583 E15.16117
G1 X15.062 Y5.202 E15.33477
G1 X14.906 Y5.938 E15.38403
G1 X14.673 Y6.654 E15.43334
G1 X14.384 Y7.305 E15.47998
G1 X13.19 Y9.663 E15.65305
G1 X12.814 Y10.316 E15.70239
G1 X12.372 Y10.925 E15.75166
G1 X11.893 Y11.458 E15.79858
G1 X10.03 Y13.332 E15.97162
G1 X9.471 Y13.837 E16.02094
G1 X8.863 Y14.28 E16.0702
G1 X8.24 Y14.641 E16.11735
G1 X5.873 Y15.856 E16.29157
G1 X5.186 Y16.163 E16.34085
G1 X4.47 Y16.397 E16.39017
G1 X3.76 Y16.548 E16.4377
G1 X1.139 Y16.969 E16.61153
G1 X0.391 Y17.049 E16.66079
G1 X-.362 Y17.049 E16.71009
G1 X-1.085 Y16.973 E16.7577
G1 X-3.702 Y16.562 E16.93116
G1 X-4.438 Y16.406 E16.98042
G1 X-5.154 Y16.173 E17.02973
G1 X-5.804 Y15.884 E17.07631
G1 X-8.162 Y14.69 E17.24938
G1 X-8.815 Y14.314 E17.29872
G1 X-9.424 Y13.872 E17.34799
G1 X-9.956 Y13.394 E17.39483
G1 X-11.839 Y11.523 E17.56864
G1 X-12.344 Y10.965 E17.61792
G1 X-12.787 Y10.356 E17.66724
G1 X-13.153 Y9.723 E17.71512
G1 X-14.356 Y7.371 E17.8881
G1 X-14.663 Y6.683 E17.93744
G1 X-14.895 Y5.967 E17.98672
G1 X-15.042 Y5.28 E18.03272
G1 X-15.468 Y2.658 E18.20667
G1 X-15.549 Y1.909 E18.256
G1 X-15.551 Y1.157 E18.30524
G1 X-15.475 Y0.425 E18.35343
G1 X-15.065 Y-2.195 E18.52708
G1 X-14.909 Y-2.931 E18.57634
G1 X-14.676 Y-3.647 E18.62565
G1 X-14.382 Y-4.307 E18.67296
G1 X-13.178 Y-6.679 E18.84714
G1 X-12.803 Y-7.331 E18.89639
G1 X-12.36 Y-7.94 E18.9457
G1 X-11.881 Y-8.472 E18.99258
G1 X-10.02 Y-10.341 E19.16529
G1 X-9.461 Y-10.846 E19.21462
G1 X-8.852 Y-11.288 E19.26389
G1 X-8.226 Y-11.65 E19.31124
G1 X-5.862 Y-12.86 E19.48514
G1 X-5.175 Y-13.166 E19.53438
G1 X-4.459 Y-13.399 E19.58369
G1 X-3.758 Y-13.548 E19.63061
G1 X-1.539 Y-13.905 E19.77779
G0 F1485 X-1.14 Y-13.969
G0 F3600 X-1.057 Y-13.451
G1 F3000 E19.8043
G1 F1650 X-.337 Y-13.526 E19.85171
G1 X0.388 Y-13.522 E19.89918
G1 X0.998 Y-13.455 E19.93936
G1 X3.61 Y-13.047 E20.11247
G1 X4.318 Y-12.896 E20.15988
G1 X5.006 Y-12.668 E20.20734
G1 X5.562 Y-12.418 E20.24726
G1 X7.914 Y-11.227 E20.41989
G1 X8.541 Y-10.865 E20.4673
G1 X9.124 Y-10.435 E20.51473
G1 X9.569 Y-10.034 E20.55396
G1 X11.445 Y-8.175 E20.7269
G1 X11.93 Y-7.637 E20.77433
G1 X12.354 Y-7.05 E20.82174
G1 X12.658 Y-6.522 E20.86164
G1 X13.878 Y-4.157 E21.03589
G1 X14.174 Y-3.496 E21.08331
G1 X14.395 Y-2.806 E21.13076
G1 X14.524 Y-2.197 E21.17152
G1 X14.95 Y0.435 E21.34611
G1 X15.026 Y1.156 E21.39358
G1 X15.022 Y1.88 E21.44099
G1 X14.955 Y2.501 E21.48189
G1 X14.544 Y5.12 E21.65548
G1 X14.392 Y5.829 E21.70296
G1 X14.163 Y6.516 E21.75038
G1 X13.915 Y7.068 E21.79001
G1 X12.721 Y9.426 E21.96308
G1 X12.359 Y10.053 E22.01049
G1 X11.93 Y10.636 E22.05788
G1 X11.52 Y11.088 E22.09784
G1 X9.657 Y12.962 E22.27088
G1 X9.119 Y13.447 E22.31831
G1 X8.531 Y13.869 E22.3657
G1 X8 Y14.174 E22.4058
G1 X5.633 Y15.389 E22.58002
G1 X4.971 Y15.683 E22.62745
G1 X4.281 Y15.903 E22.67487
G1 X3.677 Y16.03 E22.71528
G1 X1.056 Y16.451 E22.88911
G1 X0.335 Y16.526 E22.93658
G1 X-.389 Y16.522 E22.98399
G1 X-1.003 Y16.455 E23.02443
G1 X-3.62 Y16.044 E23.19789
G1 X-4.328 Y15.892 E23.24531
G1 X-5.016 Y15.663 E23.29279
G1 X-5.567 Y15.415 E23.33236
G1 X-7.925 Y14.221 E23.50543
G1 X-8.552 Y13.859 E23.55284
G1 X-9.135 Y13.43 E23.60023
G1 X-9.586 Y13.022 E23.64006
G1 X-11.469 Y11.151 E23.81387
G1 X-11.954 Y10.612 E23.86135
G1 X-12.376 Y10.024 E23.90875
G1 X-12.686 Y9.484 E23.94952
G1 X-13.889 Y7.132 E24.12251
G1 X-14.183 Y6.47 E24.16994
G1 X-14.402 Y5.779 E24.2174
G1 X-14.524 Y5.195 E24.25647
G1 X-14.95 Y2.573 E24.43041
G1 X-15.027 Y1.853 E24.47783
G1 X-15.023 Y1.129 E24.52523
G1 X-14.956 Y0.506 E24.56626
G1 X-14.546 Y-2.114 E24.73991
G1 X-14.395 Y-2.822 E24.78732
G1 X-14.166 Y-3.509 E24.83473
G1 X-13.914 Y-4.07 E24.875
G1 X-12.71 Y-6.442 E25.04919
G1 X-12.347 Y-7.068 E25.09657
G1 X-11.917 Y-7.651 E25.14401
G1 X-11.509 Y-8.102 E25.18383
G1 X-9.648 Y-9.971 E25.35654
G1 X-9.109 Y-10.455 E25.40397
G1 X-8.52 Y-10.877 E25.45142
G1 X-7.987 Y-11.182 E25.49163
G1 X-5.623 Y-12.392 E25.66553
G1 X-4.961 Y-12.686 E25.71296
G1 X-4.271 Y-12.905 E25.76036
G1 X-3.675 Y-13.03 E25.80024
G1 X-1.456 Y-13.387 E25.94741
G0 F1485 X-1.057 Y-13.451
G0 F3600 X-.974 Y-12.932
G1 F3000 E25.97393
G1 F1650 X-.283 Y-13.003 E26.01941
G1 X0.412 Y-12.994 E26.06493
G1 X0.917 Y-12.937 E26.0982
G1 X3.529 Y-12.529 E26.27131
G1 X4.208 Y-12.382 E26.31681
G1 X4.866 Y-12.159 E26.3623
G1 X5.325 Y-11.95 E26.39532
G1 X7.677 Y-10.759 E26.56795
G1 X8.277 Y-10.41 E26.61341
G1 X8.834 Y-9.994 E26.65893
G1 X9.199 Y-9.661 E26.69128
G1 X11.075 Y-7.802 E26.86422
G1 X11.54 Y-7.285 E26.90975
G1 X11.942 Y-6.719 E26.95521
G1 X12.191 Y-6.281 E26.9882
G1 X13.411 Y-3.916 E27.16246
G1 X13.694 Y-3.281 E27.20798
G1 X13.901 Y-2.618 E27.25346
G1 X14.005 Y-2.113 E27.28722
G1 X14.431 Y0.519 E27.46181
G1 X14.503 Y1.21 E27.5073
G1 X14.494 Y1.905 E27.55282
G1 X14.436 Y2.42 E27.58675
G1 X14.025 Y5.039 E27.76035
G1 X13.878 Y5.718 E27.80584
G1 X13.654 Y6.376 E27.85135
G1 X13.447 Y6.831 E27.88408
G1 X12.253 Y9.189 E28.05715
G1 X11.904 Y9.789 E28.10261
G1 X11.488 Y10.346 E28.14813
G1 X11.148 Y10.718 E28.18113
G1 X9.285 Y12.592 E28.35416
G1 X8.768 Y13.056 E28.39965
G1 X8.201 Y13.457 E28.44512
G1 X7.76 Y13.707 E28.47832
G1 X5.393 Y14.922 E28.65254
G1 X4.758 Y15.203 E28.69801
G1 X4.095 Y15.409 E28.74347
G1 X3.594 Y15.512 E28.77696
G1 X0.973 Y15.933 E28.95078
G1 X0.281 Y16.003 E28.99633
G1 X-.413 Y15.994 E29.04178
G1 X-.922 Y15.936 E29.07532
G1 X-3.539 Y15.525 E29.24879
G1 X-4.218 Y15.378 E29.29428
G1 X-4.875 Y15.154 E29.33973
G1 X-5.33 Y14.947 E29.37246
G1 X-7.688 Y13.753 E29.54553
G1 X-8.288 Y13.404 E29.59098
G1 X-8.845 Y12.988 E29.63651
G1 X-9.216 Y12.649 E29.66941
G1 X-11.099 Y10.778 E29.84323
G1 X-11.563 Y10.261 E29.88872
G1 X-11.964 Y9.694 E29.9342
G1 X-12.219 Y9.245 E29.96801
G1 X-13.422 Y6.893 E30.141
G1 X-13.702 Y6.257 E30.1865
G1 X-13.907 Y5.593 E30.232
G1 X-14.006 Y5.111 E30.26422
G1 X-14.432 Y2.489 E30.43817
G1 X-14.504 Y1.798 E30.48366
G1 X-14.496 Y1.104 E30.5291
G1 X-14.437 Y0.587 E30.56318
G1 X-14.027 Y-2.033 E30.73683
G1 X-13.881 Y-2.712 E30.7823
G1 X-13.657 Y-3.369 E30.82776
G1 X-13.446 Y-3.832 E30.86107
G1 X-12.242 Y-6.204 E31.03526
G1 X-11.893 Y-6.804 E31.08071
G1 X-11.476 Y-7.361 E31.12627
G1 X-11.137 Y-7.731 E31.15913
G1 X-9.276 Y-9.6 E31.33184
G1 X-8.758 Y-10.064 E31.37737
G1 X-8.19 Y-10.464 E31.42286
G1 X-7.748 Y-10.715 E31.45615
G1 X-5.384 Y-11.925 E31.63004
G1 X-4.748 Y-12.205 E31.67555
G1 X-4.085 Y-12.411 E31.72101
G1 X-3.592 Y-12.511 E31.75395
G1 X-1.373 Y-12.868 E31.90112
G0 F1485 X-.974 Y-12.932
G0 F3600 X-.89 Y-12.414
G1 F3000 E31.92764
G1 F1650 X-.23 Y-12.48 E31.97107
G1 X0.434 Y-12.466 E32.01456
G1 X0.836 Y-12.418 E32.04107
G1 X3.448 Y-12.01 E32.21418
G1 X4.096 Y-11.868 E32.25762
G1 X4.723 Y-11.65 E32.30109
G1 X5.088 Y-11.481 E32.32742
G1 X7.44 Y-10.29 E32.50006
G1 X8.013 Y-9.955 E32.54352
G1 X8.541 Y-9.554 E32.58693
G1 X8.829 Y-9.288 E32.6126
G1 X10.705 Y-7.429 E32.78554
G1 X11.148 Y-6.934 E32.82904
G1 X11.528 Y-6.39 E32.87249
G1 X11.725 Y-6.04 E32.89879
G1 X12.945 Y-3.675 E33.07305
G1 X13.213 Y-3.068 E33.11649
G1 X13.406 Y-2.433 E33.15995
G1 X13.487 Y-2.029 E33.18693
G1 X13.913 Y0.603 E33.36152
G1 X13.98 Y1.264 E33.40503
G1 X13.966 Y1.927 E33.44845
G1 X13.917 Y2.339 E33.47562
G1 X13.506 Y4.958 E33.64921
G1 X13.364 Y5.606 E33.69265
G1 X13.145 Y6.233 E33.73614
G1 X12.978 Y6.593 E33.76213
G1 X11.784 Y8.951 E33.9352
G1 X11.449 Y9.525 E33.97871
G1 X11.048 Y10.053 E34.02213
G1 X10.776 Y10.348 E34.0484
G1 X8.913 Y12.222 E34.22144
G1 X8.417 Y12.664 E34.26494
G1 X7.872 Y13.042 E34.30837
G1 X7.521 Y13.24 E34.33476
G1 X5.154 Y14.455 E34.50898
G1 X4.546 Y14.722 E34.55246
G1 X3.91 Y14.914 E34.59596
G1 X3.51 Y14.993 E34.62266
G1 X0.889 Y15.414 E34.79649
G1 X0.229 Y15.48 E34.83992
G1 X-.435 Y15.466 E34.88341
G1 X-.84 Y15.417 E34.91012
G1 X-3.457 Y15.006 E35.08358
G1 X-4.106 Y14.864 E35.12709
G1 X-4.732 Y14.645 E35.17051
G1 X-5.092 Y14.478 E35.1965
G1 X-7.45 Y13.284 E35.36957
G1 X-8.024 Y12.949 E35.41309
G1 X-8.552 Y12.548 E35.4565
G1 X-8.846 Y12.277 E35.48269
G1 X-10.729 Y10.406 E35.6565
G1 X-11.171 Y9.91 E35.70001
G1 X-11.55 Y9.365 E35.74348
G1 X-11.751 Y9.005 E35.77047
G1 X-12.954 Y6.653 E35.94346
G1 X-13.22 Y6.045 E35.98692
G1 X-13.412 Y5.41 E36.03036
G1 X-13.488 Y5.027 E36.05593
G1 X-13.914 Y2.405 E36.22987
G1 X-13.98 Y1.745 E36.2733
G1 X-13.967 Y1.081 E36.31679
G1 X-13.919 Y0.669 E36.34395
G1 X-13.509 Y-1.951 E36.5176
G1 X-13.367 Y-2.6 E36.5611
G1 X-13.148 Y-3.227 E36.60459
G1 X-12.978 Y-3.594 E36.63107
G1 X-11.774 Y-5.966 E36.80526
G1 X-11.438 Y-6.539 E36.84875
G1 X-11.036 Y-7.067 E36.89221
G1 X-10.765 Y-7.361 E36.91839
G1 X-8.904 Y-9.23 E37.0911
G1 X-8.408 Y-9.671 E37.13456
G1 X-7.862 Y-10.05 E37.17808
G1 X-7.509 Y-10.248 E37.20458
G1 X-5.145 Y-11.458 E37.37848
G1 X-4.537 Y-11.724 E37.42193
G1 X-3.901 Y-11.915 E37.46541
G1 X-3.508 Y-11.993 E37.49165
G1 X-1.289 Y-12.35 E37.63882
G0 F1485 X-.89 Y-12.414
G0 F3600 X-.807 Y-11.896
G1 F3000 E37.66534
G1 F1650 X-.178 Y-11.956 E37.70672
G1 X0.755 Y-11.899 E37.76792
G1 X3.367 Y-11.491 E37.94103
G1 X3.983 Y-11.355 E37.98234
G1 X4.85 Y-11.013 E38.04337
G1 X7.202 Y-9.822 E38.216
G1 X7.746 Y-9.502 E38.25733
G1 X8.46 Y-8.915 E38.31785
G1 X10.336 Y-7.056 E38.49079
