;FLAVOR:Marlin
;TIME:5535
;Filament used: 3.42511m
;Layer height: 0.14
;Generated with Cura_SteamEngine 4.0.0
M140 S65
M105
M190 S65
M104 S200
M105
M109 S200
M82 ;absolute extrusion mode
; Calibration part start here
M666 X0 Y0 Z0 ; Add your endstop values here after calibration
M665 L120.80 R61.70 ; Sets default Delta Radius (change when calibrating)
M301 P45.00 I0.07 D1000 ; Hot end settings
M304 P100 I0 D0 ; Bed heater settings
M500 ; Save settings

G90 ; switch to absolute positioning - this line was added in case Cura doesn't include it by default
M82 ; set extruder to absolute mode - this line was added in case Cura doesn't include it by default
G28 ; start from home position
G29 C-0.8 Z0.3 ; probe the bed at 3 points with a 0.3mm overall vertical offset and an additional -0.8mm center offset
G1 Z15.0 F4800  ; move the nozzle up 15mm
G92 E0 ; reset extrusion distance
G1 F200 E3 ; extrude 3mm of feed stock
G92 E0 ; reset extrusion distance again
G0 Z0.01;
G92 Z0;
G1 F4800
G92 E0
G1 F3000 E-4
;LAYER_COUNT:107
;LAYER:0
M107
G0 F3600 X20.613 Y-18.113 Z0.3
;TYPE:SKIRT
G1 F3000 E0
G1 F1650 X40.089 Y-18.113 E1.27531
G1 X40.895 Y-18.073 E1.32815
G1 X41.692 Y-17.953 E1.38092
G1 X42.474 Y-17.756 E1.43373
G1 X43.233 Y-17.481 E1.48659
G1 X43.96 Y-17.133 E1.53937
G1 X44.65 Y-16.715 E1.5922
G1 X45.295 Y-16.23 E1.64504
G1 X45.843 Y-15.729 E1.69366
G1 X45.996 Y-15.576 E1.70783
G1 X46.538 Y-14.979 E1.76063
G1 X47.017 Y-14.33 E1.81344
G1 X47.43 Y-13.637 E1.86627
G1 X47.773 Y-12.907 E1.91908
G1 X48.041 Y-12.146 E1.97192
G1 X48.233 Y-11.362 E2.02477
G1 X48.346 Y-10.564 E2.07754
G1 X48.38 Y-9.822 E2.12618
G1 X48.38 Y9.822 E3.41249
G1 X48.34 Y10.628 E3.46533
G1 X48.22 Y11.425 E3.51811
G1 X48.023 Y12.207 E3.57091
G1 X47.748 Y12.966 E3.62378
G1 X47.4 Y13.693 E3.67655
G1 X46.982 Y14.383 E3.72938
G1 X46.497 Y15.028 E3.78222
G1 X45.996 Y15.576 E3.83084
G1 X45.843 Y15.729 E3.84501
G1 X45.246 Y16.271 E3.89781
G1 X44.597 Y16.75 E3.95063
G1 X43.904 Y17.163 E4.00345
G1 X43.174 Y17.506 E4.05627
G1 X42.413 Y17.774 E4.1091
G1 X41.629 Y17.966 E4.16195
G1 X40.831 Y18.079 E4.21473
G1 X40.089 Y18.113 E4.26337
G1 X20.613 Y18.113 E5.53867
G1 X20.613 Y35.262 E6.6616
G1 X20.573 Y36.068 E6.71445
G1 X20.453 Y36.865 E6.76722
G1 X20.256 Y37.647 E6.82003
G1 X19.981 Y38.406 E6.87289
G1 X19.633 Y39.133 E6.92567
G1 X19.215 Y39.823 E6.97849
G1 X18.73 Y40.468 E7.03134
G1 X18.229 Y41.016 E7.07996
G1 X18.076 Y41.169 E7.09412
G1 X17.479 Y41.711 E7.14692
G1 X16.83 Y42.19 E7.19974
G1 X16.137 Y42.603 E7.25257
G1 X15.407 Y42.946 E7.30538
G1 X14.646 Y43.214 E7.35821
G1 X13.862 Y43.406 E7.41107
G1 X13.064 Y43.519 E7.46384
G1 X12.322 Y43.553 E7.51248
G1 X-12.322 Y43.553 E9.12619
G1 X-13.128 Y43.513 E9.17903
G1 X-13.925 Y43.393 E9.23181
G1 X-14.707 Y43.196 E9.28462
G1 X-15.466 Y42.921 E9.33748
G1 X-16.193 Y42.573 E9.39026
G1 X-16.883 Y42.155 E9.44308
G1 X-17.528 Y41.67 E9.49592
G1 X-18.076 Y41.169 E9.54454
G1 X-18.229 Y41.016 E9.55871
G1 X-18.771 Y40.419 E9.61151
G1 X-19.25 Y39.77 E9.66433
G1 X-19.663 Y39.077 E9.71716
G1 X-20.006 Y38.347 E9.76997
G1 X-20.274 Y37.586 E9.8228
G1 X-20.466 Y36.802 E9.87566
G1 X-20.579 Y36.004 E9.92843
G1 X-20.613 Y35.262 E9.97707
G1 X-20.613 Y18.113 E11.1
G1 X-40.041 Y18.113 E12.37216
G1 X-40.847 Y18.073 E12.42501
G1 X-41.644 Y17.953 E12.47778
G1 X-42.426 Y17.756 E12.53059
G1 X-43.185 Y17.481 E12.58345
G1 X-43.912 Y17.133 E12.63623
G1 X-44.602 Y16.715 E12.68905
G1 X-45.247 Y16.23 E12.7419
G1 X-45.795 Y15.729 E12.79051
G1 X-45.948 Y15.576 E12.80468
G1 X-46.49 Y14.979 E12.85748
G1 X-46.969 Y14.33 E12.9103
G1 X-47.382 Y13.637 E12.96313
G1 X-47.725 Y12.907 E13.01594
G1 X-47.993 Y12.146 E13.06877
G1 X-48.185 Y11.362 E13.12163
G1 X-48.298 Y10.564 E13.1744
G1 X-48.332 Y9.822 E13.22304
G1 X-48.332 Y-9.822 E14.50935
G1 X-48.292 Y-10.628 E14.56219
G1 X-48.172 Y-11.425 E14.61496
G1 X-47.975 Y-12.207 E14.66777
G1 X-47.7 Y-12.966 E14.72063
G1 X-47.352 Y-13.693 E14.77341
G1 X-46.934 Y-14.383 E14.82624
G1 X-46.449 Y-15.028 E14.87908
G1 X-45.948 Y-15.576 E14.9277
G1 X-45.795 Y-15.729 E14.94187
G1 X-45.198 Y-16.271 E14.99467
G1 X-44.549 Y-16.75 E15.04748
G1 X-43.856 Y-17.163 E15.10031
G1 X-43.126 Y-17.506 E15.15312
G1 X-42.365 Y-17.774 E15.20596
G1 X-41.581 Y-17.966 E15.25881
G1 X-40.783 Y-18.079 E15.31158
G1 X-40.041 Y-18.113 E15.36022
G1 X-20.613 Y-18.113 E16.63239
G1 X-20.613 Y-34.955 E17.73521
G1 X-20.573 Y-35.761 E17.78806
G1 X-20.453 Y-36.558 E17.84083
G1 X-20.256 Y-37.34 E17.89364
G1 X-19.981 Y-38.099 E17.9465
G1 X-19.633 Y-38.826 E17.99928
G1 X-19.215 Y-39.516 E18.0521
G1 X-18.73 Y-40.161 E18.10495
G1 X-18.229 Y-40.709 E18.15357
G1 X-18.076 Y-40.862 E18.16774
G1 X-17.479 Y-41.404 E18.22053
G1 X-16.83 Y-41.883 E18.27335
G1 X-16.137 Y-42.296 E18.32618
G1 X-15.407 Y-42.639 E18.37899
G1 X-14.646 Y-42.907 E18.43182
G1 X-13.862 Y-43.099 E18.48468
G1 X-13.064 Y-43.212 E18.53745
G1 X-12.322 Y-43.246 E18.58609
G1 X12.322 Y-43.246 E20.1998
G1 X13.128 Y-43.206 E20.25264
G1 X13.925 Y-43.086 E20.30542
G1 X14.707 Y-42.889 E20.35823
G1 X15.466 Y-42.614 E20.41109
G1 X16.193 Y-42.266 E20.46387
G1 X16.883 Y-41.848 E20.51669
G1 X17.528 Y-41.363 E20.56954
G1 X18.076 Y-40.862 E20.61815
G1 X18.229 Y-40.709 E20.63232
G1 X18.771 Y-40.112 E20.68512
G1 X19.25 Y-39.463 E20.73794
G1 X19.663 Y-38.77 E20.79077
G1 X20.006 Y-38.04 E20.84358
G1 X20.274 Y-37.279 E20.89641
G1 X20.466 Y-36.495 E20.94927
G1 X20.579 Y-35.697 E21.00204
G1 X20.613 Y-34.955 E21.05068
G1 X20.613 Y-18.518 E22.12699
G0 F1485 X20.613 Y-18.113
G0 F3600 X20.088 Y-17.588
G1 F3000 E22.15351
G1 F1650 X40.089 Y-17.588 E23.46319
G1 X40.868 Y-17.548 E23.51427
G1 X41.639 Y-17.429 E23.56535
G1 X42.394 Y-17.231 E23.61646
G1 X43.124 Y-16.957 E23.66752
G1 X43.823 Y-16.609 E23.71865
G1 X44.482 Y-16.193 E23.76968
G1 X45.095 Y-15.71 E23.82078
G1 X45.472 Y-15.358 E23.85456
G1 X45.625 Y-15.205 E23.86872
G1 X46.148 Y-14.626 E23.91981
G1 X46.609 Y-13.996 E23.97093
G1 X47.002 Y-13.323 E24.02196
G1 X47.325 Y-12.613 E24.07304
G1 X47.573 Y-11.873 E24.12415
G1 X47.745 Y-11.112 E24.17523
G1 X47.838 Y-10.337 E24.22635
G1 X47.855 Y-9.822 E24.26009
G1 X47.855 Y9.822 E25.54639
G1 X47.815 Y10.601 E25.59747
G1 X47.696 Y11.372 E25.64855
G1 X47.498 Y12.127 E25.69966
G1 X47.224 Y12.857 E25.75072
G1 X46.876 Y13.556 E25.80185
G1 X46.46 Y14.215 E25.85288
G1 X45.977 Y14.828 E25.90398
G1 X45.625 Y15.205 E25.93776
G1 X45.472 Y15.358 E25.95193
G1 X44.893 Y15.881 E26.00302
G1 X44.263 Y16.342 E26.05413
G1 X43.59 Y16.735 E26.10517
G1 X42.88 Y17.058 E26.15624
G1 X42.14 Y17.306 E26.20735
G1 X41.379 Y17.478 E26.25844
G1 X40.604 Y17.571 E26.30955
G1 X40.089 Y17.588 E26.34329
G1 X20.088 Y17.588 E27.65297
G1 X20.088 Y35.262 E28.81028
G1 X20.048 Y36.041 E28.86136
G1 X19.929 Y36.812 E28.91244
G1 X19.731 Y37.567 E28.96355
G1 X19.457 Y38.297 E29.01461
G1 X19.109 Y38.996 E29.06574
G1 X18.693 Y39.655 E29.11677
G1 X18.21 Y40.268 E29.16787
G1 X17.858 Y40.645 E29.20165
G1 X17.705 Y40.798 E29.21581
G1 X17.126 Y41.321 E29.2669
G1 X16.496 Y41.782 E29.31802
G1 X15.823 Y42.175 E29.36905
G1 X15.113 Y42.498 E29.42013
G1 X14.373 Y42.746 E29.47124
G1 X13.612 Y42.918 E29.52232
G1 X12.837 Y43.011 E29.57344
G1 X12.322 Y43.028 E29.60718
G1 X-12.322 Y43.028 E31.22089
G1 X-13.101 Y42.988 E31.27196
G1 X-13.872 Y42.869 E31.32305
G1 X-14.627 Y42.671 E31.37416
G1 X-15.357 Y42.397 E31.42522
G1 X-16.056 Y42.049 E31.47634
G1 X-16.715 Y41.633 E31.52738
G1 X-17.328 Y41.15 E31.57848
G1 X-17.705 Y40.798 E31.61225
G1 X-17.858 Y40.645 E31.62642
G1 X-18.381 Y40.066 E31.67751
G1 X-18.842 Y39.436 E31.72863
G1 X-19.235 Y38.763 E31.77966
G1 X-19.558 Y38.053 E31.83074
G1 X-19.806 Y37.313 E31.88184
G1 X-19.978 Y36.552 E31.93293
G1 X-20.071 Y35.777 E31.98404
G1 X-20.088 Y35.262 E32.01778
G1 X-20.088 Y17.588 E33.17509
G1 X-40.041 Y17.588 E34.48163
G1 X-40.82 Y17.548 E34.53271
G1 X-41.591 Y17.429 E34.58379
G1 X-42.346 Y17.231 E34.6349
G1 X-43.076 Y16.957 E34.68596
G1 X-43.775 Y16.609 E34.73709
G1 X-44.434 Y16.193 E34.78812
G1 X-45.047 Y15.71 E34.83922
G1 X-45.424 Y15.358 E34.873
G1 X-45.577 Y15.205 E34.88717
G1 X-46.1 Y14.626 E34.93826
G1 X-46.561 Y13.996 E34.98937
G1 X-46.954 Y13.323 E35.04041
G1 X-47.277 Y12.613 E35.09148
G1 X-47.525 Y11.873 E35.14259
G1 X-47.697 Y11.112 E35.19367
G1 X-47.79 Y10.337 E35.24479
G1 X-47.807 Y9.822 E35.27853
G1 X-47.807 Y-9.822 E36.56483
G1 X-47.767 Y-10.601 E36.61591
G1 X-47.648 Y-11.372 E36.66699
G1 X-47.45 Y-12.127 E36.7181
G1 X-47.176 Y-12.857 E36.76916
G1 X-46.828 Y-13.556 E36.82029
G1 X-46.412 Y-14.215 E36.87132
G1 X-45.929 Y-14.828 E36.92242
G1 X-45.577 Y-15.205 E36.9562
G1 X-45.424 Y-15.358 E36.97037
G1 X-44.845 Y-15.881 E37.02146
G1 X-44.215 Y-16.342 E37.07258
G1 X-43.542 Y-16.735 E37.12361
G1 X-42.832 Y-17.058 E37.17468
G1 X-42.092 Y-17.306 E37.22579
G1 X-41.331 Y-17.478 E37.27688
G1 X-40.556 Y-17.571 E37.32799
G1 X-40.041 Y-17.588 E37.36173
G1 X-20.088 Y-17.588 E38.66827
G1 X-20.088 Y-34.955 E39.80548
G1 X-20.048 Y-35.734 E39.85655
G1 X-19.929 Y-36.505 E39.90764
G1 X-19.731 Y-37.26 E39.95875
G1 X-19.457 Y-37.99 E40.0098
G1 X-19.109 Y-38.689 E40.06093
G1 X-18.693 Y-39.348 E40.11196
G1 X-18.21 Y-39.961 E40.16307
G1 X-17.858 Y-40.338 E40.19684
G1 X-17.705 Y-40.491 E40.21101
G1 X-17.126 Y-41.014 E40.2621
G1 X-16.496 Y-41.475 E40.31322
G1 X-15.823 Y-41.868 E40.36425
G1 X-15.113 Y-42.191 E40.41533
G1 X-14.373 Y-42.439 E40.46643
G1 X-13.612 Y-42.611 E40.51752
G1 X-12.837 Y-42.704 E40.56863
G1 X-12.322 Y-42.721 E40.60237
G1 X12.322 Y-42.721 E42.21608
G1 X13.101 Y-42.681 E42.26716
G1 X13.872 Y-42.562 E42.31824
G1 X14.627 Y-42.364 E42.36935
G1 X15.357 Y-42.09 E42.42041
G1 X16.056 Y-41.742 E42.47154
G1 X16.715 Y-41.326 E42.52257
G1 X17.328 Y-40.843 E42.57367
G1 X17.705 Y-40.491 E42.60745
G1 X17.858 Y-40.338 E42.62162
G1 X18.381 Y-39.759 E42.67271
G1 X18.842 Y-39.129 E42.72382
G1 X19.235 Y-38.456 E42.77486
G1 X19.558 Y-37.746 E42.82593
G1 X19.806 Y-37.006 E42.87704
G1 X19.978 Y-36.245 E42.92813
G1 X20.071 Y-35.47 E42.97924
G1 X20.088 Y-34.955 E43.01298
G1 X20.088 Y-17.993 E44.12367
G0 F1485 X20.088 Y-17.588
G0 F3600 X19.563 Y-17.063
G1 F3000 E44.15018
G1 F1650 X40.089 Y-17.063 E45.49425
G1 X40.841 Y-17.023 E45.54356
G1 X41.584 Y-16.904 E45.59283
G1 X42.31 Y-16.706 E45.6421
G1 X43.012 Y-16.432 E45.69145
G1 X43.68 Y-16.086 E45.74071
G1 X44.308 Y-15.671 E45.79
G1 X45.101 Y-14.987 E45.85857
G1 X45.254 Y-14.834 E45.87274
G1 X45.757 Y-14.274 E45.92203
G1 X46.198 Y-13.664 E45.97132
G1 X46.572 Y-13.011 E46.0206
G1 X46.875 Y-12.322 E46.06988
G1 X47.102 Y-11.604 E46.11919
G1 X47.253 Y-10.866 E46.16852
G1 X47.33 Y-9.822 E46.23707
G1 X47.33 Y9.822 E47.52337
G1 X47.29 Y10.574 E47.57268
G1 X47.171 Y11.317 E47.62196
G1 X46.973 Y12.043 E47.67123
G1 X46.699 Y12.745 E47.72058
G1 X46.353 Y13.413 E47.76984
G1 X45.938 Y14.041 E47.81913
G1 X45.254 Y14.834 E47.8877
G1 X45.101 Y14.987 E47.90187
G1 X44.541 Y15.49 E47.95116
G1 X43.931 Y15.931 E48.00045
G1 X43.278 Y16.305 E48.04972
G1 X42.589 Y16.608 E48.09901
G1 X41.871 Y16.835 E48.14832
G1 X41.133 Y16.986 E48.19764
G1 X40.089 Y17.063 E48.26619
G1 X19.563 Y17.063 E49.61025
G1 X19.563 Y35.262 E50.80194
G1 X19.523 Y36.014 E50.85125
G1 X19.404 Y36.757 E50.90052
G1 X19.206 Y37.483 E50.9498
G1 X18.932 Y38.185 E50.99914
G1 X18.586 Y38.853 E51.0484
G1 X18.171 Y39.481 E51.09769
G1 X17.487 Y40.274 E51.16627
G1 X17.334 Y40.427 E51.18044
G1 X16.774 Y40.93 E51.22973
G1 X16.164 Y41.371 E51.27901
G1 X15.511 Y41.745 E51.32829
G1 X14.822 Y42.048 E51.37758
G1 X14.104 Y42.275 E51.42688
G1 X13.366 Y42.426 E51.47621
G1 X12.322 Y42.503 E51.54476
G1 X-12.322 Y42.503 E53.15847
G1 X-13.074 Y42.463 E53.20778
G1 X-13.817 Y42.344 E53.25705
G1 X-14.543 Y42.146 E53.30633
G1 X-15.245 Y41.872 E53.35567
G1 X-15.913 Y41.526 E53.40493
G1 X-16.541 Y41.111 E53.45422
G1 X-17.334 Y40.427 E53.5228
G1 X-17.487 Y40.274 E53.53697
G1 X-17.99 Y39.714 E53.58626
G1 X-18.431 Y39.104 E53.63554
G1 X-18.805 Y38.451 E53.68482
G1 X-19.108 Y37.762 E53.73411
G1 X-19.335 Y37.044 E53.78342
G1 X-19.486 Y36.306 E53.83274
G1 X-19.563 Y35.262 E53.90129
G1 X-19.563 Y17.063 E55.09298
G1 X-40.041 Y17.063 E56.43389
G1 X-40.793 Y17.023 E56.48321
G1 X-41.536 Y16.904 E56.53248
G1 X-42.262 Y16.706 E56.58175
G1 X-42.964 Y16.432 E56.6311
G1 X-43.632 Y16.086 E56.68036
G1 X-44.26 Y15.671 E56.72965
G1 X-45.053 Y14.987 E56.79822
G1 X-45.206 Y14.834 E56.81239
G1 X-45.709 Y14.274 E56.86168
G1 X-46.15 Y13.664 E56.91097
G1 X-46.524 Y13.011 E56.96024
G1 X-46.827 Y12.322 E57.00953
G1 X-47.054 Y11.604 E57.05884
G1 X-47.205 Y10.866 E57.10817
G1 X-47.282 Y9.822 E57.17671
G1 X-47.282 Y-9.822 E58.46302
G1 X-47.242 Y-10.574 E58.51233
G1 X-47.123 Y-11.317 E58.5616
G1 X-46.925 Y-12.043 E58.61088
G1 X-46.651 Y-12.745 E58.66022
G1 X-46.305 Y-13.413 E58.70948
G1 X-45.89 Y-14.041 E58.75877
G1 X-45.206 Y-14.834 E58.82735
G1 X-45.053 Y-14.987 E58.84152
G1 X-44.493 Y-15.49 E58.89081
G1 X-43.883 Y-15.931 E58.94009
G1 X-43.23 Y-16.305 E58.98937
G1 X-42.541 Y-16.608 E59.03866
G1 X-41.823 Y-16.835 E59.08797
G1 X-41.085 Y-16.986 E59.13729
G1 X-40.041 Y-17.063 E59.20584
G1 X-19.563 Y-17.063 E60.54676
G1 X-19.563 Y-34.955 E61.71834
G1 X-19.523 Y-35.707 E61.76765
G1 X-19.404 Y-36.45 E61.81693
G1 X-19.206 Y-37.176 E61.8662
G1 X-18.932 Y-37.878 E61.91555
G1 X-18.586 Y-38.546 E61.96481
G1 X-18.171 Y-39.174 E62.0141
G1 X-17.487 Y-39.967 E62.08267
G1 X-17.334 Y-40.12 E62.09684
G1 X-16.774 Y-40.623 E62.14613
G1 X-16.164 Y-41.064 E62.19542
G1 X-15.511 Y-41.438 E62.24469
G1 X-14.822 Y-41.741 E62.29398
G1 X-14.104 Y-41.968 E62.34329
G1 X-13.366 Y-42.119 E62.39261
G1 X-12.322 Y-42.196 E62.46116
G1 X12.322 Y-42.196 E64.07487
G1 X13.074 Y-42.156 E64.12418
G1 X13.817 Y-42.037 E64.17346
G1 X14.543 Y-41.839 E64.22273
G1 X15.245 Y-41.565 E64.27208
G1 X15.913 Y-41.219 E64.32134
G1 X16.541 Y-40.804 E64.37063
G1 X17.334 Y-40.12 E64.4392
G1 X17.487 Y-39.967 E64.45337
G1 X17.99 Y-39.407 E64.50266
G1 X18.431 Y-38.797 E64.55195
G1 X18.805 Y-38.144 E64.60122
G1 X19.108 Y-37.455 E64.65051
G1 X19.335 Y-36.737 E64.69982
G1 X19.486 Y-35.999 E64.74914
G1 X19.563 Y-34.955 E64.81769
G1 X19.563 Y-17.468 E65.96276
G0 F1485 X19.563 Y-17.063
G0 F3600 X19.038 Y-16.538
G1 F3000 E65.98928
G1 F1650 X40.089 Y-16.538 E67.36771
G1 X40.812 Y-16.498 E67.41513
G1 X41.527 Y-16.379 E67.46259
G1 X42.224 Y-16.181 E67.51004
G1 X42.894 Y-15.908 E67.55741
G1 X43.531 Y-15.563 E67.60485
G1 X44.126 Y-15.15 E67.65228
G1 X44.73 Y-14.616 E67.70507
G1 X44.883 Y-14.463 E67.71924
G1 X45.366 Y-13.923 E67.76668
G1 X45.787 Y-13.333 E67.81414
G1 X46.14 Y-12.701 E67.86154
G1 X46.421 Y-12.034 E67.90893
G1 X46.627 Y-11.339 E67.9564
G1 X46.756 Y-10.626 E68.00384
G1 X46.805 Y-9.822 E68.05659
G1 X46.805 Y9.822 E69.34289
G1 X46.765 Y10.545 E69.39031
G1 X46.646 Y11.26 E69.43777
G1 X46.448 Y11.957 E69.48522
G1 X46.175 Y12.627 E69.53259
G1 X45.83 Y13.264 E69.58003
G1 X45.417 Y13.859 E69.62746
G1 X44.883 Y14.463 E69.68025
G1 X44.73 Y14.616 E69.69442
G1 X44.19 Y15.099 E69.74186
G1 X43.6 Y15.52 E69.78932
G1 X42.968 Y15.873 E69.83672
G1 X42.301 Y16.154 E69.88411
G1 X41.606 Y16.36 E69.93158
G1 X40.893 Y16.489 E69.97902
G1 X40.089 Y16.538 E70.03177
G1 X19.038 Y16.538 E71.41021
G1 X19.038 Y35.262 E72.63627
G1 X18.998 Y35.985 E72.68369
G1 X18.879 Y36.7 E72.73115
G1 X18.681 Y37.397 E72.77859
G1 X18.408 Y38.067 E72.82597
G1 X18.063 Y38.704 E72.87341
G1 X17.65 Y39.299 E72.92083
G1 X17.116 Y39.903 E72.97362
G1 X16.963 Y40.056 E72.98779
G1 X16.423 Y40.539 E73.03523
G1 X15.833 Y40.96 E73.08269
G1 X15.201 Y41.313 E73.1301
G1 X14.534 Y41.594 E73.17749
G1 X13.839 Y41.8 E73.22495
G1 X13.126 Y41.929 E73.2724
G1 X12.322 Y41.978 E73.32514
G1 X-12.322 Y41.978 E74.93886
G1 X-13.045 Y41.938 E74.98627
