;FLAVOR:Marlin
;TIME:1735
;Filament used: 0.755174m
;Layer height: 0.14
;Generated with Cura_SteamEngine 4.0.0
M140 S65
M105
M190 S65
M104 S200
M105
M109 S200
M82 ;absolute extrusion mode
; Calibration part start here
M666 X0 Y0 Z0 ; Add your endstop values here after calibration
M665 L120.80 R61.70 ; Sets default Delta Radius (change when calibrating)
M301 P45.00 I0.07 D1000 ; Hot end settings
M304 P100 I0 D0 ; Bed heater settings
M500 ; Save settings

G90 ; switch to absolute positioning - this line was added in case Cura doesn't include it by default
M82 ; set extruder to absolute mode - this line was added in case Cura doesn't include it by default
G28 ; start from home position
G29 C-0.8 Z0.3 ; probe the bed at 3 points with a 0.3mm overall vertical offset and an additional -0.8mm center offset
G1 Z15.0 F4800  ; move the nozzle up 15mm
G92 E0 ; reset extrusion distance
G1 F200 E3 ; extrude 3mm of feed stock
G92 E0 ; reset extrusion distance again
G0 Z0.01;
G92 Z0;
G1 F4800
G92 E0
G1 F3000 E-4
;LAYER_COUNT:178
;LAYER:0
M107
G0 F3600 X15.613 Y-13.822 Z0.3
;TYPE:SKIRT
G1 F3000 E0
G1 F1650 X15.613 Y13.822 E1.81015
G1 X15.573 Y14.628 E1.863
G1 X15.453 Y15.425 E1.91577
G1 X15.256 Y16.207 E1.96858
G1 X14.981 Y16.966 E2.02144
G1 X14.633 Y17.693 E2.07422
G1 X14.215 Y18.383 E2.12704
G1 X13.73 Y19.028 E2.17989
G1 X13.229 Y19.576 E2.22851
G1 X13.076 Y19.729 E2.24267
G1 X12.479 Y20.271 E2.29547
G1 X11.83 Y20.75 E2.34829
G1 X11.137 Y21.163 E2.40112
G1 X10.407 Y21.506 E2.45393
G1 X9.646 Y21.774 E2.50676
G1 X8.862 Y21.966 E2.55962
G1 X8.064 Y22.079 E2.61239
G1 X7.322 Y22.113 E2.66103
G1 X-7.322 Y22.113 E3.61993
G1 X-8.128 Y22.073 E3.67278
G1 X-8.925 Y21.953 E3.72555
G1 X-9.707 Y21.756 E3.77836
G1 X-10.466 Y21.481 E3.83122
G1 X-11.193 Y21.133 E3.884
G1 X-11.883 Y20.715 E3.93682
G1 X-12.528 Y20.23 E3.98967
G1 X-13.076 Y19.729 E4.03829
G1 X-13.229 Y19.576 E4.05245
G1 X-13.771 Y18.979 E4.10525
G1 X-14.25 Y18.33 E4.15807
G1 X-14.663 Y17.637 E4.2109
G1 X-15.006 Y16.907 E4.26371
G1 X-15.274 Y16.146 E4.31654
G1 X-15.466 Y15.362 E4.3694
G1 X-15.579 Y14.564 E4.42217
G1 X-15.613 Y13.822 E4.47081
G1 X-15.613 Y-13.822 E6.28096
G1 X-15.573 Y-14.628 E6.33381
G1 X-15.453 Y-15.425 E6.38658
G1 X-15.256 Y-16.207 E6.43939
G1 X-14.981 Y-16.966 E6.49225
G1 X-14.633 Y-17.693 E6.54503
G1 X-14.215 Y-18.383 E6.59785
G1 X-13.73 Y-19.028 E6.6507
G1 X-13.229 Y-19.576 E6.69932
G1 X-13.076 Y-19.729 E6.71348
G1 X-12.479 Y-20.271 E6.76628
G1 X-11.83 Y-20.75 E6.8191
G1 X-11.137 Y-21.163 E6.87193
G1 X-10.407 Y-21.506 E6.92474
G1 X-9.646 Y-21.774 E6.97757
G1 X-8.862 Y-21.966 E7.03043
G1 X-8.064 Y-22.079 E7.0832
G1 X-7.322 Y-22.113 E7.13184
G1 X7.322 Y-22.113 E8.09074
G1 X8.128 Y-22.073 E8.14358
G1 X8.925 Y-21.953 E8.19636
G1 X9.707 Y-21.756 E8.24917
G1 X10.466 Y-21.481 E8.30203
G1 X11.193 Y-21.133 E8.35481
G1 X11.883 Y-20.715 E8.40763
G1 X12.528 Y-20.23 E8.46047
G1 X13.076 Y-19.729 E8.50909
G1 X13.229 Y-19.576 E8.52326
G1 X13.771 Y-18.979 E8.57606
G1 X14.25 Y-18.33 E8.62888
G1 X14.663 Y-17.637 E8.68171
G1 X15.006 Y-16.907 E8.73452
G1 X15.274 Y-16.146 E8.78735
G1 X15.466 Y-15.362 E8.84021
G1 X15.579 Y-14.564 E8.89298
G1 X15.595 Y-14.227 E8.91507
G0 F1485 X15.613 Y-13.822
G0 F3600 X15.088 Y-13.822
G1 F3000 E8.94159
G1 F1650 X15.088 Y13.822 E10.75175
G1 X15.048 Y14.601 E10.80282
G1 X14.929 Y15.372 E10.85391
G1 X14.731 Y16.127 E10.90502
G1 X14.457 Y16.857 E10.95607
G1 X14.109 Y17.556 E11.0072
G1 X13.693 Y18.215 E11.05823
G1 X13.21 Y18.828 E11.10934
G1 X12.858 Y19.205 E11.14311
G1 X12.705 Y19.358 E11.15728
G1 X12.126 Y19.881 E11.20837
G1 X11.496 Y20.342 E11.25949
G1 X10.823 Y20.735 E11.31052
G1 X10.113 Y21.058 E11.3616
G1 X9.373 Y21.306 E11.4127
G1 X8.612 Y21.478 E11.46379
G1 X7.837 Y21.571 E11.5149
G1 X7.322 Y21.588 E11.54864
G1 X-7.322 Y21.588 E12.50754
G1 X-8.101 Y21.548 E12.55862
G1 X-8.872 Y21.429 E12.6097
G1 X-9.627 Y21.231 E12.66081
G1 X-10.357 Y20.957 E12.71187
G1 X-11.056 Y20.609 E12.763
G1 X-11.715 Y20.193 E12.81403
G1 X-12.328 Y19.71 E12.86513
G1 X-12.705 Y19.358 E12.89891
G1 X-12.858 Y19.205 E12.91308
G1 X-13.381 Y18.626 E12.96417
G1 X-13.842 Y17.996 E13.01529
G1 X-14.235 Y17.323 E13.06632
G1 X-14.558 Y16.613 E13.11739
G1 X-14.806 Y15.873 E13.1685
G1 X-14.978 Y15.112 E13.21959
G1 X-15.071 Y14.337 E13.2707
G1 X-15.088 Y13.822 E13.30444
G1 X-15.088 Y-13.822 E15.11459
G1 X-15.048 Y-14.601 E15.16567
G1 X-14.929 Y-15.372 E15.21675
G1 X-14.731 Y-16.127 E15.26786
G1 X-14.457 Y-16.857 E15.31892
G1 X-14.109 Y-17.556 E15.37005
G1 X-13.693 Y-18.215 E15.42108
G1 X-13.21 Y-18.828 E15.47218
G1 X-12.858 Y-19.205 E15.50596
G1 X-12.705 Y-19.358 E15.52013
G1 X-12.126 Y-19.881 E15.57122
G1 X-11.496 Y-20.342 E15.62233
G1 X-10.823 Y-20.735 E15.67337
G1 X-10.113 Y-21.058 E15.72444
G1 X-9.373 Y-21.306 E15.77555
G1 X-8.612 Y-21.478 E15.82664
G1 X-7.837 Y-21.571 E15.87775
G1 X-7.322 Y-21.588 E15.91149
G1 X7.322 Y-21.588 E16.87039
G1 X8.101 Y-21.548 E16.92147
G1 X8.872 Y-21.429 E16.97255
G1 X9.627 Y-21.231 E17.02366
G1 X10.357 Y-20.957 E17.07472
G1 X11.056 Y-20.609 E17.12585
G1 X11.715 Y-20.193 E17.17688
G1 X12.328 Y-19.71 E17.22798
G1 X12.705 Y-19.358 E17.26175
G1 X12.858 Y-19.205 E17.27592
G1 X13.381 Y-18.626 E17.32701
G1 X13.842 Y-17.996 E17.37813
G1 X14.235 Y-17.323 E17.42916
G1 X14.558 Y-16.613 E17.48024
G1 X14.806 Y-15.873 E17.53134
G1 X14.978 Y-15.112 E17.58243
G1 X15.071 Y-14.337 E17.63354
G1 X15.075 Y-14.227 E17.64075
G0 F1485 X15.088 Y-13.822
G0 F3600 X14.563 Y-13.822
G1 F3000 E17.66727
G1 F1650 X14.563 Y13.822 E19.47743
G1 X14.523 Y14.574 E19.52674
G1 X14.404 Y15.317 E19.57601
G1 X14.206 Y16.043 E19.62528
G1 X13.932 Y16.745 E19.67463
G1 X13.586 Y17.413 E19.72389
G1 X13.171 Y18.041 E19.77318
G1 X12.487 Y18.834 E19.84175
G1 X12.334 Y18.987 E19.85592
G1 X11.774 Y19.49 E19.90521
G1 X11.164 Y19.931 E19.9545
G1 X10.511 Y20.305 E20.00378
G1 X9.822 Y20.608 E20.05306
G1 X9.104 Y20.835 E20.10237
G1 X8.366 Y20.986 E20.1517
G1 X7.322 Y21.063 E20.22025
G1 X-7.322 Y21.063 E21.17915
G1 X-8.074 Y21.023 E21.22846
G1 X-8.817 Y20.904 E21.27773
G1 X-9.543 Y20.706 E21.32701
G1 X-10.245 Y20.432 E21.37635
G1 X-10.913 Y20.086 E21.42561
G1 X-11.541 Y19.671 E21.4749
G1 X-12.334 Y18.987 E21.54348
G1 X-12.487 Y18.834 E21.55764
G1 X-12.99 Y18.274 E21.60693
G1 X-13.431 Y17.664 E21.65622
G1 X-13.805 Y17.011 E21.7055
G1 X-14.108 Y16.322 E21.75478
G1 X-14.335 Y15.604 E21.80409
G1 X-14.486 Y14.866 E21.85342
G1 X-14.563 Y13.822 E21.92197
G1 X-14.563 Y-13.822 E23.73212
G1 X-14.523 Y-14.574 E23.78143
G1 X-14.404 Y-15.317 E23.8307
G1 X-14.206 Y-16.043 E23.87998
G1 X-13.932 Y-16.745 E23.92932
G1 X-13.586 Y-17.413 E23.97859
G1 X-13.171 Y-18.041 E24.02788
G1 X-12.487 Y-18.834 E24.09645
G1 X-12.334 Y-18.987 E24.11062
G1 X-11.774 Y-19.49 E24.15991
G1 X-11.164 Y-19.931 E24.2092
G1 X-10.511 Y-20.305 E24.25847
G1 X-9.822 Y-20.608 E24.30776
G1 X-9.104 Y-20.835 E24.35707
G1 X-8.366 Y-20.986 E24.40639
G1 X-7.322 Y-21.063 E24.47494
G1 X7.322 Y-21.063 E25.43384
G1 X8.074 Y-21.023 E25.48315
G1 X8.817 Y-20.904 E25.53243
G1 X9.543 Y-20.706 E25.5817
G1 X10.245 Y-20.432 E25.63105
G1 X10.913 Y-20.086 E25.68031
G1 X11.541 Y-19.671 E25.7296
G1 X12.334 Y-18.987 E25.79817
G1 X12.487 Y-18.834 E25.81234
G1 X12.99 Y-18.274 E25.86163
G1 X13.431 Y-17.664 E25.91092
G1 X13.805 Y-17.011 E25.96019
G1 X14.108 Y-16.322 E26.00948
G1 X14.335 Y-15.604 E26.05879
G1 X14.486 Y-14.866 E26.10811
G1 X14.534 Y-14.226 E26.15014
G0 F1485 X14.563 Y-13.822
G0 F3600 X14.038 Y-13.822
G1 F3000 E26.17666
G1 F1650 X14.038 Y13.822 E27.98681
G1 X13.998 Y14.545 E28.03423
G1 X13.879 Y15.26 E28.08169
G1 X13.681 Y15.957 E28.12914
G1 X13.408 Y16.627 E28.17651
G1 X13.063 Y17.264 E28.22395
G1 X12.65 Y17.859 E28.27138
G1 X12.116 Y18.463 E28.32417
G1 X11.963 Y18.616 E28.33833
G1 X11.423 Y19.099 E28.38578
G1 X10.833 Y19.52 E28.43324
G1 X10.201 Y19.873 E28.48064
G1 X9.534 Y20.154 E28.52803
G1 X8.839 Y20.36 E28.5755
G1 X8.126 Y20.489 E28.62294
G1 X7.322 Y20.538 E28.67569
G1 X-7.322 Y20.538 E29.63459
G1 X-8.045 Y20.498 E29.682
G1 X-8.76 Y20.379 E29.72947
G1 X-9.457 Y20.181 E29.77691
G1 X-10.127 Y19.908 E29.82429
G1 X-10.764 Y19.563 E29.87172
G1 X-11.359 Y19.15 E29.91915
G1 X-11.963 Y18.616 E29.97194
G1 X-12.116 Y18.463 E29.98611
G1 X-12.599 Y17.923 E30.03355
G1 X-13.02 Y17.333 E30.08101
G1 X-13.373 Y16.701 E30.12841
G1 X-13.654 Y16.034 E30.17581
G1 X-13.86 Y15.339 E30.22327
G1 X-13.989 Y14.626 E30.27072
G1 X-14.038 Y13.822 E30.32346
G1 X-14.038 Y-13.822 E32.13362
G1 X-13.998 Y-14.545 E32.18103
G1 X-13.879 Y-15.26 E32.2285
G1 X-13.681 Y-15.957 E32.27594
G1 X-13.408 Y-16.627 E32.32332
G1 X-13.063 Y-17.264 E32.37075
G1 X-12.65 Y-17.859 E32.41818
G1 X-12.116 Y-18.463 E32.47097
G1 X-11.963 Y-18.616 E32.48514
G1 X-11.423 Y-19.099 E32.53258
G1 X-10.833 Y-19.52 E32.58004
G1 X-10.201 Y-19.873 E32.62744
G1 X-9.534 Y-20.154 E32.67483
G1 X-8.839 Y-20.36 E32.7223
G1 X-8.126 Y-20.489 E32.76975
G1 X-7.322 Y-20.538 E32.82249
G1 X7.322 Y-20.538 E33.78139
G1 X8.045 Y-20.498 E33.82881
G1 X8.76 Y-20.379 E33.87627
G1 X9.457 Y-20.181 E33.92372
G1 X10.127 Y-19.908 E33.97109
G1 X10.764 Y-19.563 E34.01853
G1 X11.359 Y-19.15 E34.06595
G1 X11.963 Y-18.616 E34.11875
G1 X12.116 Y-18.463 E34.13291
G1 X12.599 Y-17.923 E34.18035
G1 X13.02 Y-17.333 E34.22782
G1 X13.373 Y-16.701 E34.27522
G1 X13.654 Y-16.034 E34.32261
G1 X13.86 Y-15.339 E34.37008
G1 X13.989 Y-14.626 E34.41752
G1 X14.014 Y-14.226 E34.44377
G0 F1485 X14.038 Y-13.822
G0 F3600 X13.513 Y-13.822
G1 F3000 E34.47029
G1 F1650 X13.513 Y13.822 E36.28044
G1 X13.473 Y14.516 E36.32596
G1 X13.354 Y15.2 E36.37142
G1 X13.156 Y15.866 E36.41692
G1 X12.884 Y16.505 E36.46239
G1 X12.54 Y17.109 E36.50791
G1 X12.129 Y17.669 E36.55339
G1 X11.745 Y18.092 E36.5908
G1 X11.592 Y18.245 E36.60497
G1 X11.073 Y18.707 E36.65047
G1 X10.504 Y19.106 E36.69598
G1 X9.894 Y19.438 E36.74145
G1 X9.249 Y19.697 E36.78697
G1 X8.579 Y19.881 E36.83246
G1 X7.893 Y19.986 E36.87791
G1 X7.322 Y20.013 E36.91534
G1 X-7.322 Y20.013 E37.87424
G1 X-8.016 Y19.973 E37.91976
G1 X-8.7 Y19.854 E37.96522
G1 X-9.366 Y19.656 E38.01072
G1 X-10.005 Y19.384 E38.05619
G1 X-10.609 Y19.04 E38.10171
G1 X-11.169 Y18.629 E38.14719
G1 X-11.592 Y18.245 E38.1846
G1 X-11.745 Y18.092 E38.19877
G1 X-12.207 Y17.573 E38.24427
G1 X-12.606 Y17.004 E38.28978
G1 X-12.938 Y16.394 E38.33525
G1 X-13.197 Y15.749 E38.38076
G1 X-13.381 Y15.079 E38.42626
G1 X-13.486 Y14.393 E38.4717
G1 X-13.513 Y13.822 E38.50914
G1 X-13.513 Y-13.822 E40.31929
G1 X-13.473 Y-14.516 E40.36481
G1 X-13.354 Y-15.2 E40.41027
G1 X-13.156 Y-15.866 E40.45577
G1 X-12.884 Y-16.505 E40.50124
G1 X-12.54 Y-17.109 E40.54676
G1 X-12.129 Y-17.669 E40.59224
G1 X-11.745 Y-18.092 E40.62965
G1 X-11.592 Y-18.245 E40.64382
G1 X-11.073 Y-18.707 E40.68932
G1 X-10.504 Y-19.106 E40.73483
G1 X-9.894 Y-19.438 E40.7803
G1 X-9.249 Y-19.697 E40.82581
G1 X-8.579 Y-19.881 E40.87131
G1 X-7.893 Y-19.986 E40.91675
G1 X-7.322 Y-20.013 E40.95419
G1 X7.322 Y-20.013 E41.91309
G1 X8.016 Y-19.973 E41.95861
G1 X8.7 Y-19.854 E42.00407
G1 X9.366 Y-19.656 E42.04957
G1 X10.005 Y-19.384 E42.09504
G1 X10.609 Y-19.04 E42.14056
G1 X11.169 Y-18.629 E42.18604
G1 X11.592 Y-18.245 E42.22345
G1 X11.745 Y-18.092 E42.23762
G1 X12.207 Y-17.573 E42.28312
G1 X12.606 Y-17.004 E42.32862
G1 X12.938 Y-16.394 E42.3741
G1 X13.197 Y-15.749 E42.41961
G1 X13.381 Y-15.079 E42.46511
G1 X13.486 Y-14.393 E42.51055
G1 X13.494 Y-14.227 E42.52144
G0 F1485 X13.513 Y-13.822
G0 F3600 X12.988 Y-13.822
G1 F3000 E42.54796
G1 F1650 X12.988 Y13.822 E44.35811
G1 X12.948 Y14.485 E44.4016
G1 X12.829 Y15.138 E44.44506
G1 X12.632 Y15.772 E44.48854
G1 X12.36 Y16.377 E44.53197
G1 X12.018 Y16.946 E44.57544
G1 X11.609 Y17.469 E44.61892
G1 X11.373 Y17.72 E44.64148
G1 X11.22 Y17.873 E44.65565
G1 X10.723 Y18.314 E44.69916
G1 X10.177 Y18.691 E44.7426
G1 X9.59 Y19 E44.78604
G1 X8.97 Y19.236 E44.82948
G1 X8.325 Y19.396 E44.873
G1 X7.666 Y19.477 E44.91647
G1 X7.322 Y19.488 E44.93901
G1 X-7.322 Y19.488 E45.89791
G1 X-7.985 Y19.448 E45.9414
G1 X-8.638 Y19.329 E45.98487
G1 X-9.272 Y19.132 E46.02834
G1 X-9.877 Y18.86 E46.07178
G1 X-10.446 Y18.518 E46.11525
G1 X-10.969 Y18.109 E46.15872
G1 X-11.22 Y17.873 E46.18128
G1 X-11.373 Y17.72 E46.19545
G1 X-11.814 Y17.223 E46.23896
G1 X-12.191 Y16.677 E46.28241
G1 X-12.5 Y16.09 E46.32584
G1 X-12.736 Y15.47 E46.36928
G1 X-12.896 Y14.825 E46.4128
G1 X-12.977 Y14.166 E46.45628
G1 X-12.988 Y13.822 E46.47881
G1 X-12.988 Y-13.822 E48.28897
G1 X-12.948 Y-14.485 E48.33246
G1 X-12.829 Y-15.138 E48.37592
G1 X-12.632 Y-15.772 E48.41939
G1 X-12.36 Y-16.377 E48.46283
G1 X-12.018 Y-16.946 E48.5063
G1 X-11.609 Y-17.469 E48.54978
G1 X-11.373 Y-17.72 E48.57234
G1 X-11.22 Y-17.873 E48.5865
G1 X-10.723 Y-18.314 E48.63001
G1 X-10.177 Y-18.691 E48.67346
G1 X-9.59 Y-19 E48.7169
G1 X-8.97 Y-19.236 E48.76034
G1 X-8.325 Y-19.396 E48.80385
G1 X-7.666 Y-19.477 E48.84733
G1 X-7.322 Y-19.488 E48.86987
G1 X7.322 Y-19.488 E49.82877
G1 X7.985 Y-19.448 E49.87226
G1 X8.638 Y-19.329 E49.91572
G1 X9.272 Y-19.132 E49.9592
G1 X9.877 Y-18.86 E50.00263
G1 X10.446 Y-18.518 E50.0461
G1 X10.969 Y-18.109 E50.08958
G1 X11.22 Y-17.873 E50.11214
G1 X11.373 Y-17.72 E50.12631
G1 X11.814 Y-17.223 E50.16982
G1 X12.191 Y-16.677 E50.21326
G1 X12.5 Y-16.09 E50.2567
G1 X12.736 Y-15.47 E50.30014
G1 X12.896 Y-14.825 E50.34366
G1 X12.97 Y-14.226 E50.38318
G0 F1485 X12.977 Y-14.166
G0 X12.988 Y-13.822
G0 F3600 X12.463 Y-13.822
G1 F3000 E50.4097
G1 F1650 X12.463 Y13.822 E52.21985
G1 X12.423 Y14.452 E52.26119
G1 X12.304 Y15.072 E52.30253
G1 X12.107 Y15.672 E52.34388
G1 X11.836 Y16.242 E52.38521
G1 X11.496 Y16.774 E52.42655
G1 X11.002 Y17.349 E52.47619
G1 X10.849 Y17.502 E52.49035
G1 X10.375 Y17.919 E52.53169
G1 X9.853 Y18.273 E52.57299
G1 X9.289 Y18.559 E52.6144
G1 X8.694 Y18.77 E52.65574
G1 X8.078 Y18.905 E52.69703
G1 X7.322 Y18.963 E52.74668
G1 X-7.322 Y18.963 E53.70559
G1 X-7.952 Y18.923 E53.74692
G1 X-8.572 Y18.804 E53.78826
G1 X-9.172 Y18.607 E53.82961
G1 X-9.742 Y18.336 E53.87094
G1 X-10.274 Y17.996 E53.91228
G1 X-10.849 Y17.502 E53.96192
G1 X-11.002 Y17.349 E53.97609
G1 X-11.419 Y16.875 E54.01743
G1 X-11.773 Y16.353 E54.05873
G1 X-12.059 Y15.789 E54.10014
G1 X-12.27 Y15.194 E54.14148
G1 X-12.405 Y14.578 E54.18277
G1 X-12.463 Y13.822 E54.23242
G1 X-12.463 Y-13.822 E56.04257
G1 X-12.423 Y-14.452 E56.08391
G1 X-12.304 Y-15.072 E56.12525
G1 X-12.107 Y-15.672 E56.1666
G1 X-11.836 Y-16.242 E56.20793
G1 X-11.496 Y-16.774 E56.24927
G1 X-11.002 Y-17.349 E56.29891
G1 X-10.849 Y-17.502 E56.31308
G1 X-10.375 Y-17.919 E56.35442
G1 X-9.853 Y-18.273 E56.39572
G1 X-9.289 Y-18.559 E56.43712
G1 X-8.694 Y-18.77 E56.47846
G1 X-8.078 Y-18.905 E56.51976
G1 X-7.322 Y-18.963 E56.5694
G1 X7.322 Y-18.963 E57.52831
G1 X7.952 Y-18.923 E57.56964
G1 X8.572 Y-18.804 E57.61098
G1 X9.172 Y-18.607 E57.65233
G1 X9.742 Y-18.336 E57.69366
G1 X10.274 Y-17.996 E57.735
G1 X10.849 Y-17.502 E57.78464
G1 X11.002 Y-17.349 E57.79881
G1 X11.419 Y-16.875 E57.84015
G1 X11.773 Y-16.353 E57.88145
G1 X12.059 Y-15.789 E57.92286
G1 X12.27 Y-15.194 E57.9642
G1 X12.405 Y-14.578 E58.00549
G1 X12.433 Y-14.225 E58.02868
G0 F1485 X12.463 Y-13.822
G0 F3600 X11.938 Y-13.822
G1 F3000 E58.0552
G1 F1650 X11.938 Y13.822 E59.86535
G1 X11.898 Y14.418 E59.90447
G1 X11.779 Y15.003 E59.94356
G1 X11.583 Y15.567 E59.98265
G1 X11.313 Y16.1 E60.02178
G1 X10.974 Y16.592 E60.0609
G1 X10.631 Y16.978 E60.09471
G1 X10.478 Y17.131 E60.10888
G1 X10.028 Y17.524 E60.14801
G1 X9.53 Y17.853 E60.18709
G1 X8.993 Y18.114 E60.22618
G1 X8.425 Y18.3 E60.26532
G1 X7.838 Y18.408 E60.3044
G1 X7.322 Y18.438 E60.33825
G1 X-7.322 Y18.438 E61.29715
G1 X-7.918 Y18.398 E61.33627
G1 X-8.503 Y18.279 E61.37536
