;FLAVOR:Marlin
;TIME:5046
;Filament used: 2.73912m
;Layer height: 0.14
;Generated with Cura_SteamEngine 4.0.0
M140 S65
M105
M190 S65
M104 S200
M105
M109 S200
M82 ;absolute extrusion mode
; Calibration part start here
M666 X0 Y0 Z0 ; Add your endstop values here after calibration
M665 L120.80 R61.70 ; Sets default Delta Radius (change when calibrating)
M301 P45.00 I0.07 D1000 ; Hot end settings
M304 P100 I0 D0 ; Bed heater settings
M500 ; Save settings

G90 ; switch to absolute positioning - this line was added in case Cura doesn't include it by default
M82 ; set extruder to absolute mode - this line was added in case Cura doesn't include it by default
G28 ; start from home position
G29 C-0.8 Z0.3 ; probe the bed at 3 points with a 0.3mm overall vertical offset and an additional -0.8mm center offset
G1 Z15.0 F4800  ; move the nozzle up 15mm
G92 E0 ; reset extrusion distance
G1 F200 E3 ; extrude 3mm of feed stock
G92 E0 ; reset extrusion distance again
G0 Z0.01;
G92 Z0;
G1 F4800
G92 E0
G1 F3000 E-4
;LAYER_COUNT:564
;LAYER:0
M107
G0 F3600 X1.208 Y-16.511 Z0.3
;TYPE:SKIRT
G1 F3000 E0
G1 F1650 X3.841 Y-16.104 E0.17446
G1 X4.631 Y-15.942 E0.22727
G1 X5.401 Y-15.702 E0.28008
G1 X6.28 Y-15.319 E0.34286
G1 X8.649 Y-14.117 E0.51681
G1 X9.35 Y-13.717 E0.56966
G1 X10.007 Y-13.25 E0.62244
G1 X10.709 Y-12.627 E0.6839
G1 X12.586 Y-10.758 E0.85735
G1 X13.129 Y-10.161 E0.91019
G1 X13.61 Y-9.513 E0.96304
G1 X14.087 Y-8.7 E1.02476
G1 X15.293 Y-6.345 E1.19801
G1 X15.625 Y-5.61 E1.25082
G1 X15.882 Y-4.846 E1.3036
G1 X16.084 Y-3.931 E1.36496
G1 X16.505 Y-1.32 E1.53814
G1 X16.594 Y-.519 E1.59091
G1 X16.603 Y0.288 E1.64376
G1 X16.512 Y1.228 E1.7056
G1 X16.103 Y3.852 E1.8795
G1 X15.939 Y4.642 E1.93233
G1 X15.698 Y5.412 E1.98516
G1 X15.319 Y6.282 E2.0473
G1 X14.114 Y8.656 E2.22163
G1 X13.713 Y9.357 E2.27451
G1 X13.246 Y10.014 E2.32729
G1 X12.624 Y10.715 E2.38866
G1 X10.764 Y12.583 E2.56127
G1 X10.167 Y13.126 E2.61412
G1 X9.519 Y13.607 E2.66696
G1 X8.706 Y14.085 E2.72872
G1 X6.343 Y15.295 E2.90256
G1 X5.608 Y15.626 E2.95534
G1 X4.843 Y15.883 E3.00818
G1 X3.927 Y16.086 E3.06962
G1 X1.318 Y16.506 E3.24266
G1 X0.517 Y16.594 E3.29542
G1 X-.29 Y16.603 E3.34827
G1 X-1.231 Y16.512 E3.41017
G1 X-3.856 Y16.102 E3.58415
G1 X-4.646 Y15.938 E3.63698
G1 X-5.415 Y15.696 E3.68977
G1 X-6.28 Y15.319 E3.75156
G1 X-8.647 Y14.119 E3.92533
G1 X-9.347 Y13.72 E3.97809
G1 X-10.005 Y13.252 E4.03096
G1 X-10.709 Y12.628 E4.09256
G1 X-12.586 Y10.759 E4.26601
G1 X-13.129 Y10.162 E4.31885
G1 X-13.61 Y9.514 E4.3717
G1 X-14.087 Y8.701 E4.43342
G1 X-15.293 Y6.346 E4.60667
G1 X-15.625 Y5.611 E4.65948
G1 X-15.882 Y4.847 E4.71226
G1 X-16.084 Y3.932 E4.77362
G1 X-16.505 Y1.32 E4.94687
G1 X-16.594 Y0.518 E4.9997
G1 X-16.603 Y-.288 E5.05248
G1 X-16.511 Y-1.237 E5.11492
G1 X-16.098 Y-3.868 E5.28931
G1 X-15.933 Y-4.658 E5.34215
G1 X-15.691 Y-5.427 E5.39494
G1 X-15.319 Y-6.281 E5.45594
G1 X-14.126 Y-8.638 E5.62892
G1 X-13.726 Y-9.339 E5.68177
G1 X-13.26 Y-9.997 E5.73457
G1 X-12.63 Y-10.707 E5.79672
G1 X-10.757 Y-12.587 E5.97049
G1 X-10.16 Y-13.129 E6.02329
G1 X-9.513 Y-13.61 E6.07608
G1 X-8.704 Y-14.085 E6.13751
G1 X-6.353 Y-15.29 E6.3105
G1 X-5.618 Y-15.622 E6.36331
G1 X-4.853 Y-15.88 E6.41618
G1 X-3.939 Y-16.082 E6.47747
G1 X-1.333 Y-16.503 E6.65033
G1 X-.531 Y-16.592 E6.70317
G1 X0.275 Y-16.601 E6.75595
G1 X0.805 Y-16.549 E6.79082
G0 F1485 X1.208 Y-16.511
G0 F3600 X1.128 Y-15.993
G1 F3000 E6.81734
G1 F1650 X3.761 Y-15.586 E6.9918
G1 X4.525 Y-15.427 E7.0429
G1 X5.269 Y-15.191 E7.09401
G1 X6.043 Y-14.851 E7.14936
G1 X8.412 Y-13.649 E7.32331
G1 X9.088 Y-13.261 E7.37435
G1 X9.722 Y-12.806 E7.42545
G1 X10.339 Y-12.255 E7.47962
G1 X12.216 Y-10.386 E7.65306
G1 X12.74 Y-9.808 E7.70415
G1 X13.202 Y-9.179 E7.75525
G1 X13.62 Y-8.461 E7.80966
G1 X14.826 Y-6.106 E7.98291
G1 X15.146 Y-5.394 E8.03402
G1 X15.391 Y-4.654 E8.08507
G1 X15.566 Y-3.848 E8.13907
G1 X15.987 Y-1.237 E8.31225
G1 X16.071 Y-.461 E8.36336
G1 X16.076 Y0.319 E8.41444
G1 X15.993 Y1.147 E8.46893
G1 X15.584 Y3.771 E8.64282
G1 X15.425 Y4.535 E8.69392
G1 X15.188 Y5.278 E8.74499
G1 X14.851 Y6.045 E8.79985
G1 X13.646 Y8.419 E8.97418
G1 X13.257 Y9.095 E9.02525
G1 X12.802 Y9.729 E9.07635
G1 X12.252 Y10.345 E9.13042
G1 X10.392 Y12.213 E9.30304
G1 X9.814 Y12.737 E9.35413
G1 X9.185 Y13.199 E9.40523
G1 X8.467 Y13.617 E9.45963
G1 X6.104 Y14.827 E9.63347
G1 X5.392 Y15.147 E9.68458
G1 X4.651 Y15.392 E9.73569
G1 X3.844 Y15.567 E9.78976
G1 X1.235 Y15.987 E9.9628
G1 X0.459 Y16.072 E10.01392
G1 X-.321 Y16.076 E10.06499
G1 X-1.15 Y15.993 E10.11955
G1 X-3.775 Y15.583 E10.29352
G1 X-4.538 Y15.423 E10.34457
G1 X-5.282 Y15.186 E10.3957
G1 X-6.042 Y14.851 E10.45008
G1 X-8.409 Y13.651 E10.62386
G1 X-9.086 Y13.263 E10.67495
G1 X-9.72 Y12.808 E10.72605
G1 X-10.339 Y12.256 E10.78036
G1 X-12.216 Y10.387 E10.95381
G1 X-12.74 Y9.809 E11.00489
G1 X-13.202 Y9.18 E11.056
G1 X-13.62 Y8.462 E11.1104
G1 X-14.826 Y6.107 E11.28365
G1 X-15.146 Y5.395 E11.33476
G1 X-15.391 Y4.655 E11.38581
G1 X-15.566 Y3.848 E11.43988
G1 X-15.987 Y1.236 E11.61312
G1 X-16.072 Y0.461 E11.66417
G1 X-16.076 Y-.319 E11.71525
G1 X-15.992 Y-1.156 E11.77033
G1 X-15.579 Y-3.787 E11.94472
G1 X-15.419 Y-4.55 E11.99577
G1 X-15.181 Y-5.293 E12.04686
G1 X-14.85 Y-6.044 E12.1006
G1 X-13.657 Y-8.401 E12.27358
G1 X-13.27 Y-9.078 E12.32464
G1 X-12.815 Y-9.712 E12.37574
G1 X-12.258 Y-10.336 E12.43051
G1 X-10.385 Y-12.216 E12.60429
G1 X-9.807 Y-12.74 E12.65537
G1 X-9.178 Y-13.202 E12.70648
G1 X-8.464 Y-13.618 E12.76059
G1 X-6.113 Y-14.823 E12.93357
G1 X-5.402 Y-15.143 E12.98463
G1 X-4.661 Y-15.388 E13.03573
G1 X-3.855 Y-15.564 E13.08976
G1 X-1.249 Y-15.985 E13.26261
G1 X-.474 Y-16.069 E13.31366
G1 X0.307 Y-16.074 E13.3648
G1 X0.725 Y-16.032 E13.39231
G0 F1485 X1.128 Y-15.993
G0 F3600 X1.048 Y-15.474
G1 F3000 E13.41883
G1 F1650 X3.681 Y-15.067 E13.59328
G1 X4.418 Y-14.912 E13.6426
G1 X5.134 Y-14.681 E13.69186
G1 X5.805 Y-14.383 E13.73994
G1 X8.174 Y-13.181 E13.91389
G1 X8.826 Y-12.805 E13.96317
G1 X9.435 Y-12.362 E14.01249
G1 X9.968 Y-11.883 E14.05941
G1 X11.845 Y-10.014 E14.23286
G1 X12.35 Y-9.455 E14.28219
G1 X12.792 Y-8.846 E14.33146
G1 X13.153 Y-8.222 E14.37867
G1 X14.359 Y-5.867 E14.55192
G1 X14.666 Y-5.179 E14.60125
G1 X14.898 Y-4.464 E14.65047
G1 X15.048 Y-3.764 E14.69735
G1 X15.469 Y-1.153 E14.87053
G1 X15.549 Y-.405 E14.91979
G1 X15.549 Y0.348 E14.96909
G1 X15.474 Y1.067 E15.01643
G1 X15.065 Y3.691 E15.19033
G1 X14.91 Y4.427 E15.23958
G1 X14.678 Y5.143 E15.28886
G1 X14.382 Y5.807 E15.33647
G1 X13.177 Y8.181 E15.5108
G1 X12.802 Y8.833 E15.56005
G1 X12.359 Y9.442 E15.60936
G1 X11.88 Y9.974 E15.65624
G1 X10.02 Y11.842 E15.82885
G1 X9.461 Y12.347 E15.87818
G1 X8.852 Y12.789 E15.92745
G1 X8.228 Y13.15 E15.97466
G1 X5.865 Y14.36 E16.14849
G1 X5.177 Y14.667 E16.19783
G1 X4.461 Y14.899 E16.24711
G1 X3.761 Y15.049 E16.29399
G1 X1.152 Y15.469 E16.46703
G1 X0.403 Y15.549 E16.51635
G1 X-.35 Y15.549 E16.56566
G1 X-1.069 Y15.474 E16.613
G1 X-3.694 Y15.064 E16.78697
G1 X-4.43 Y14.909 E16.83622
G1 X-5.146 Y14.676 E16.88552
G1 X-5.805 Y14.383 E16.93275
G1 X-8.172 Y13.183 E17.10652
G1 X-8.824 Y12.807 E17.1558
G1 X-9.433 Y12.365 E17.20508
G1 X-9.968 Y11.884 E17.25219
G1 X-11.845 Y10.015 E17.42564
G1 X-12.35 Y9.456 E17.47496
G1 X-12.792 Y8.847 E17.52424
G1 X-13.153 Y8.223 E17.57144
G1 X-14.359 Y5.868 E17.74469
G1 X-14.666 Y5.18 E17.79403
G1 X-14.898 Y4.465 E17.84325
G1 X-15.048 Y3.765 E17.89013
G1 X-15.469 Y1.153 E18.06337
G1 X-15.549 Y0.404 E18.11269
G1 X-15.549 Y-.348 E18.16194
G1 X-15.473 Y-1.074 E18.20973
G1 X-15.06 Y-3.705 E18.38412
G1 X-14.904 Y-4.442 E18.43345
G1 X-14.671 Y-5.157 E18.4827
G1 X-14.382 Y-5.807 E18.52928
G1 X-13.189 Y-8.164 E18.70226
G1 X-12.814 Y-8.817 E18.75157
G1 X-12.372 Y-9.426 E18.80084
G1 X-11.886 Y-9.966 E18.84841
G1 X-10.013 Y-11.846 E19.02218
G1 X-9.454 Y-12.35 E19.07147
G1 X-8.845 Y-12.792 E19.12074
G1 X-8.225 Y-13.151 E19.16765
G1 X-5.874 Y-14.356 E19.34064
G1 X-5.187 Y-14.663 E19.38992
G1 X-4.471 Y-14.896 E19.43922
G1 X-3.771 Y-15.045 E19.48608
G1 X-1.165 Y-15.466 E19.65894
G1 X-.417 Y-15.547 E19.70821
G1 X0.336 Y-15.547 E19.75751
G1 X0.645 Y-15.515 E19.77785
G0 F1485 X1.048 Y-15.474
G0 F3600 X0.968 Y-14.955
G1 F3000 E19.80437
G1 F1650 X3.601 Y-14.548 E19.97883
G1 X4.309 Y-14.398 E20.02622
G1 X4.997 Y-14.171 E20.07366
G1 X5.568 Y-13.915 E20.11464
G1 X7.937 Y-12.713 E20.28859
G1 X8.563 Y-12.35 E20.33597
G1 X9.147 Y-11.92 E20.38346
G1 X9.598 Y-11.511 E20.42333
G1 X11.475 Y-9.642 E20.59677
G1 X11.959 Y-9.103 E20.64421
G1 X12.381 Y-8.514 E20.69166
G1 X12.686 Y-7.982 E20.73181
G1 X13.892 Y-5.627 E20.90506
G1 X14.186 Y-4.966 E20.95243
G1 X14.405 Y-4.275 E20.9999
G1 X14.529 Y-3.681 E21.03963
G1 X14.95 Y-1.07 E21.21281
G1 X15.026 Y-.349 E21.26029
G1 X15.022 Y0.375 E21.30769
G1 X14.956 Y0.986 E21.34794
G1 X14.547 Y3.61 E21.52183
G1 X14.396 Y4.318 E21.56924
G1 X14.168 Y5.006 E21.6167
G1 X13.914 Y5.57 E21.6572
G1 X12.709 Y7.944 E21.83153
G1 X12.346 Y8.57 E21.87891
G1 X11.916 Y9.153 E21.92635
G1 X11.508 Y9.604 E21.96617
G1 X9.648 Y11.472 E22.13879
G1 X9.109 Y11.956 E22.18622
G1 X8.52 Y12.378 E22.23367
G1 X7.988 Y12.683 E22.27382
G1 X5.625 Y13.893 E22.44766
G1 X4.963 Y14.187 E22.49509
G1 X4.273 Y14.406 E22.54249
G1 X3.677 Y14.531 E22.58237
G1 X1.068 Y14.951 E22.75541
G1 X0.348 Y15.026 E22.80281
G1 X-.377 Y15.022 E22.85028
G1 X-.988 Y14.955 E22.89053
G1 X-3.613 Y14.545 E23.0645
G1 X-4.321 Y14.394 E23.11191
G1 X-5.009 Y14.166 E23.15937
G1 X-5.568 Y13.915 E23.19949
G1 X-7.935 Y12.715 E23.37327
G1 X-8.562 Y12.352 E23.42071
G1 X-9.145 Y11.922 E23.46814
G1 X-9.598 Y11.512 E23.50815
G1 X-11.475 Y9.643 E23.6816
G1 X-11.959 Y9.104 E23.72903
G1 X-12.381 Y8.515 E23.77648
G1 X-12.686 Y7.983 E23.81663
G1 X-13.892 Y5.628 E23.98989
G1 X-14.186 Y4.967 E24.03726
G1 X-14.405 Y4.276 E24.08472
G1 X-14.529 Y3.681 E24.12452
G1 X-14.95 Y1.069 E24.29776
G1 X-15.026 Y0.349 E24.34517
G1 X-15.022 Y-.375 E24.39258
G1 X-14.955 Y-.993 E24.43329
G1 X-14.542 Y-3.624 E24.60768
G1 X-14.39 Y-4.332 E24.65509
G1 X-14.161 Y-5.019 E24.70251
G1 X-13.914 Y-5.57 E24.74205
G1 X-12.721 Y-7.927 E24.91503
G1 X-12.358 Y-8.554 E24.96247
G1 X-11.929 Y-9.138 E25.00992
G1 X-11.514 Y-9.595 E25.05035
G1 X-9.641 Y-11.475 E25.22412
G1 X-9.103 Y-11.959 E25.2715
G1 X-8.514 Y-12.381 E25.31895
G1 X-7.986 Y-12.684 E25.35881
G1 X-5.635 Y-13.889 E25.5318
G1 X-4.973 Y-14.183 E25.57923
G1 X-4.282 Y-14.402 E25.6267
G1 X-3.688 Y-14.527 E25.66644
G1 X-1.082 Y-14.948 E25.8393
G1 X-.361 Y-15.024 E25.88677
G1 X0.363 Y-15.02 E25.93418
G1 X0.565 Y-14.998 E25.94749
G0 F1485 X0.968 Y-14.955
G0 F3600 X0.887 Y-14.436
G1 F3000 E25.97401
G1 F1650 X3.52 Y-14.029 E26.14847
G1 X4.2 Y-13.884 E26.19399
G1 X4.858 Y-13.661 E26.23949
G1 X5.33 Y-13.447 E26.27342
G1 X7.699 Y-12.245 E26.44737
G1 X8.299 Y-11.895 E26.49286
G1 X8.856 Y-11.479 E26.53838
G1 X9.227 Y-11.139 E26.57133
G1 X11.104 Y-9.27 E26.74478
G1 X11.568 Y-8.752 E26.79032
G1 X11.968 Y-8.184 E26.83581
G1 X12.218 Y-7.743 E26.869
G1 X13.424 Y-5.388 E27.04225
G1 X13.705 Y-4.753 E27.08772
G1 X13.911 Y-4.089 E27.13325
G1 X14.011 Y-3.597 E27.16612
G1 X14.432 Y-.986 E27.3393
G1 X14.503 Y-.295 E27.38479
G1 X14.494 Y0.4 E27.4303
G1 X14.437 Y0.905 E27.46358
G1 X14.028 Y3.529 E27.63747
G1 X13.882 Y4.208 E27.68295
G1 X13.658 Y4.866 E27.72847
G1 X13.446 Y5.332 E27.76199
G1 X12.241 Y7.706 E27.93632
G1 X11.892 Y8.306 E27.98177
G1 X11.475 Y8.863 E28.02733
G1 X11.136 Y9.233 E28.06019
G1 X9.276 Y11.101 E28.23281
G1 X8.758 Y11.565 E28.27834
G1 X8.19 Y11.965 E28.32383
G1 X7.749 Y12.215 E28.35703
G1 X5.386 Y13.425 E28.53087
G1 X4.75 Y13.706 E28.5764
G1 X4.087 Y13.912 E28.62186
G1 X3.594 Y14.012 E28.6548
G1 X0.985 Y14.432 E28.82784
G1 X0.294 Y14.503 E28.87332
G1 X-.401 Y14.494 E28.91883
G1 X-.907 Y14.437 E28.95218
G1 X-3.532 Y14.027 E29.12615
G1 X-4.211 Y13.88 E29.17164
G1 X-4.869 Y13.657 E29.21713
G1 X-5.33 Y13.446 E29.25033
G1 X-7.697 Y12.246 E29.42411
G1 X-8.298 Y11.897 E29.46961
G1 X-8.854 Y11.481 E29.51508
G1 X-9.227 Y11.14 E29.54818
G1 X-11.104 Y9.271 E29.72162
G1 X-11.568 Y8.753 E29.76716
G1 X-11.968 Y8.185 E29.81265
G1 X-12.218 Y7.744 E29.84585
G1 X-13.424 Y5.389 E30.0191
G1 X-13.705 Y4.754 E30.06457
G1 X-13.911 Y4.09 E30.11009
G1 X-14.011 Y3.598 E30.14297
G1 X-14.432 Y0.986 E30.31621
G1 X-14.503 Y0.295 E30.3617
G1 X-14.494 Y-.4 E30.40721
G1 X-14.436 Y-.911 E30.44088
G1 X-14.023 Y-3.542 E30.61527
G1 X-13.876 Y-4.221 E30.66077
G1 X-13.652 Y-4.879 E30.70628
G1 X-13.445 Y-5.333 E30.73895
G1 X-12.252 Y-7.69 E30.91194
G1 X-11.903 Y-8.291 E30.95744
G1 X-11.488 Y-8.847 E31.00287
G1 X-11.142 Y-9.225 E31.03643
G1 X-9.269 Y-11.105 E31.2102
G1 X-8.752 Y-11.568 E31.25565
G1 X-8.184 Y-11.968 E31.30114
G1 X-7.746 Y-12.216 E31.3341
G1 X-5.395 Y-13.421 E31.50708
G1 X-4.76 Y-13.702 E31.55255
G1 X-4.096 Y-13.908 E31.59808
G1 X-3.604 Y-14.009 E31.63097
G1 X-.998 Y-14.43 E31.80382
G1 X-.307 Y-14.501 E31.84931
G1 X0.388 Y-14.492 E31.89482
G1 X0.485 Y-14.481 E31.90121
G0 F1485 X0.887 Y-14.436
G0 F3600 X0.807 Y-13.917
G1 F3000 E31.92773
G1 F1650 X3.44 Y-13.51 E32.10219
G1 X4.089 Y-13.37 E32.14567
G1 X4.716 Y-13.152 E32.18913
G1 X5.092 Y-12.978 E32.21626
G1 X7.461 Y-11.776 E32.39021
G1 X8.034 Y-11.441 E32.43367
G1 X8.563 Y-11.039 E32.47718
G1 X8.857 Y-10.767 E32.50341
G1 X10.734 Y-8.898 E32.67686
G1 X11.175 Y-8.402 E32.72031
G1 X11.554 Y-7.856 E32.76384
G1 X11.751 Y-7.504 E32.79025
G1 X12.957 Y-5.149 E32.9635
G1 X13.223 Y-4.541 E33.00696
G1 X13.415 Y-3.905 E33.05046
G1 X13.493 Y-3.514 E33.07657
G1 X13.914 Y-.903 E33.24975
G1 X13.98 Y-.242 E33.29324
G1 X13.966 Y0.422 E33.33673
G1 X13.918 Y0.824 E33.36324
G1 X13.509 Y3.448 E33.53714
G1 X13.368 Y4.097 E33.58063
G1 X13.149 Y4.723 E33.62406
G1 X12.978 Y5.094 E33.65081
G1 X11.773 Y7.468 E33.82514
G1 X11.437 Y8.041 E33.86863
G1 X11.035 Y8.569 E33.91209
G1 X10.764 Y8.863 E33.93827
G1 X8.904 Y10.731 E34.11088
G1 X8.408 Y11.172 E34.15434
G1 X7.862 Y11.551 E34.19786
G1 X7.51 Y11.748 E34.22428
G1 X5.147 Y12.958 E34.39811
G1 X4.539 Y13.225 E34.4416
G1 X3.903 Y13.416 E34.48508
G1 X3.51 Y13.494 E34.51132
G1 X0.901 Y13.914 E34.68436
G1 X0.241 Y13.98 E34.72779
G1 X-.423 Y13.966 E34.77128
G1 X-.826 Y13.918 E34.79785
G1 X-3.451 Y13.508 E34.97182
G1 X-4.099 Y13.366 E35.01526
G1 X-4.726 Y13.148 E35.05873
G1 X-5.093 Y12.978 E35.08521
G1 X-7.46 Y11.778 E35.25899
G1 X-8.033 Y11.443 E35.30245
G1 X-8.561 Y11.041 E35.3459
G1 X-8.857 Y10.768 E35.37227
G1 X-10.734 Y8.899 E35.54572
G1 X-11.175 Y8.403 E35.58918
G1 X-11.554 Y7.857 E35.6327
G1 X-11.751 Y7.505 E35.65911
G1 X-12.957 Y5.15 E35.83237
G1 X-13.223 Y4.542 E35.87582
G1 X-13.415 Y3.906 E35.91932
G1 X-13.493 Y3.514 E35.9455
G1 X-13.914 Y0.902 E36.11874
G1 X-13.98 Y0.242 E36.16217
G1 X-13.966 Y-.422 E36.20566
G1 X-13.917 Y-.83 E36.23257
G1 X-13.504 Y-3.461 E36.40696
G1 X-13.362 Y-4.109 E36.4504
G1 X-13.143 Y-4.736 E36.49389
G1 X-12.977 Y-5.096 E36.51984
G1 X-11.784 Y-7.453 E36.69283
G1 X-11.449 Y-8.026 E36.73629
G1 X-11.048 Y-8.555 E36.77976
G1 X-10.771 Y-8.854 E36.80645
G1 X-8.898 Y-10.734 E36.98022
G1 X-8.402 Y-11.175 E37.02368
G1 X-7.856 Y-11.554 E37.0672
G1 X-7.507 Y-11.749 E37.09338
G1 X-5.156 Y-12.954 E37.26637
G1 X-4.548 Y-13.221 E37.30985
G1 X-3.912 Y-13.412 E37.35333
G1 X-3.52 Y-13.49 E37.3795
G1 X-.914 Y-13.911 E37.55236
G1 X-.254 Y-13.978 E37.5958
G1 X0.404 Y-13.964 E37.63889
G0 F1485 X0.41 Y-13.964
G0 X0.807 Y-13.917
G0 F3600 X0.727 Y-13.398
G1 F3000 E37.66541
G1 F1650 X3.36 Y-12.991 E37.83987
G1 X3.977 Y-12.856 E37.88123
G1 X4.855 Y-12.51 E37.94303
G1 X7.224 Y-11.308 E38.11698
G1 X7.768 Y-10.987 E38.15834
G1 X8.487 Y-10.395 E38.21932
G1 X10.364 Y-8.526 E38.39277
G1 X10.782 Y-8.053 E38.4341
