;FLAVOR:Marlin
;TIME:3617
;Filament used: 1.7838m
;Layer height: 0.14
;Generated with Cura_SteamEngine 4.0.0
M140 S65
M105
M190 S65
M104 S200
M105
M109 S200
M82 ;absolute extrusion mode
; Calibration part start here
M666 X0 Y0 Z0 ; Add your endstop values here after calibration
M665 L120.80 R61.70 ; Sets default Delta Radius (change when calibrating)
M301 P45.00 I0.07 D1000 ; Hot end settings
M304 P100 I0 D0 ; Bed heater settings
M500 ; Save settings

G90 ; switch to absolute positioning - this line was added in case Cura doesn't include it by default
M82 ; set extruder to absolute mode - this line was added in case Cura doesn't include it by default
G28 ; start from home position
G29 C-0.8 Z0.3 ; probe the bed at 3 points with a 0.3mm overall vertical offset and an additional -0.8mm center offset
G1 Z15.0 F4800  ; move the nozzle up 15mm
G92 E0 ; reset extrusion distance
G1 F200 E3 ; extrude 3mm of feed stock
G92 E0 ; reset extrusion distance again
G0 Z0.01;
G92 Z0;
G1 F4800
G92 E0
G1 F3000 E-4
;LAYER_COUNT:549
;LAYER:-7
M107
G0 F7200 X-16.282 Y-2.147 Z0.36
;TYPE:SUPPORT-INTERFACE
G1 F3000 E0
G1 F1237.5 X-16.147 Y-3.05 E0.10932
G1 X-16.115 Y-3.221 E0.13015
G1 X-15.919 Y-4.084 E0.23612
G1 X-15.874 Y-4.255 E0.25729
G1 X-15.609 Y-5.128 E0.36653
G1 X-15.384 Y-5.751 E0.44584
G1 X-15.21 Y-6.197 E0.50316
G1 X-14.799 Y-7.141 E0.62644
G1 X-14.728 Y-7.289 E0.6461
G1 X-14.234 Y-8.216 E0.77187
G1 X-13.668 Y-9.118 E0.89938
G1 X-13.307 Y-9.627 E0.97409
G1 X-12.99 Y-10.05 E1.03739
G1 X-12.405 Y-10.776 E1.14902
G1 X-12.285 Y-10.915 E1.17101
G1 X-11.562 Y-11.683 E1.29731
G1 X-10.792 Y-12.392 E1.42264
G1 X-10.038 Y-13.004 E1.53891
G1 X-9.203 Y-13.616 E1.66287
G1 X-9.054 Y-13.718 E1.68449
G1 X-8.31 Y-14.182 E1.78948
G1 X-8.152 Y-14.273 E1.81131
G1 X-7.223 Y-14.759 E1.93685
G1 X-6.725 Y-14.986 E2.00238
G1 X-6.319 Y-15.16 E2.05527
G1 X-5.337 Y-15.542 E2.18143
G1 X-5.15 Y-15.607 E2.20514
G1 X-4.324 Y-15.855 E2.3084
G1 X-4.121 Y-15.909 E2.33356
G1 X-3.121 Y-16.131 E2.45621
G1 X-2.594 Y-16.219 E2.52018
G1 X-2.113 Y-16.289 E2.57838
G1 X-1.131 Y-16.395 E2.69665
G1 X-1.004 Y-16.404 E2.71189
G1 X-0.084 Y-16.436 E2.82211
G1 X0.992 Y-16.4 E2.95102
G1 X1.684 Y-16.339 E3.0342
G1 X2.133 Y-16.286 E3.08834
G1 X3.143 Y-16.131 E3.21069
G1 X4.337 Y-15.855 E3.35742
G1 X5.36 Y-15.533 E3.48584
G1 X5.827 Y-15.358 E3.54555
G1 X6.264 Y-15.185 E3.60183
G1 X7.34 Y-14.706 E3.74285
G1 X8.254 Y-14.214 E3.86714
G1 X9.17 Y-13.635 E3.99689
G1 X9.618 Y-13.314 E4.06288
G1 X10.039 Y-13 E4.12577
G1 X10.73 Y-12.447 E4.23174
G1 X10.897 Y-12.304 E4.25807
G1 X11.646 Y-11.601 E4.38106
G1 X12.364 Y-10.826 E4.50756
G1 X12.814 Y-10.276 E4.59265
G1 X13.037 Y-9.992 E4.63589
G1 X13.669 Y-9.125 E4.76435
G1 X14.235 Y-8.22 E4.89216
G1 X14.313 Y-8.083 E4.91104
G1 X14.798 Y-7.146 E5.03737
G1 X15.05 Y-6.583 E5.11122
G1 X15.235 Y-6.142 E5.16849
G1 X15.619 Y-5.118 E5.29943
G1 X15.874 Y-4.269 E5.40558
G1 X15.92 Y-4.092 E5.42747
G1 X16.146 Y-3.058 E5.5542
G1 X16.233 Y-2.52 E5.61946
G1 X16.298 Y-2.046 E5.67675
G1 X16.393 Y-1.156 E5.78392
G1 X16.407 Y-.958 E5.80768
G1 X16.437 Y-0.058 E5.91551
G1 X16.399 Y1.031 E6.04598
G1 X16.345 Y1.628 E6.11775
G1 X16.295 Y2.069 E6.17089
G1 X16.141 Y3.086 E6.29406
G1 X15.915 Y4.106 E6.41915
G1 X15.86 Y4.313 E6.44479
G1 X15.607 Y5.139 E6.54823
G1 X15.376 Y5.776 E6.62936
G1 X15.2 Y6.224 E6.687
G1 X14.797 Y7.15 E6.80792
G1 X14.721 Y7.307 E6.8288
G1 X14.299 Y8.107 E6.9371
G1 X14.208 Y8.266 E6.95904
G1 X13.657 Y9.139 E7.08265
G1 X13.27 Y9.681 E7.16239
G1 X12.956 Y10.098 E7.22489
G1 X12.359 Y10.833 E7.33827
G1 X12.25 Y10.957 E7.35804
G1 X11.633 Y11.614 E7.46596
G1 X11.507 Y11.739 E7.48721
G1 X10.734 Y12.442 E7.61232
G1 X10.271 Y12.82 E7.68388
G1 X9.869 Y13.132 E7.74482
G1 X9.095 Y13.688 E7.85892
G1 X8.972 Y13.77 E7.87662
G1 X8.064 Y14.323 E8.00392
G1 X7.105 Y14.816 E8.13303
G1 X6.657 Y15.016 E8.19178
G1 X6.177 Y15.219 E8.25418
G1 X5.172 Y15.6 E8.38287
G1 X4.304 Y15.863 E8.49147
G1 X4.11 Y15.914 E8.51549
G1 X3.08 Y16.14 E8.64175
G1 X2.573 Y16.222 E8.70325
G1 X2.135 Y16.285 E8.75623
G1 X1.11 Y16.395 E8.87966
G1 X0.945 Y16.406 E8.89946
G1 X0.047 Y16.436 E9.00705
G1 X-1.052 Y16.397 E9.13872
G1 X-1.657 Y16.342 E9.21146
G1 X-2.078 Y16.293 E9.26221
G1 X-3.084 Y16.14 E9.38405
G1 X-3.302 Y16.098 E9.41063
G1 X-4.311 Y15.861 E9.53473
G1 X-5.317 Y15.546 E9.66096
G1 X-5.828 Y15.356 E9.72623
G1 X-6.301 Y15.168 E9.78718
G1 X-7.175 Y14.784 E9.90148
G1 X-7.332 Y14.708 E9.92237
G1 X-8.255 Y14.213 E10.04778
G1 X-9.149 Y13.649 E10.17434
G1 X-9.664 Y13.282 E10.25006
G1 X-10.04 Y12.998 E10.30648
G1 X-10.771 Y12.409 E10.41889
G1 X-10.912 Y12.288 E10.44113
G1 X-11.565 Y11.678 E10.54813
G1 X-11.677 Y11.565 E10.56718
G1 X-12.391 Y10.789 E10.69344
G1 X-12.764 Y10.336 E10.7637
G1 X-13.039 Y9.987 E10.81691
G1 X-13.623 Y9.19 E10.93521
G1 X-13.717 Y9.051 E10.9553
G1 X-14.191 Y8.293 E11.06235
G1 X-14.272 Y8.152 E11.08182
G1 X-14.773 Y7.192 E11.21148
G1 X-15.03 Y6.626 E11.28591
G1 X-15.202 Y6.221 E11.33859
G1 X-15.539 Y5.345 E11.45098
G1 X-15.594 Y5.183 E11.47146
G1 X-15.856 Y4.324 E11.57899
G1 X-15.901 Y4.153 E11.60017
G1 X-16.127 Y3.137 E11.72479
G1 X-16.214 Y2.618 E11.7878
G1 X-16.287 Y2.113 E11.8489
G1 X-16.39 Y1.19 E11.9601
G1 X-16.401 Y1.039 E11.97823
G1 X-16.435 Y0.144 E12.08547
G1 X-16.436 Y-0.02 E12.10511
G1 X-16.398 Y-1.054 E12.229
G1 X-16.305 Y-1.928 E12.33424
G0 F1113.8 X-16.282 Y-2.147
G0 F7200 X-16 Y-3.728
G1 F3000 E12.3607
G1 F1237.5 X-16 Y3.707 E13.25094
G0 F7200 X-14.4 Y7.906
G1 F1237.5 X-14.4 Y-7.905 E15.14409
G0 F7200 X-12.8 Y-10.286
G1 F1237.5 X-12.8 Y10.29 E17.60779
G0 F7200 X-11.2 Y12.018
G1 F1237.5 X-11.2 Y-12.017 E20.48566
G0 F7200 X-9.6 Y-13.326
G1 F1237.5 X-9.6 Y13.327 E23.67699
G0 F7200 X-8 Y14.349
G1 F1237.5 X-8 Y-14.353 E27.11367
G0 F7200 X-6.4 Y-15.126
G1 F1237.5 X-6.4 Y15.124 E30.7357
G0 F7200 X-4.8 Y15.707
G1 F1237.5 X-4.8 Y-15.713 E34.49782
G0 F7200 X-3.2 Y-16.114
G1 F1237.5 X-3.2 Y16.117 E38.35705
G0 F7200 X-1.6 Y16.347
G1 F1237.5 X-1.6 Y-16.345 E42.27147
G0 F7200 X0.00 Y-16.433
G1 F1237.5 X0.00 Y16.434 E46.20685
G0 F7200 X1.6 Y16.343
G1 F1237.5 X1.6 Y-16.346 E50.12092
G0 F7200 X3.2 Y-16.117
G1 F1237.5 X3.2 Y16.114 E53.98014
G0 F7200 X4.8 Y15.713
G1 F1237.5 X4.8 Y-15.709 E57.7425
G0 F7200 X6.4 Y-15.124
G1 F1237.5 X6.4 Y15.125 E61.36441
G0 F7200 X8 Y14.356
G1 F1237.5 X8 Y-14.35 E64.80157
G0 F7200 X9.6 Y-13.326
G1 F1237.5 X9.6 Y13.326 E67.99279
G0 F7200 X11.2 Y12.019
G1 F1237.5 X11.2 Y-12.019 E70.87101
G0 F7200 X12.8 Y-10.293
G1 F1237.5 X12.8 Y10.291 E73.33567
G0 F7200 X14.4 Y7.916
G1 F1237.5 X14.4 Y-7.914 E75.2311
G0 F7200 X16 Y-3.725
G1 F1237.5 X16 Y3.723 E76.12289
G1 F3000 E72.12289
G0 F7200 X-13.077 Y10.018
;TIME_ELAPSED:33.935691
;LAYER:-6
M140 S60
G0 X-13.077 Y10.018 Z0.57
;TYPE:SUPPORT
G1 F3000 E76.12289
G1 F1237.5 X-12.776 Y10.398 E76.15252
G1 X-12.428 Y10.82 E76.18595
G1 X-11.714 Y11.6 E76.25057
G1 X-10.933 Y12.334 E76.31608
G1 X-10.067 Y13.04 E76.38436
G1 X-9.693 Y13.321 E76.41295
G1 X-9.33 Y13.579 E76.44017
G1 X-13.585 Y9.324 E76.80793
G1 X-13.662 Y9.219 E76.81589
G1 X-13.757 Y9.079 E76.82623
G1 X-14.315 Y8.176 E76.8911
G1 X-14.816 Y7.213 E76.95745
G1 X-15.028 Y6.753 E76.9884
G1 X-15.135 Y6.501 E77.00513
G1 X-6.504 Y15.132 E77.75111
G1 X-6.32 Y15.214 E77.76342
G1 X-5.853 Y15.399 E77.79412
G1 X-5.332 Y15.591 E77.82806
G1 X-4.524 Y15.84 E77.87973
G1 X-15.849 Y4.514 E78.8586
G1 X-15.899 Y4.352 E78.86896
G1 X-15.948 Y4.164 E78.88083
G1 X-16.175 Y3.145 E78.94464
G1 X-16.222 Y2.869 E78.96175
G1 X-2.868 Y16.223 E80.11594
G1 X-2.211 Y16.324 E80.15656
G1 X-1.704 Y16.385 E80.18777
G1 X-1.405 Y16.413 E80.20613
G1 X-16.416 Y1.402 E81.50353
G1 X-16.439 Y1.195 E81.51626
G1 X-16.484 Y0.145 E81.58049
G1 X-16.484 Y0.061 E81.58562
G1 X-0.065 Y16.481 E83.00477
G1 X0.048 Y16.485 E83.01168
G1 X0.946 Y16.455 E83.06659
G1 X1.117 Y16.444 E83.07706
G1 X1.165 Y16.438 E83.08002
G1 X-16.438 Y-1.164 E84.60141
G1 X-16.394 Y-1.621 E84.62947
G1 X-16.331 Y-2.155 E84.66233
G1 X-16.308 Y-2.307 E84.67173
G1 X2.307 Y16.308 E86.28063
G1 X2.585 Y16.27 E86.29777
G1 X3.277 Y16.152 E86.34068
G1 X3.396 Y16.124 E86.34815
G1 X-16.125 Y-3.397 E88.03536
G1 X-15.917 Y-4.282 E88.09092
G1 X-15.875 Y-4.42 E88.09973
G1 X4.422 Y15.878 E89.85405
G1 X5.18 Y15.648 E89.90246
G1 X5.388 Y15.57 E89.91604
G1 X-15.57 Y-5.388 E91.72745
G1 X-15.406 Y-5.83 E91.75626
G1 X-15.216 Y-6.307 E91.78764
G1 X6.307 Y15.216 E93.64788
G1 X6.676 Y15.061 E93.67234
G1 X7.126 Y14.859 E93.70249
G1 X7.189 Y14.826 E93.70683
G1 X-14.827 Y-7.19 E95.60968
G1 X-14.778 Y-7.298 E95.61693
G1 X-14.393 Y-8.029 E95.66743
G1 X8.031 Y14.395 E97.60554
G1 X8.094 Y14.362 E97.60989
G1 X8.826 Y13.917 E97.66224
G1 X-13.913 Y-8.821 E99.62754
G1 X-13.714 Y-9.137 E99.65036
G1 X-13.4 Y-9.582 E99.68365
G1 X9.579 Y13.397 E101.66973
G1 X9.896 Y13.171 E101.69352
G1 X10.308 Y12.853 E101.72533
G1 X-12.849 Y-10.303 E103.72676
G1 X-12.435 Y-10.818 E103.76714
G1 X-12.321 Y-10.949 E103.77775
G1 X-12.273 Y-11.001 E103.78208
G1 X10.996 Y12.269 E105.79327
G1 X11.552 Y11.764 E105.83917
G1 X11.658 Y11.658 E105.84833
G1 X-11.658 Y-11.658 E107.86354
G1 X-11.595 Y-11.72 E107.86895
G1 X-10.998 Y-12.271 E107.9186
G1 X12.276 Y11.003 E109.93018
G1 X12.286 Y10.991 E109.93113
G1 X12.387 Y10.875 E109.94053
G1 X12.85 Y10.305 E109.98541
G1 X-10.306 Y-12.852 E111.98684
G1 X-10.011 Y-13.085 E112.00981
G1 X-9.579 Y-13.397 E112.04238
G1 X13.401 Y9.583 E114.02855
G1 X13.691 Y9.176 E114.05909
G1 X13.914 Y8.823 E114.08461
G1 X-8.826 Y-13.917 E116.05004
G1 X-8.335 Y-14.225 E116.08546
G1 X-8.189 Y-14.309 E116.09575
G1 X-8.029 Y-14.393 E116.1068
G1 X14.395 Y8.031 E118.04491
G1 X14.764 Y7.331 E118.09327
G1 X14.83 Y7.194 E118.10257
G1 X-7.19 Y-14.827 E120.00581
G1 X-6.742 Y-15.03 E120.03587
G1 X-6.339 Y-15.204 E120.06269
G1 X-6.307 Y-15.216 E120.06478
G1 X15.218 Y6.308 E121.92515
G0 F7200 X15.219 Y6.305
G1 F1237.5 X15.41 Y5.825 E121.95673
G1 X15.569 Y5.387 E121.9852
G1 X-5.39 Y-15.573 E123.79674
G1 X-5.342 Y-15.592 E123.7999
G1 X-5.163 Y-15.653 E123.81145
G1 X-4.421 Y-15.876 E123.8588
G1 X15.878 Y4.422 E125.61321
G1 X15.911 Y4.313 E125.62017
G1 X15.962 Y4.118 E125.63249
G1 X16.123 Y3.395 E125.67776
G1 X-3.393 Y-16.121 E127.36453
G1 X-3.122 Y-16.181 E127.3815
G1 X-2.601 Y-16.268 E127.41378
G1 X-2.31 Y-16.31 E127.43175
G1 X16.308 Y2.307 E129.04087
G1 X16.343 Y2.075 E129.0552
G1 X16.44 Y1.166 E129.11107
G1 X-1.167 Y-16.44 E130.63281
G1 X-1.138 Y-16.444 E130.6346
G1 X-0.086 Y-16.485 E130.69894
G1 X0.066 Y-16.479 E130.70824
G1 X16.486 Y-0.06 E132.12738
G1 X16.486 Y-0.072 E132.12812
G1 X16.455 Y-.958 E132.1823
G1 X16.442 Y-1.158 E132.19455
G1 X16.416 Y-1.402 E132.20954
G1 X1.407 Y-16.411 E133.50678
G1 X1.689 Y-16.387 E133.52407
G1 X2.138 Y-16.334 E133.5517
G1 X2.87 Y-16.221 E133.59697
G1 X16.228 Y-2.863 E134.75151
G1 X16.211 Y-2.969 E134.75807
G1 X16.165 Y-3.213 E134.77324
G1 X15.964 Y-4.117 E134.82984
G1 X15.921 Y-4.282 E134.84026
G1 X15.852 Y-4.512 E134.85494
G1 X4.513 Y-15.851 E135.83497
G1 X5.365 Y-15.583 E135.88956
G1 X5.941 Y-15.366 E135.92717
G1 X6.316 Y-15.216 E135.95186
G1 X6.505 Y-15.132 E135.9645
G1 X15.138 Y-6.499 E136.71065
G1 X15.054 Y-6.696 E136.72374
G1 X14.848 Y-7.155 E136.75449
G1 X14.36 Y-8.099 E136.81943
G1 X14.275 Y-8.246 E136.82981
G1 X13.801 Y-9.014 E136.88497
G1 X13.7 Y-9.166 E136.89612
G1 X13.582 Y-9.327 E136.90832
G1 X9.332 Y-13.577 E137.27565
G1 X9.569 Y-13.411 E137.29333
G1 X9.946 Y-13.133 E137.32196
G1 X10.762 Y-12.484 E137.38568
G1 X10.929 Y-12.341 E137.39912
G1 X11.576 Y-11.741 E137.45305
G1 X12.311 Y-10.96 E137.51859
G1 X12.811 Y-10.359 E137.56637
G1 X13.079 Y-10.017 E137.59292
G1 F3000 E133.59292
G0 F7200 X2.548 Y-16.45
;TIME_ELAPSED:83.373966
;LAYER:-5
G0 X2.548 Y-16.45 Z0.71
;TYPE:SUPPORT-INTERFACE
G1 F3000 E137.59292
G1 F1650 X-2.573 Y-16.45 E137.69725
G1 X-2.135 Y-16.512 E137.70626
G1 X-1.161 Y-16.618 E137.72622
G1 X-1.005 Y-16.629 E137.72941
G1 X-0.09 Y-16.661 E137.74806
G1 X0.089 Y-16.66 E137.7517
G1 X1.161 Y-16.614 E137.77356
G1 X1.703 Y-16.563 E137.78465
G1 X2.225 Y-16.5 E137.79536
G0 F7200 X-2.573 Y-16.45
G1 F1650 X-2.63 Y-16.442 E137.79654
G1 X-3.151 Y-16.354 E137.8073
G1 X-4.185 Y-16.125 E137.82888
G1 X-4.278 Y-16.1 E137.83084
G1 X4.289 Y-16.1 E138.00536
G1 X4.402 Y-16.07 E138.00774
G1 X5.419 Y-15.75 E138.02946
G1 X-5.422 Y-15.75 E138.25032
G1 X-6.263 Y-15.426 E138.26868
G1 X-6.324 Y-15.4 E138.27003
G1 X6.332 Y-15.4 E138.52785
G1 X6.386 Y-15.378 E138.52904
G1 X7.122 Y-15.05 E138.54546
G1 X-7.125 Y-15.05 E138.83569
G1 X-7.322 Y-14.961 E138.8401
G1 X-7.82 Y-14.7 E138.85155
G1 X7.827 Y-14.7 E139.17031
G1 X8.374 Y-14.405 E139.18297
G1 X8.461 Y-14.35 E139.18507
G1 X-8.466 Y-14.35 E139.5299
G1 X-9.026 Y-14 E139.54335
G1 X9.014 Y-14 E139.91086
G1 X9.29 Y-13.825 E139.91752
G1 X9.538 Y-13.65 E139.9237
G1 X-9.532 Y-13.65 E140.31219
G1 X-10.015 Y-13.3 E140.32434
G1 X10.016 Y-13.3 E140.73241
G1 X10.047 Y-13.277 E140.7332
G1 X10.459 Y-12.95 E140.74391
G1 X-10.468 Y-12.95 E141.17024
G1 X-10.495 Y-12.929 E141.17093
G1 X-10.893 Y-12.6 E141.18145
G1 X10.898 Y-12.6 E141.62537
G1 X11.043 Y-12.475 E141.62927
G1 X11.286 Y-12.25 E141.63602
G1 X-11.278 Y-12.25 E142.09569
G1 X-11.658 Y-11.9 E142.10622
G1 X11.663 Y-11.9 E142.58131
G1 X11.691 Y-11.874 E142.58209
G1 X11.811 Y-11.755 E142.58553
G1 X12.001 Y-11.55 E142.59122
G1 X-12 Y-11.55 E143.08017
G1 X-12.327 Y-11.2 E143.08993
G1 X12.325 Y-11.2 E143.59213
G1 X12.538 Y-10.969 E143.59853
G1 X12.636 Y-10.85 E143.60167
G1 X-12.633 Y-10.85 E144.11645
G1 X-12.915 Y-10.5 E144.12561
G1 X12.922 Y-10.5 E144.65195
G1 X12.988 Y-10.419 E144.65408
G1 X13.197 Y-10.15 E144.66102
G1 X-13.195 Y-10.15 E145.19867
G1 X-13.458 Y-9.8 E145.20759
G1 X13.457 Y-9.8 E145.7559
G1 X13.712 Y-9.45 E145.76472
G1 X-13.708 Y-9.45 E146.32332
G1 X-13.858 Y-9.239 E146.32859
G1 X-13.945 Y-9.1 E146.33193
G1 X13.955 Y-9.1 E146.90031
G1 X14.172 Y-8.75 E146.9087
G1 X-14.164 Y-8.75 E147.48595
G1 X-14.384 Y-8.4 E147.49437
G1 X14.389 Y-8.4 E148.08053
G1 X14.423 Y-8.344 E148.08187
G1 X14.513 Y-8.186 E148.08557
G1 X14.584 Y-8.049 E148.08872
G1 X-14.581 Y-8.05 E148.68286
G1 X-14.765 Y-7.7 E148.69092
G1 X14.765 Y-7.699 E149.2925
G1 X14.946 Y-7.349 E149.30052
G1 X-14.948 Y-7.35 E149.90952
G1 X-15.009 Y-7.224 E149.91237
G1 X-15.106 Y-7 E149.91734
G1 X15.11 Y-6.999 E150.5329
G1 X15.215 Y-6.764 E150.53814
G1 X15.264 Y-6.649 E150.54069
G1 X-15.258 Y-6.65 E151.16248
G1 X-15.41 Y-6.3 E151.17025
G1 X15.413 Y-6.299 E151.79817
G1 X15.445 Y-6.222 E151.79987
G1 X15.548 Y-5.949 E151.80581
G1 X-15.544 Y-5.95 E152.43922
G1 X-15.676 Y-5.6 E152.44684
G1 X15.679 Y-5.599 E153.0856
G1 X15.81 Y-5.249 E153.09321
G1 X-15.802 Y-5.25 E153.7372
G1 X-15.91 Y-4.9 E153.74466
G1 X15.92 Y-4.899 E154.3931
G1 X16.025 Y-4.549 E154.40054
G1 X-16.018 Y-4.55 E155.05332
G1 X-16.09 Y-4.32 E155.05823
G1 X-16.121 Y-4.2 E155.06075
G1 X16.125 Y-4.199 E155.71766
G1 X16.136 Y-4.154 E155.71861
G1 X16.205 Y-3.849 E155.72498
G1 X-16.202 Y-3.85 E156.38517
G1 X-16.281 Y-3.5 E156.39248
G1 X16.283 Y-3.499 E157.05587
G1 X16.339 Y-3.245 E157.06116
G1 X16.356 Y-3.149 E157.06315
G1 X-16.356 Y-3.15 E157.72955
G1 X-16.37 Y-3.077 E157.73107
G1 X-16.411 Y-2.8 E157.73677
G1 X16.415 Y-2.799 E158.4055
G1 X16.456 Y-2.55 E158.41064
G1 X16.47 Y-2.449 E158.41272
G1 X-16.463 Y-2.45 E159.08362
G1 X-16.514 Y-2.1 E159.09083
G1 X16.518 Y-2.099 E159.76375
G1 X16.522 Y-2.069 E159.76437
G1 X16.556 Y-1.749 E159.77092
G1 X-16.553 Y-1.75 E160.44541
G1 X-16.588 Y-1.4 E160.45258
G1 X16.593 Y-1.399 E161.12854
G1 X16.617 Y-1.171 E161.13321
G1 X16.626 Y-1.049 E161.1357
G1 X-16.622 Y-1.05 E161.81302
G1 X-16.635 Y-.7 E161.82016
G1 X16.641 Y-.699 E162.49805
G1 X16.653 Y-.349 E162.50518
G1 X-16.648 Y-.35 E163.18359
