;FLAVOR:Marlin
;TIME:8216
;Filament used: 4.46316m
;Layer height: 0.14
;Generated with Cura_SteamEngine 4.0.0
M140 S65
M105
M190 S65
M104 S200
M105
M109 S200
M82 ;absolute extrusion mode
; Calibration part start here
M666 X0 Y0 Z0 ; Add your endstop values here after calibration
M665 L120.80 R61.70 ; Sets default Delta Radius (change when calibrating)
M301 P45.00 I0.07 D1000 ; Hot end settings
M304 P100 I0 D0 ; Bed heater settings
M500 ; Save settings

G90 ; switch to absolute positioning - this line was added in case Cura doesn't include it by default
M82 ; set extruder to absolute mode - this line was added in case Cura doesn't include it by default
G28 ; start from home position
G29 C-0.8 Z0.3 ; probe the bed at 3 points with a 0.3mm overall vertical offset and an additional -0.8mm center offset
G1 Z15.0 F4800  ; move the nozzle up 15mm
G92 E0 ; reset extrusion distance
G1 F200 E3 ; extrude 3mm of feed stock
G92 E0 ; reset extrusion distance again
G0 Z0.01;
G92 Z0;
G1 F4800
G92 E0
G1 F3000 E-4
;LAYER_COUNT:235
;LAYER:0
M107
G0 F3600 X-1.164 Y-11.247 Z0.3
;TYPE:SKIRT
G1 F3000 E0
G1 F1650 X-.295 Y-11.306 E0.05703
G1 X0.511 Y-11.321 E0.10982
G1 X1.268 Y-11.26 E0.15955
G1 X1.62 Y-11.854 E0.20476
G1 X2.097 Y-12.505 E0.25761
G1 X2.637 Y-13.104 E0.31042
G1 X3.233 Y-13.648 E0.36326
G1 X3.88 Y-14.13 E0.41609
G1 X4.571 Y-14.545 E0.46887
G1 X5.3 Y-14.89 E0.52168
G1 X6.06 Y-15.161 E0.57451
G1 X6.843 Y-15.355 E0.62734
G1 X7.641 Y-15.471 E0.68014
G1 X8.849 Y-15.496 E0.75926
G1 X9.406 Y-15.466 E0.79578
G1 X10.208 Y-15.383 E0.84858
G1 X10.549 Y-15.313 E0.87137
G1 X34.912 Y-15.313 E2.46668
G1 X35.718 Y-15.273 E2.51953
G1 X36.515 Y-15.153 E2.5723
G1 X37.297 Y-14.956 E2.62511
G1 X38.191 Y-14.623 E2.68758
G1 X38.325 Y-14.564 E2.69716
G1 X39.047 Y-14.203 E2.75002
G1 X39.728 Y-13.772 E2.8028
G1 X40.364 Y-13.276 E2.85561
G1 X40.948 Y-12.719 E2.90845
G1 X41.242 Y-12.392 E2.93725
G1 X42.331 Y-11.113 E3.04724
G1 X42.823 Y-10.473 E3.1001
G1 X43.189 Y-9.896 E3.14485
G1 X43.895 Y-8.669 E3.23754
G1 X44.262 Y-7.95 E3.2904
G1 X44.512 Y-7.328 E3.3343
G1 X45.079 Y-5.728 E3.44545
G1 X45.31 Y-4.956 E3.49822
G1 X45.45 Y-4.259 E3.54477
G1 X45.667 Y-2.862 E3.63734
G1 X45.751 Y-2.06 E3.69014
G1 X45.763 Y-1.613 E3.71942
G1 X45.763 Y6.955 E4.28047
G1 X45.723 Y7.761 E4.33331
G1 X45.603 Y8.558 E4.38608
G1 X45.406 Y9.34 E4.43889
G1 X45.131 Y10.099 E4.49175
G1 X44.783 Y10.826 E4.54453
G1 X44.365 Y11.516 E4.59735
G1 X43.88 Y12.161 E4.6502
G1 X43.379 Y12.709 E4.69882
G1 X42.704 Y13.384 E4.76133
G1 X42.107 Y13.926 E4.81412
G1 X41.458 Y14.405 E4.86694
G1 X40.765 Y14.818 E4.91977
G1 X40.035 Y15.161 E4.97258
G1 X39.274 Y15.429 E5.02541
G1 X38.49 Y15.621 E5.07827
G1 X37.692 Y15.734 E5.13104
G1 X36.95 Y15.768 E5.17968
G1 X33.081 Y15.768 E5.43303
G1 X32.275 Y15.728 E5.48587
G1 X31.478 Y15.608 E5.53865
G1 X30.696 Y15.411 E5.59145
G1 X30.426 Y15.313 E5.61026
G1 X6.422 Y15.313 E7.18206
G1 X5.616 Y15.273 E7.23491
G1 X4.819 Y15.153 E7.28768
G1 X4.037 Y14.956 E7.34049
G1 X3.278 Y14.681 E7.39335
G1 X2.551 Y14.333 E7.44613
G1 X1.861 Y13.915 E7.49895
G1 X1.216 Y13.43 E7.5518
G1 X0.622 Y12.884 E7.60463
G1 X0.086 Y12.282 E7.65741
G1 X-0.023 Y12.132 E7.66955
G1 X-0.027 Y12.137 E7.66997
G1 X-.55 Y12.751 E7.72278
G1 X-1.131 Y13.31 E7.77558
G1 X-1.765 Y13.809 E7.82841
G1 X-2.445 Y14.243 E7.88123
G1 X-3.165 Y14.608 E7.93409
G1 X-3.917 Y14.899 E7.98689
G1 X-4.694 Y15.115 E8.0397
G1 X-5.489 Y15.253 E8.09253
G1 X-6.478 Y15.313 E8.15741
G1 X-22.703 Y15.313 E9.21984
G1 X-23.509 Y15.273 E9.27268
G1 X-24.306 Y15.153 E9.32546
G1 X-25.088 Y14.956 E9.37826
G1 X-25.847 Y14.681 E9.43113
G1 X-26.574 Y14.333 E9.4839
G1 X-27.264 Y13.915 E9.53673
G1 X-27.909 Y13.43 E9.58957
G1 X-28.191 Y13.171 E9.61464
G1 X-28.359 Y13.421 E9.63437
G1 X-28.874 Y14.041 E9.68714
G1 X-29.448 Y14.608 E9.73998
G1 X-30.075 Y15.115 E9.79278
G1 X-30.75 Y15.557 E9.84561
G1 X-31.465 Y15.931 E9.89845
G1 X-32.213 Y16.232 E9.95124
G1 X-32.988 Y16.457 E10.00409
G1 X-33.781 Y16.605 E10.05691
G1 X-34.871 Y16.678 E10.12844
G1 X-37.946 Y16.678 E10.3298
G1 X-38.752 Y16.638 E10.38264
G1 X-39.549 Y16.518 E10.43542
G1 X-40.331 Y16.321 E10.48822
G1 X-41.09 Y16.046 E10.54108
G1 X-41.817 Y15.698 E10.59386
G1 X-42.507 Y15.28 E10.64669
G1 X-43.152 Y14.795 E10.69953
G1 X-43.746 Y14.249 E10.75236
G1 X-44.282 Y13.647 E10.80514
G1 X-44.757 Y12.994 E10.85802
G1 X-45.164 Y12.298 E10.91081
G1 X-45.501 Y11.565 E10.96364
G1 X-45.763 Y10.803 E11.0164
G1 X-45.949 Y10.018 E11.06923
G1 X-46.056 Y9.218 E11.12208
G1 X-46.083 Y8.421 E11.1743
G1 X-46.055 Y6.51 E11.29944
G1 X-46.003 Y5.705 E11.35227
G1 X-45.872 Y4.909 E11.40509
G1 X-45.663 Y4.13 E11.4579
G1 X-45.377 Y3.376 E11.51071
G1 X-45.019 Y2.653 E11.56354
G1 X-44.59 Y1.97 E11.61635
G1 X-44.096 Y1.332 E11.66919
G1 X-43.541 Y0.746 E11.72204
G1 X-42.931 Y0.219 E11.77482
G1 X-42.272 Y-.246 E11.82764
G1 X-41.57 Y-.643 E11.88044
G1 X-41.038 Y-.878 E11.91853
G1 X-41.055 Y-1.369 E11.9507
G1 X-41.003 Y-2.174 E12.00352
G1 X-40.871 Y-2.97 E12.05635
G1 X-40.71 Y-3.593 E12.09849
G1 X-40.441 Y-4.486 E12.15956
G1 X-40.17 Y-5.246 E12.21239
G1 X-39.826 Y-5.975 E12.26518
G1 X-39.411 Y-6.667 E12.31801
G1 X-39.123 Y-7.07 E12.35045
G1 X-38.781 Y-7.519 E12.38741
G1 X-38.261 Y-8.136 E12.44024
G1 X-37.682 Y-8.698 E12.49308
G1 X-37.051 Y-9.2 E12.54588
G1 X-36.663 Y-9.462 E12.57654
G1 X-35.866 Y-9.967 E12.63832
G1 X-35.164 Y-10.365 E12.69116
G1 X-34.426 Y-10.691 E12.74399
G1 X-33.659 Y-10.942 E12.79683
G1 X-33.176 Y-11.059 E12.82938
G1 X-32.588 Y-11.182 E12.86871
G1 X-31.792 Y-11.307 E12.92147
G1 X-30.744 Y-11.352 E12.99016
G1 X-28.324 Y-11.299 E13.14866
G1 X-28.144 Y-11.286 E13.16048
G1 X-27.845 Y-11.774 E13.19796
G1 X-27.357 Y-12.416 E13.25076
G1 X-26.807 Y-13.006 E13.30358
G1 X-26.202 Y-13.54 E13.35642
G1 X-25.547 Y-14.01 E13.40921
G1 X-24.849 Y-14.414 E13.46202
G1 X-24.114 Y-14.747 E13.51485
G1 X-23.35 Y-15.005 E13.56766
G1 X-22.564 Y-15.186 E13.62047
G1 X-21.764 Y-15.288 E13.67328
G1 X-21.131 Y-15.313 E13.71476
G1 X-10.811 Y-15.313 E14.39053
G1 X-10.628 Y-15.358 E14.40287
G1 X-9.83 Y-15.473 E14.45566
G1 X-9.074 Y-15.508 E14.50522
G1 X-8.421 Y-15.508 E14.54797
G1 X-7.615 Y-15.468 E14.60082
G1 X-6.818 Y-15.348 E14.65359
G1 X-6.036 Y-15.151 E14.7064
G1 X-5.277 Y-14.876 E14.75926
G1 X-4.55 Y-14.528 E14.81204
G1 X-3.86 Y-14.11 E14.86486
G1 X-3.215 Y-13.625 E14.91771
G1 X-2.621 Y-13.079 E14.97054
G1 X-2.085 Y-12.477 E15.02332
G1 X-1.61 Y-11.824 E15.07619
G1 X-1.419 Y-11.498 E15.10093
G0 F1485 X-1.267 Y-11.237
G0 X-1.164 Y-11.247
G0 F3600 X-1.129 Y-10.724
G1 F3000 E15.12745
G1 F1650 X-.26 Y-10.783 E15.18449
G1 X0.52 Y-10.795 E15.23557
G1 X1.298 Y-10.728 E15.2867
G1 X1.563 Y-10.677 E15.30437
G1 X1.81 Y-11.162 E15.34001
G1 X2.233 Y-11.818 E15.39112
G1 X2.72 Y-12.427 E15.44218
G1 X3.268 Y-12.983 E15.4933
G1 X3.869 Y-13.48 E15.54437
G1 X4.518 Y-13.912 E15.59542
G1 X5.208 Y-14.276 E15.6465
G1 X5.932 Y-14.568 E15.69762
G1 X6.681 Y-14.784 E15.74867
G1 X7.449 Y-14.922 E15.79976
G1 X8.227 Y-14.981 E15.85085
G1 X8.82 Y-14.972 E15.88969
G1 X9.377 Y-14.942 E15.92621
G1 X10.153 Y-14.86 E15.97731
G1 X10.495 Y-14.788 E16.00019
G1 X34.912 Y-14.788 E17.59904
G1 X35.691 Y-14.748 E17.65012
G1 X36.462 Y-14.629 E17.7012
G1 X37.217 Y-14.431 E17.75231
G1 X37.98 Y-14.143 E17.80571
G1 X38.114 Y-14.084 E17.8153
G1 X38.811 Y-13.733 E17.8664
G1 X39.468 Y-13.313 E17.91746
G1 X40.079 Y-12.828 E17.96854
G1 X40.843 Y-12.051 E18.0399
G1 X41.932 Y-10.772 E18.14989
G1 X42.406 Y-10.153 E18.20094
G1 X42.734 Y-9.634 E18.24115
G1 X43.44 Y-8.407 E18.33384
G1 X43.794 Y-7.712 E18.38491
G1 X44.017 Y-7.153 E18.42432
G1 X44.584 Y-5.553 E18.53548
G1 X44.806 Y-4.805 E18.58657
G1 X44.931 Y-4.179 E18.62837
G1 X45.148 Y-2.782 E18.72094
G1 X45.228 Y-2.006 E18.77202
G1 X45.238 Y-1.613 E18.79777
G1 X45.238 Y6.955 E19.35881
G1 X45.198 Y7.734 E19.40988
G1 X45.079 Y8.505 E19.46097
G1 X44.881 Y9.26 E19.51208
G1 X44.607 Y9.99 E19.56314
G1 X44.259 Y10.689 E19.61426
G1 X43.843 Y11.348 E19.6653
G1 X43.36 Y11.961 E19.7164
G1 X43.008 Y12.338 E19.75017
G1 X42.333 Y13.013 E19.81268
G1 X41.754 Y13.536 E19.86377
G1 X41.124 Y13.997 E19.91489
G1 X40.451 Y14.39 E19.96592
G1 X39.741 Y14.713 E20.017
G1 X39.001 Y14.961 E20.0681
G1 X38.24 Y15.133 E20.11919
G1 X37.465 Y15.226 E20.1703
G1 X36.95 Y15.243 E20.20404
G1 X33.081 Y15.243 E20.45739
G1 X32.302 Y15.203 E20.50846
G1 X31.531 Y15.084 E20.55955
G1 X30.776 Y14.886 E20.61066
G1 X30.515 Y14.788 E20.62891
G1 X6.422 Y14.788 E22.20654
G1 X5.643 Y14.748 E22.25762
G1 X4.872 Y14.629 E22.30871
G1 X4.117 Y14.431 E22.35981
G1 X3.387 Y14.157 E22.41087
G1 X2.688 Y13.809 E22.462
G1 X2.029 Y13.393 E22.51303
G1 X1.416 Y12.91 E22.56414
G1 X0.855 Y12.368 E22.61521
G1 X0.353 Y11.771 E22.66629
G1 X-0.031 Y11.206 E22.71102
G1 X-.21 Y11.496 E22.73334
G1 X-.685 Y12.115 E22.78443
G1 X-1.221 Y12.682 E22.83552
G1 X-1.812 Y13.191 E22.88659
G1 X-2.453 Y13.637 E22.93773
G1 X-3.135 Y14.015 E22.98879
G1 X-3.853 Y14.321 E23.03989
G1 X-4.598 Y14.552 E23.09097
G1 X-5.363 Y14.706 E23.14207
G1 X-6.478 Y14.788 E23.21527
G1 X-22.703 Y14.788 E24.2777
G1 X-23.482 Y14.748 E24.32878
G1 X-24.253 Y14.629 E24.37986
G1 X-25.008 Y14.431 E24.43097
G1 X-25.738 Y14.157 E24.48203
G1 X-26.437 Y13.809 E24.53316
G1 X-27.096 Y13.393 E24.58419
G1 X-27.709 Y12.91 E24.63529
G1 X-28.27 Y12.368 E24.68637
G1 X-28.287 Y12.348 E24.68809
G1 X-28.593 Y12.846 E24.72636
G1 X-29.066 Y13.466 E24.77743
G1 X-29.601 Y14.034 E24.82852
G1 X-30.191 Y14.545 E24.87963
G1 X-30.83 Y14.992 E24.93069
G1 X-31.512 Y15.372 E24.98182
G1 X-32.228 Y15.68 E25.03285
G1 X-32.973 Y15.913 E25.08397
G1 X-33.737 Y16.068 E25.13501
G1 X-34.871 Y16.153 E25.20948
G1 X-37.946 Y16.153 E25.41083
G1 X-38.725 Y16.113 E25.46191
G1 X-39.496 Y15.994 E25.51299
G1 X-40.251 Y15.796 E25.5641
G1 X-40.981 Y15.522 E25.61516
G1 X-41.68 Y15.174 E25.66629
G1 X-42.339 Y14.758 E25.71732
G1 X-42.952 Y14.275 E25.76842
G1 X-43.513 Y13.733 E25.8195
G1 X-44.015 Y13.136 E25.87058
G1 X-44.454 Y12.491 E25.92167
G1 X-44.824 Y11.804 E25.97276
G1 X-45.122 Y11.083 E26.02385
G1 X-45.344 Y10.335 E26.07494
G1 X-45.489 Y9.568 E26.12605
G1 X-45.558 Y8.428 E26.20084
G1 X-45.53 Y6.517 E26.32598
G1 X-45.479 Y5.739 E26.37704
G1 X-45.348 Y4.97 E26.42812
G1 X-45.139 Y4.218 E26.47922
G1 X-44.855 Y3.492 E26.53027
G1 X-44.497 Y2.798 E26.58141
G1 X-44.071 Y2.145 E26.63246
G1 X-43.579 Y1.539 E26.68357
G1 X-43.029 Y0.986 E26.73464
G1 X-42.424 Y0.493 E26.78575
G1 X-41.773 Y0.064 E26.8368
G1 X-41.081 Y-.296 E26.88788
G1 X-40.497 Y-.527 E26.929
G1 X-40.504 Y-.607 E26.93426
G1 X-40.53 Y-1.387 E26.98536
G1 X-40.475 Y-2.165 E27.03643
G1 X-40.342 Y-2.934 E27.08754
G1 X-40.207 Y-3.442 E27.12195
G1 X-39.938 Y-4.335 E27.18302
G1 X-39.675 Y-5.069 E27.23408
G1 X-39.339 Y-5.773 E27.28516
G1 X-38.705 Y-6.752 E27.36153
G1 X-38.363 Y-7.201 E27.39849
G1 X-37.859 Y-7.797 E27.4496
G1 X-37.297 Y-8.337 E27.50064
G1 X-36.382 Y-9.019 E27.57536
G1 X-35.585 Y-9.524 E27.63715
G1 X-34.905 Y-9.907 E27.68825
G1 X-34.19 Y-10.219 E27.73933
G1 X-33.069 Y-10.545 E27.81578
G1 X-32.481 Y-10.668 E27.85511
G1 X-31.71 Y-10.788 E27.90621
G1 X-30.755 Y-10.827 E27.96879
G1 X-28.335 Y-10.774 E28.1273
G1 X-27.847 Y-10.738 E28.15934
G1 X-27.693 Y-11.034 E28.18119
G1 X-27.264 Y-11.686 E28.23229
G1 X-26.77 Y-12.29 E28.28339
G1 X-26.217 Y-12.84 E28.33446
G1 X-25.61 Y-13.331 E28.38558
G1 X-24.957 Y-13.757 E28.43663
G1 X-24.263 Y-14.114 E28.48774
G1 X-23.537 Y-14.398 E28.53878
G1 X-22.785 Y-14.606 E28.58988
G1 X-22.016 Y-14.736 E28.64094
G1 X-21.131 Y-14.788 E28.69899
G1 X-10.743 Y-14.788 E29.37921
G1 X-10.427 Y-14.862 E29.40046
G1 X-9.653 Y-14.961 E29.45156
G1 X-9.074 Y-14.983 E29.4895
G1 X-8.421 Y-14.983 E29.53226
G1 X-7.642 Y-14.943 E29.58333
G1 X-6.871 Y-14.824 E29.63442
G1 X-6.116 Y-14.626 E29.68553
G1 X-5.386 Y-14.352 E29.73658
G1 X-4.687 Y-14.004 E29.78771
G1 X-4.028 Y-13.588 E29.83874
G1 X-3.415 Y-13.105 E29.88985
G1 X-2.854 Y-12.563 E29.94093
G1 X-2.352 Y-11.966 E29.992
G1 X-1.913 Y-11.321 E30.04309
G1 X-1.558 Y-10.662 E30.09211
G1 X-1.53 Y-10.667 E30.09397
G0 F1485 X-1.129 Y-10.724
G0 F3600 X-1.093 Y-10.2
G1 F3000 E30.12049
G1 F1650 X-.224 Y-10.259 E30.17752
G1 X0.529 Y-10.27 E30.22683
G1 X1.278 Y-10.201 E30.27609
G1 X1.873 Y-10.082 E30.31582
G1 X2.048 Y-10.493 E30.34507
G1 X2.415 Y-11.15 E30.39435
G1 X2.85 Y-11.764 E30.44362
G1 X3.347 Y-12.329 E30.4929
G1 X3.902 Y-12.839 E30.54225
G1 X4.507 Y-13.286 E30.59151
G1 X5.156 Y-13.667 E30.64079
G1 X5.842 Y-13.976 E30.69005
G1 X6.558 Y-14.211 E30.7394
G1 X7.294 Y-14.369 E30.78869
G1 X8.042 Y-14.448 E30.83794
G1 X8.792 Y-14.448 E30.88705
G1 X9.349 Y-14.418 E30.92358
G1 X10.098 Y-14.337 E30.97291
G1 X10.44 Y-14.263 E30.99582
G1 X34.912 Y-14.263 E32.59827
G1 X35.664 Y-14.223 E32.64758
G1 X36.407 Y-14.104 E32.69685
G1 X37.133 Y-13.906 E32.74613
G1 X37.768 Y-13.662 E32.79067
G1 X37.902 Y-13.603 E32.80026
G1 X38.574 Y-13.264 E32.84955
G1 X39.206 Y-12.855 E32.89884
G1 X39.791 Y-12.381 E32.94814
G1 X40.443 Y-11.711 E33.00936
G1 X41.532 Y-10.432 E33.11935
G1 X41.989 Y-9.834 E33.16864
G1 X42.279 Y-9.372 E33.20436
G1 X42.985 Y-8.145 E33.29705
G1 X43.325 Y-7.473 E33.34637
G1 X43.522 Y-6.978 E33.38125
G1 X44.089 Y-5.378 E33.49241
G1 X44.302 Y-4.656 E33.5417
G1 X44.412 Y-4.098 E33.57894
G1 X44.629 Y-2.701 E33.67151
G1 X44.713 Y-1.613 E33.74297
G1 X44.713 Y6.955 E34.30401
G1 X44.673 Y7.707 E34.35332
G1 X44.554 Y8.45 E34.40259
G1 X44.356 Y9.176 E34.45187
G1 X44.082 Y9.878 E34.50121
G1 X43.736 Y10.546 E34.55047
G1 X43.321 Y11.174 E34.59976
G1 X42.637 Y11.967 E34.66834
G1 X41.962 Y12.642 E34.73084
G1 X41.402 Y13.145 E34.78013
G1 X40.792 Y13.586 E34.82942
G1 X40.139 Y13.96 E34.8787
G1 X39.45 Y14.263 E34.92798
G1 X38.732 Y14.49 E34.97729
G1 X37.994 Y14.641 E35.02662
G1 X36.95 Y14.718 E35.09517
G1 X33.081 Y14.718 E35.34851
G1 X32.329 Y14.678 E35.39782
G1 X31.586 Y14.559 E35.4471
G1 X30.86 Y14.361 E35.49637
G1 X30.609 Y14.263 E35.51402
G1 X6.422 Y14.263 E37.0978
G1 X5.67 Y14.223 E37.14711
G1 X4.927 Y14.104 E37.19639
G1 X4.201 Y13.906 E37.24566
G1 X3.499 Y13.632 E37.29501
G1 X2.831 Y13.286 E37.34427
G1 X2.203 Y12.871 E37.39356
G1 X1.623 Y12.391 E37.44285
G1 X1.097 Y11.853 E37.49212
G1 X0.631 Y11.262 E37.5414
G1 X0.23 Y10.625 E37.59069
G1 X-0.027 Y10.099 E37.62903
G1 X-0.075 Y10.215 E37.63725
G1 X-.434 Y10.877 E37.68656
G1 X-.86 Y11.497 E37.73582
G1 X-1.35 Y12.069 E37.78514
G1 X-1.898 Y12.585 E37.83442
G1 X-2.498 Y13.04 E37.88373
G1 X-3.142 Y13.429 E37.933
G1 X-3.824 Y13.748 E37.9823
G1 X-4.536 Y13.992 E38.03158
G1 X-5.27 Y14.159 E38.08087
G1 X-6.018 Y14.248 E38.1302
G1 X-6.478 Y14.263 E38.16034
G1 X-22.703 Y14.263 E39.22276
G1 X-23.455 Y14.223 E39.27208
G1 X-24.198 Y14.104 E39.32135
G1 X-24.924 Y13.906 E39.37062
G1 X-25.626 Y13.632 E39.41997
G1 X-26.294 Y13.286 E39.46923
G1 X-26.922 Y12.871 E39.51852
G1 X-27.502 Y12.391 E39.56782
G1 X-28.028 Y11.853 E39.61709
G1 X-28.392 Y11.391 E39.6556
G1 X-28.495 Y11.636 E39.673
G1 X-28.859 Y12.295 E39.7223
G1 X-29.291 Y12.911 E39.77157
G1 X-29.787 Y13.478 E39.82089
G1 X-30.339 Y13.99 E39.87019
G1 X-30.942 Y14.44 E39.91946
G1 X-31.59 Y14.823 E39.96875
G1 X-32.275 Y15.136 E40.01807
G1 X-32.989 Y15.374 E40.06735
G1 X-33.725 Y15.535 E40.11668
G1 X-34.473 Y15.617 E40.16596
G1 X-34.871 Y15.628 E40.19203
G1 X-37.946 Y15.628 E40.39338
G1 X-38.698 Y15.588 E40.44269
G1 X-39.441 Y15.469 E40.49196
G1 X-40.167 Y15.271 E40.54124
G1 X-40.869 Y14.997 E40.59058
G1 X-41.537 Y14.651 E40.63985
G1 X-42.165 Y14.236 E40.68913
G1 X-42.745 Y13.756 E40.73843
G1 X-43.271 Y13.218 E40.7877
G1 X-43.737 Y12.627 E40.83698
G1 X-44.138 Y11.99 E40.88627
G1 X-44.469 Y11.313 E40.93562
G1 X-44.726 Y10.606 E40.98488
G1 X-44.907 Y9.875 E41.03419
