;FLAVOR:Marlin
;TIME:3305
;Filament used: 1.80669m
;Layer height: 0.14
;Generated with Cura_SteamEngine 4.0.0
M140 S65
M105
M190 S65
M104 S200
M105
M109 S200
M82 ;absolute extrusion mode
; Calibration part start here
M666 X0 Y0 Z0 ; Add your endstop values here after calibration
M665 L120.80 R61.70 ; Sets default Delta Radius (change when calibrating)
M301 P45.00 I0.07 D1000 ; Hot end settings
M304 P100 I0 D0 ; Bed heater settings
M500 ; Save settings

G90 ; switch to absolute positioning - this line was added in case Cura doesn't include it by default
M82 ; set extruder to absolute mode - this line was added in case Cura doesn't include it by default
G28 ; start from home position
G29 C-0.8 Z0.3 ; probe the bed at 3 points with a 0.3mm overall vertical offset and an additional -0.8mm center offset
G1 Z15.0 F4800  ; move the nozzle up 15mm
G92 E0 ; reset extrusion distance
G1 F200 E3 ; extrude 3mm of feed stock
G92 E0 ; reset extrusion distance again
G0 Z0.05;
G92 Z0;
G1 F4800
G92 E0
G1 F3000 E-4
;LAYER_COUNT:127
;LAYER:0
M107
G0 F3600 X-23.052 Y5.671 Z0.3
;TYPE:SKIRT
G1 F3000 E0
G1 F1650 X-23.262 Y4.825 E0.05708
G1 X-23.426 Y3.971 E0.11402
G1 X-23.544 Y3.113 E0.17073
G1 X-23.728 Y0.909 E0.31555
G1 X-23.754 Y0.032 E0.37301
G1 X-23.721 Y-1.31 E0.46091
G1 X-23.671 Y-2.024 E0.50778
G1 X-23.523 Y-3.333 E0.59404
G1 X-23.411 Y-4.045 E0.64123
G1 X-23.142 Y-5.364 E0.72938
G1 X-22.912 Y-6.24 E0.78868
G1 X-22.22 Y-8.382 E0.93608
G1 X-21.877 Y-9.265 E0.99811
G1 X-21.335 Y-10.45 E1.08344
G1 X-20.918 Y-11.242 E1.14205
G1 X-19.786 Y-13.135 E1.28647
G1 X-19.115 Y-14.093 E1.36306
G1 X-17.72 Y-15.808 E1.50782
G1 X-17.113 Y-16.476 E1.56692
G1 X-16.154 Y-17.419 E1.65499
G1 X-15.439 Y-18.044 E1.71718
G1 X-13.69 Y-19.402 E1.86217
G1 X-12.963 Y-19.906 E1.9201
G1 X-11.825 Y-20.606 E2.00758
G1 X-11.186 Y-20.96 E2.05542
G1 X-9.986 Y-21.557 E2.14318
G1 X-9.133 Y-21.922 E2.20394
G1 X-7.049 Y-22.677 E2.34908
G1 X-6.186 Y-22.937 E2.4081
G1 X-4.897 Y-23.248 E2.49492
G1 X-3.963 Y-23.416 E2.55706
G1 X-1.766 Y-23.681 E2.70197
G1 X-.869 Y-23.74 E2.76083
G1 X0.482 Y-23.753 E2.8493
G1 X1.557 Y-23.692 E2.91981
G1 X4.213 Y-23.364 E3.09504
G1 X5.008 Y-23.225 E3.14789
G1 X5.439 Y-23.116 E3.177
G1 X7.57 Y-22.511 E3.32206
G1 X8.666 Y-22.112 E3.39843
G1 X10.674 Y-21.215 E3.54244
G1 X11.489 Y-20.795 E3.60248
G1 X12.642 Y-20.115 E3.69013
G1 X13.417 Y-19.595 E3.75124
G1 X15.174 Y-18.266 E3.8955
G1 X15.864 Y-17.682 E3.95469
G1 X16.846 Y-16.751 E4.0433
G1 X17.493 Y-16.061 E4.10523
G1 X18.901 Y-14.375 E4.24907
G1 X19.441 Y-13.651 E4.30821
G1 X20.187 Y-12.524 E4.39671
G1 X20.549 Y-11.922 E4.44271
G1 X21.184 Y-10.755 E4.52971
G1 X21.583 Y-9.909 E4.59095
G1 X22.409 Y-7.861 E4.73556
G1 X22.701 Y-7.003 E4.7949
G1 X23.064 Y-5.701 E4.88341
G1 X23.228 Y-4.993 E4.931
G1 X23.472 Y-3.672 E5.01896
G1 X23.587 Y-2.77 E5.0785
G1 X23.743 Y-.572 E5.22279
G1 X23.742 Y0.588 E5.29875
G1 X23.584 Y2.783 E5.44285
G1 X23.471 Y3.672 E5.50153
G1 X23.227 Y4.998 E5.58982
G1 X23.062 Y5.71 E5.63768
G1 X22.7 Y7.009 E5.72598
G1 X22.406 Y7.872 E5.78568
G1 X21.579 Y9.919 E5.93024
G1 X21.18 Y10.765 E5.99149
G1 X20.543 Y11.934 E6.07867
G1 X20.176 Y12.543 E6.12522
G1 X19.432 Y13.663 E6.21327
G1 X18.898 Y14.379 E6.27176
G1 X17.484 Y16.071 E6.41615
G1 X16.678 Y16.905 E6.49209
G1 X15.032 Y18.384 E6.63699
G1 X14.32 Y18.955 E6.69676
G1 X13.227 Y19.735 E6.78468
G1 X12.423 Y20.241 E6.84689
G1 X10.498 Y21.3 E6.99075
G1 X9.697 Y21.685 E7.04895
G1 X8.455 Y22.201 E7.13701
G1 X7.441 Y22.546 E7.20715
G1 X4.85 Y23.241 E7.38281
G1 X4.062 Y23.411 E7.43559
G1 X3.609 Y23.473 E7.46553
G1 X1.426 Y23.707 E7.6093
G1 X0.268 Y23.748 E7.68517
G1 X-1.937 Y23.669 E7.82965
G1 X-2.832 Y23.587 E7.8885
G1 X-4.163 Y23.391 E7.9766
G1 X-5.101 Y23.196 E8.03933
G1 X-7.228 Y22.621 E8.18361
G1 X-8.078 Y22.34 E8.24223
G1 X-9.326 Y21.85 E8.33002
G1 X-10.192 Y21.45 E8.39249
G1 X-12.15 Y20.402 E8.53791
G1 X-12.912 Y19.939 E8.59629
G1 X-14.013 Y19.184 E8.68371
G1 X-14.587 Y18.752 E8.73075
G1 X-15.617 Y17.903 E8.81816
G1 X-16.294 Y17.277 E8.87853
G1 X-17.829 Y15.688 E9.0232
G1 X-18.433 Y14.987 E9.08379
G1 X-19.253 Y13.918 E9.17201
G1 X-19.776 Y13.149 E9.23291
G1 X-20.907 Y11.262 E9.37697
G1 X-21.329 Y10.46 E9.43631
G1 X-21.886 Y9.241 E9.52407
G1 X-22.266 Y8.24 E9.59418
G1 X-22.934 Y6.058 E9.7436
G0 F1485 X-23.052 Y5.671
G0 F3600 X-22.55 Y5.517
G1 F3000 E9.77012
G1 F1650 X-22.746 Y4.726 E9.82349
G1 X-22.91 Y3.872 E9.88043
G1 X-23.021 Y3.069 E9.93351
G1 X-23.205 Y0.865 E10.07833
G1 X-23.229 Y0.045 E10.13205
G1 X-23.196 Y-1.297 E10.21995
G1 X-23.15 Y-1.965 E10.2638
G1 X-23.002 Y-3.274 E10.35006
G1 X-22.896 Y-3.94 E10.39421
G1 X-22.627 Y-5.259 E10.48236
G1 X-22.412 Y-6.078 E10.53781
G1 X-21.72 Y-8.22 E10.68521
G1 X-21.399 Y-9.047 E10.74329
G1 X-20.857 Y-10.232 E10.82862
G1 X-20.468 Y-10.972 E10.88336
G1 X-19.336 Y-12.865 E11.02779
G1 X-18.708 Y-13.762 E11.09949
G1 X-17.313 Y-15.477 E11.24425
G1 X-16.745 Y-16.101 E11.2995
G1 X-15.786 Y-17.044 E11.38757
G1 X-15.117 Y-17.629 E11.44577
G1 X-13.368 Y-18.987 E11.59076
G1 X-12.688 Y-19.458 E11.64493
G1 X-11.55 Y-20.158 E11.73241
G1 X-10.952 Y-20.49 E11.7772
G1 X-9.752 Y-21.087 E11.86496
G1 X-8.954 Y-21.429 E11.92182
G1 X-6.87 Y-22.184 E12.06696
G1 X-6.063 Y-22.427 E12.12214
G1 X-4.774 Y-22.738 E12.20897
G1 X-3.9 Y-22.895 E12.26712
G1 X-1.703 Y-23.16 E12.41202
G1 X-.864 Y-23.215 E12.46708
G1 X0.487 Y-23.228 E12.55555
G1 X1.493 Y-23.171 E12.62153
G1 X4.149 Y-22.843 E12.79676
G1 X5.295 Y-22.611 E12.87333
G1 X7.426 Y-22.006 E13.01838
G1 X8.452 Y-21.633 E13.08987
G1 X10.46 Y-20.736 E13.23388
G1 X11.222 Y-20.343 E13.29002
G1 X12.375 Y-19.663 E13.37767
G1 X13.101 Y-19.177 E13.43488
G1 X14.858 Y-17.848 E13.57913
G1 X15.503 Y-17.301 E13.63451
G1 X16.485 Y-16.37 E13.72312
G1 X17.09 Y-15.725 E13.78102
G1 X18.498 Y-14.039 E13.92486
G1 X19.003 Y-13.361 E13.98022
G1 X19.749 Y-12.234 E14.06872
G1 X20.088 Y-11.671 E14.11175
G1 X20.723 Y-10.504 E14.19875
G1 X21.096 Y-9.713 E14.25601
G1 X21.922 Y-7.665 E14.40061
G1 X22.195 Y-6.862 E14.45615
G1 X22.558 Y-5.56 E14.54466
G1 X22.711 Y-4.898 E14.58915
G1 X22.955 Y-3.577 E14.67711
G1 X23.063 Y-2.733 E14.73283
G1 X23.219 Y-.535 E14.87712
G1 X23.218 Y0.551 E14.94823
G1 X23.06 Y2.746 E15.09233
G1 X22.954 Y3.577 E15.14719
G1 X22.71 Y4.903 E15.23547
G1 X22.557 Y5.569 E15.28022
G1 X22.195 Y6.868 E15.36852
G1 X21.92 Y7.676 E15.42441
G1 X21.093 Y9.723 E15.56897
G1 X20.719 Y10.514 E15.62627
G1 X20.082 Y11.683 E15.71344
G1 X19.738 Y12.252 E15.75698
G1 X18.994 Y13.372 E15.84503
G1 X18.495 Y14.042 E15.89973
G1 X17.081 Y15.734 E16.04412
G1 X16.327 Y16.515 E16.1152
G1 X14.681 Y17.994 E16.2601
G1 X14.015 Y18.528 E16.316
G1 X12.922 Y19.308 E16.40393
G1 X12.17 Y19.781 E16.4621
G1 X10.245 Y20.84 E16.60596
G1 X9.496 Y21.2 E16.66038
G1 X8.254 Y21.716 E16.74845
G1 X7.305 Y22.039 E16.81409
G1 X4.714 Y22.734 E16.98975
G1 X3.951 Y22.897 E17.04084
G1 X3.553 Y22.951 E17.06714
G1 X1.37 Y23.185 E17.2109
G1 X0.286 Y23.223 E17.28193
G1 X-1.919 Y23.144 E17.4264
G1 X-2.755 Y23.068 E17.48137
G1 X-4.086 Y22.872 E17.56947
G1 X-4.964 Y22.689 E17.62819
G1 X-7.091 Y22.114 E17.77247
G1 X-7.886 Y21.851 E17.8273
G1 X-9.134 Y21.361 E17.9151
G1 X-9.945 Y20.987 E17.97358
G1 X-11.903 Y19.939 E18.119
G1 X-12.615 Y19.506 E18.17357
G1 X-13.716 Y18.751 E18.26098
G1 X-14.253 Y18.347 E18.30499
G1 X-15.283 Y17.498 E18.39239
G1 X-15.916 Y16.912 E18.44887
G1 X-17.451 Y15.323 E18.59354
G1 X-18.017 Y14.668 E18.65023
G1 X-18.837 Y13.599 E18.73845
G1 X-19.326 Y12.879 E18.79544
G1 X-20.457 Y10.992 E18.9395
G1 X-20.851 Y10.242 E18.99497
G1 X-21.408 Y9.023 E19.08273
G1 X-21.764 Y8.086 E19.14837
G1 X-22.432 Y5.904 E19.29779
G0 F1485 X-22.55 Y5.517
G0 F3600 X-22.048 Y5.364
G1 F3000 E19.32431
G1 F1650 X-22.231 Y4.627 E19.37404
G1 X-22.395 Y3.773 E19.43098
G1 X-22.497 Y3.026 E19.48035
G1 X-22.681 Y0.822 E19.62517
G1 X-22.704 Y0.058 E19.67522
G1 X-22.671 Y-1.284 E19.76312
G1 X-22.628 Y-1.906 E19.80395
G1 X-22.48 Y-3.215 E19.89021
G1 X-22.382 Y-3.835 E19.93131
G1 X-22.113 Y-5.154 E20.01946
G1 X-21.913 Y-5.917 E20.07111
G1 X-21.221 Y-8.059 E20.2185
G1 X-20.922 Y-8.828 E20.27253
G1 X-20.38 Y-10.013 E20.35786
G1 X-20.017 Y-10.703 E20.40891
G1 X-18.885 Y-12.596 E20.55334
G1 X-18.301 Y-13.431 E20.62006
G1 X-16.906 Y-15.146 E20.76482
G1 X-16.377 Y-15.727 E20.81627
G1 X-15.418 Y-16.67 E20.90434
G1 X-14.795 Y-17.215 E20.95854
G1 X-13.046 Y-18.573 E21.10354
G1 X-12.413 Y-19.011 E21.15394
G1 X-11.275 Y-19.711 E21.24143
G1 X-10.718 Y-20.02 E21.28314
G1 X-9.518 Y-20.617 E21.3709
G1 X-8.775 Y-20.935 E21.42382
G1 X-6.691 Y-21.69 E21.56896
G1 X-5.939 Y-21.916 E21.62038
G1 X-4.65 Y-22.227 E21.70721
G1 X-3.837 Y-22.374 E21.76131
G1 X-1.64 Y-22.639 E21.90621
G1 X-.859 Y-22.69 E21.95746
G1 X0.492 Y-22.703 E22.04593
G1 X1.429 Y-22.65 E22.10738
G1 X4.085 Y-22.322 E22.28262
G1 X5.152 Y-22.106 E22.35391
G1 X7.283 Y-21.501 E22.49896
G1 X8.238 Y-21.154 E22.5655
G1 X10.246 Y-20.257 E22.7095
G1 X10.956 Y-19.89 E22.76184
G1 X12.109 Y-19.21 E22.84949
G1 X12.784 Y-18.758 E22.90269
G1 X14.541 Y-17.429 E23.04694
G1 X15.142 Y-16.92 E23.09851
G1 X16.124 Y-15.989 E23.18712
G1 X16.687 Y-15.388 E23.24104
G1 X18.095 Y-13.702 E23.38488
G1 X18.565 Y-13.071 E23.4364
G1 X19.311 Y-11.944 E23.5249
G1 X19.627 Y-11.42 E23.56497
G1 X20.262 Y-10.253 E23.65196
G1 X20.609 Y-9.516 E23.70531
G1 X21.435 Y-7.468 E23.84991
G1 X21.69 Y-6.721 E23.90159
G1 X22.053 Y-5.419 E23.9901
G1 X22.195 Y-4.802 E24.03156
G1 X22.439 Y-3.481 E24.11952
G1 X22.539 Y-2.696 E24.17134
G1 X22.695 Y-.498 E24.31563
G1 X22.695 Y0.513 E24.38183
G1 X22.537 Y2.708 E24.52593
G1 X22.438 Y3.482 E24.57703
G1 X22.194 Y4.808 E24.66531
G1 X22.051 Y5.428 E24.70698
G1 X21.689 Y6.727 E24.79528
G1 X21.433 Y7.479 E24.84729
G1 X20.606 Y9.526 E24.99186
G1 X20.258 Y10.262 E25.04517
G1 X19.621 Y11.431 E25.13234
G1 X19.301 Y11.962 E25.17294
G1 X18.557 Y13.082 E25.26098
G1 X18.092 Y13.705 E25.31189
G1 X16.678 Y15.397 E25.45628
G1 X15.976 Y16.124 E25.52245
G1 X14.33 Y17.603 E25.66735
G1 X13.71 Y18.101 E25.71943
G1 X12.617 Y18.881 E25.80735
G1 X11.916 Y19.321 E25.86155
G1 X9.991 Y20.38 E26.00541
G1 X9.294 Y20.716 E26.05608
G1 X8.052 Y21.232 E26.14415
G1 X7.169 Y21.532 E26.20521
G1 X4.578 Y22.227 E26.38087
G1 X3.497 Y22.429 E26.45288
G1 X1.314 Y22.663 E26.59664
G1 X0.305 Y22.698 E26.66275
G1 X-1.9 Y22.619 E26.80723
G1 X-2.679 Y22.548 E26.85845
G1 X-4.01 Y22.352 E26.94655
G1 X-4.827 Y22.182 E27.00119
G1 X-6.954 Y21.607 E27.14547
G1 X-7.694 Y21.363 E27.19649
G1 X-8.942 Y20.873 E27.28429
G1 X-9.697 Y20.524 E27.33875
G1 X-11.655 Y19.476 E27.48417
G1 X-12.319 Y19.073 E27.53503
G1 X-13.42 Y18.318 E27.62245
G1 X-13.919 Y17.941 E27.6634
G1 X-14.949 Y17.092 E27.75081
G1 X-15.539 Y16.548 E27.80336
G1 X-17.074 Y14.959 E27.94802
G1 X-17.6 Y14.348 E28.00082
G1 X-18.42 Y13.279 E28.08904
G1 X-18.876 Y12.609 E28.14211
G1 X-20.007 Y10.722 E28.28616
G1 X-20.374 Y10.024 E28.3378
G1 X-20.931 Y8.805 E28.42556
G1 X-21.262 Y7.933 E28.48664
G1 X-21.93 Y5.751 E28.63606
G0 F1485 X-22.048 Y5.364
G0 F3600 X-21.546 Y5.21
G1 F3000 E28.66258
G1 F1650 X-21.715 Y4.528 E28.70859
G1 X-21.879 Y3.674 E28.76553
G1 X-21.974 Y2.982 E28.81127
G1 X-22.158 Y0.778 E28.95609
G1 X-22.179 Y0.071 E29.00241
G1 X-22.146 Y-1.271 E29.09031
G1 X-22.106 Y-1.847 E29.12812
G1 X-21.958 Y-3.156 E29.21438
G1 X-21.868 Y-3.73 E29.25242
G1 X-21.599 Y-5.049 E29.34057
G1 X-21.413 Y-5.756 E29.38844
G1 X-20.721 Y-7.898 E29.53584
G1 X-20.444 Y-8.61 E29.58586
G1 X-19.902 Y-9.795 E29.67119
G1 X-19.567 Y-10.433 E29.71838
G1 X-18.435 Y-12.326 E29.8628
G1 X-17.893 Y-13.099 E29.92462
G1 X-16.498 Y-14.814 E30.06938
G1 X-16.009 Y-15.353 E30.11704
G1 X-15.05 Y-16.296 E30.20511
G1 X-14.473 Y-16.8 E30.25527
G1 X-12.724 Y-18.158 E30.40027
G1 X-12.138 Y-18.564 E30.44695
G1 X-11 Y-19.264 E30.53444
G1 X-10.484 Y-19.55 E30.57307
G1 X-9.284 Y-20.147 E30.66083
G1 X-8.596 Y-20.442 E30.70985
G1 X-6.512 Y-21.197 E30.85499
G1 X-5.816 Y-21.406 E30.90257
G1 X-4.527 Y-21.717 E30.9894
G1 X-3.774 Y-21.853 E31.03951
G1 X-1.577 Y-22.118 E31.18441
G1 X-.854 Y-22.165 E31.23185
G1 X0.497 Y-22.178 E31.32032
G1 X1.364 Y-22.129 E31.37718
G1 X4.02 Y-21.801 E31.55242
G1 X5.008 Y-21.6 E31.61844
G1 X7.139 Y-20.995 E31.7635
G1 X8.024 Y-20.674 E31.82514
G1 X10.032 Y-19.777 E31.96915
G1 X10.689 Y-19.438 E32.01756
G1 X11.842 Y-18.758 E32.10521
G1 X12.467 Y-18.339 E32.15448
G1 X14.224 Y-17.01 E32.29874
G1 X14.78 Y-16.539 E32.34645
G1 X15.762 Y-15.608 E32.43506
G1 X16.284 Y-15.052 E32.485
G1 X17.692 Y-13.366 E32.62884
G1 X18.128 Y-12.782 E32.67656
G1 X18.874 Y-11.655 E32.76506
G1 X19.166 Y-11.169 E32.80218
G1 X19.801 Y-10.002 E32.88918
G1 X20.123 Y-9.32 E32.93857
G1 X20.949 Y-7.272 E33.08317
G1 X21.184 Y-6.58 E33.13102
G1 X21.547 Y-5.278 E33.21953
G1 X21.679 Y-4.707 E33.2579
G1 X21.923 Y-3.386 E33.34587
G1 X22.016 Y-2.659 E33.39386
G1 X22.172 Y-.461 E33.53815
G1 X22.171 Y0.475 E33.59944
G1 X22.013 Y2.67 E33.74354
G1 X21.922 Y3.387 E33.79087
G1 X21.678 Y4.713 E33.87915
G1 X21.545 Y5.287 E33.91774
G1 X21.183 Y6.586 E34.00604
G1 X20.946 Y7.282 E34.05418
G1 X20.119 Y9.329 E34.19875
G1 X19.797 Y10.011 E34.24813
G1 X19.16 Y11.18 E34.33531
G1 X18.864 Y11.671 E34.37285
G1 X18.12 Y12.791 E34.46089
G1 X17.689 Y13.369 E34.5081
G1 X16.275 Y15.061 E34.65249
G1 X15.625 Y15.734 E34.71376
G1 X13.979 Y17.213 E34.85866
G1 X13.405 Y17.673 E34.90683
G1 X12.312 Y18.453 E34.99475
G1 X11.663 Y18.861 E35.04495
G1 X9.738 Y19.92 E35.18882
G1 X9.093 Y20.231 E35.2357
G1 X7.851 Y20.747 E35.32377
G1 X7.033 Y21.025 E35.38034
G1 X4.442 Y21.72 E35.556
G1 X3.441 Y21.907 E35.62268
G1 X1.258 Y22.141 E35.76645
G1 X0.324 Y22.174 E35.82764
G1 X-1.881 Y22.095 E35.97212
G1 X-2.602 Y22.029 E36.01953
G1 X-3.933 Y21.833 E36.10763
G1 X-4.69 Y21.676 E36.15825
G1 X-6.817 Y21.101 E36.30253
G1 X-7.503 Y20.874 E36.34984
G1 X-8.751 Y20.384 E36.43764
G1 X-9.449 Y20.061 E36.488
G1 X-11.407 Y19.013 E36.63342
G1 X-12.022 Y18.64 E36.68052
G1 X-13.123 Y17.885 E36.76793
G1 X-13.585 Y17.536 E36.80585
G1 X-14.615 Y16.687 E36.89325
G1 X-15.161 Y16.183 E36.94191
G1 X-16.696 Y14.594 E37.08658
G1 X-17.183 Y14.028 E37.13547
G1 X-18.003 Y12.959 E37.22369
G1 X-18.425 Y12.339 E37.2728
G1 X-19.556 Y10.452 E37.41686
G1 X-19.896 Y9.806 E37.46466
G1 X-20.453 Y8.587 E37.55242
G1 X-20.76 Y7.779 E37.60902
G1 X-21.428 Y5.597 E37.75844
G0 F1485 X-21.546 Y5.21
G0 F3600 X-21.044 Y5.057
G1 F3000 E37.78496
G1 F1650 X-21.2 Y4.429 E37.82733
G1 X-21.364 Y3.575 E37.88428
G1 X-21.451 Y2.938 E37.92638
G1 X-21.635 Y0.734 E38.0712
G1 X-21.654 Y0.084 E38.11378
G1 X-21.621 Y-1.258 E38.20168
G1 X-21.585 Y-1.788 E38.23647
G1 X-21.437 Y-3.097 E38.32273
G1 X-21.353 Y-3.626 E38.3578
G1 X-21.084 Y-4.945 E38.44595
G1 X-20.914 Y-5.594 E38.48988
G1 X-20.222 Y-7.736 E38.63727
G1 X-19.967 Y-8.391 E38.6833
G1 X-19.425 Y-9.576 E38.76863
G1 X-19.116 Y-10.164 E38.81212
G1 X-17.984 Y-12.057 E38.95655
G1 X-17.486 Y-12.768 E39.01339
G1 X-16.091 Y-14.483 E39.15815
G1 X-15.64 Y-14.978 E39.202
G1 X-14.681 Y-15.921 E39.29007
G1 X-14.151 Y-16.385 E39.33619
G1 X-12.402 Y-17.743 E39.48119
G1 X-11.862 Y-18.117 E39.5242
G1 X-10.724 Y-18.817 E39.61169
G1 X-10.25 Y-19.08 E39.64718
G1 X-9.05 Y-19.677 E39.73495
G1 X-8.418 Y-19.948 E39.77998
G1 X-6.334 Y-20.703 E39.92512
G1 X-5.693 Y-20.896 E39.96895
G1 X-4.404 Y-21.207 E40.05578
G1 X-3.711 Y-21.332 E40.10189
G1 X-1.514 Y-21.597 E40.24679
G1 X-.849 Y-21.64 E40.29043
G1 X0.502 Y-21.653 E40.3789
G1 X1.3 Y-21.607 E40.43124
G1 X3.956 Y-21.279 E40.60648
G1 X4.865 Y-21.095 E40.66721
G1 X6.996 Y-20.49 E40.81226
G1 X7.81 Y-20.195 E40.86895
G1 X9.818 Y-19.298 E41.01296
G1 X10.422 Y-18.986 E41.05748
G1 X11.575 Y-18.306 E41.14513
G1 X12.151 Y-17.921 E41.1905
