;FLAVOR:Marlin
;TIME:3343
;Filament used: 1.78143m
;Layer height: 0.14
;Generated with Cura_SteamEngine 4.0.0
M140 S65
M105
M190 S65
M104 S200
M105
M109 S200
M82 ;absolute extrusion mode
; Calibration part start here
M666 X0 Y0 Z0 ; Add your endstop values here after calibration
M665 L120.80 R61.70 ; Sets default Delta Radius (change when calibrating)
M301 P45.00 I0.07 D1000 ; Hot end settings
M304 P100 I0 D0 ; Bed heater settings
M500 ; Save settings

G90 ; switch to absolute positioning - this line was added in case Cura doesn't include it by default
M82 ; set extruder to absolute mode - this line was added in case Cura doesn't include it by default
G28 ; start from home position
G29 C-0.8 Z0.3 ; probe the bed at 3 points with a 0.3mm overall vertical offset and an additional -0.8mm center offset
G1 Z15.0 F4800  ; move the nozzle up 15mm
G92 E0 ; reset extrusion distance
G1 F200 E3 ; extrude 3mm of feed stock
G92 E0 ; reset extrusion distance again
G0 Z0.01;
G92 Z0;
G1 F4800
G92 E0
G1 F3000 E-4
;LAYER_COUNT:464
;LAYER:-7
M107
G0 F7200 X-16.767 Y-12.549 Z0.36
;TYPE:SUPPORT-INTERFACE
G1 F3000 E0
G1 F1237.5 X-16.17 Y-13.31 E0.11581
G1 X-15.822 Y-13.813 E0.18905
G1 X-15.337 Y-14.608 E0.30056
G1 X-15.209 Y-14.8 E0.32818
G1 X-14.597 Y-15.646 E0.45321
G1 X-13.924 Y-16.446 E0.57838
G1 X-13.442 Y-16.958 E0.66258
G1 X-13.182 Y-17.217 E0.70652
G1 X-12.486 Y-17.863 E0.82022
G1 X-12.347 Y-17.982 E0.84213
G1 X-11.656 Y-18.536 E0.94818
G1 X-11.517 Y-18.64 E0.96897
G1 X-10.802 Y-19.133 E1.07296
G1 X-10.618 Y-19.249 E1.099
G1 X-9.72 Y-19.769 E1.22325
G1 X-8.775 Y-20.228 E1.34904
G1 X-7.92 Y-20.573 E1.45944
G1 X-7.753 Y-20.633 E1.48068
G1 X-6.914 Y-20.902 E1.58618
G1 X-6.75 Y-20.948 E1.60658
G1 X-5.878 Y-21.16 E1.71403
G1 X-5.716 Y-21.193 E1.73382
G1 X-4.817 Y-21.342 E1.84293
G1 X-4.155 Y-21.427 E1.92285
G1 X-4.157 Y-21.44 E1.92443
G1 X-4.084 Y-21.451 E1.93326
G1 X-3.295 Y-21.686 E2.03184
G1 X-2.937 Y-21.824 E2.07778
G1 X-2.745 Y-21.889 E2.10205
G1 X-1.908 Y-22.14 E2.20668
G1 X-1.735 Y-22.187 E2.22814
G1 X-.84 Y-22.387 E2.33795
G1 X0.195 Y-22.544 E2.4633
G1 X0.364 Y-22.562 E2.48365
G1 X1.437 Y-22.637 E2.61244
G1 X1.942 Y-22.645 E2.67291
G1 X4.244 Y-22.644 E2.94854
G1 X5.368 Y-22.599 E3.08324
G1 X6.46 Y-22.472 E3.21487
G1 X7.472 Y-22.28 E3.3382
G1 X8.366 Y-22.046 E3.44885
G1 X9.371 Y-21.71 E3.57574
G1 X9.537 Y-21.647 E3.597
G1 X10.34 Y-21.306 E3.70146
G1 X10.529 Y-21.218 E3.72642
G1 X11.323 Y-20.809 E3.83336
G1 X11.44 Y-20.744 E3.84939
G1 X12.219 Y-20.269 E3.95863
G1 X12.37 Y-20.169 E3.98032
G1 X13.232 Y-19.545 E4.10774
G1 X14.032 Y-18.872 E4.23291
G1 X14.544 Y-18.39 E4.31711
G1 X15.487 Y-17.446 E4.47688
G1 X16.133 Y-16.75 E4.59058
G1 X16.252 Y-16.611 E4.61249
G1 X16.806 Y-15.92 E4.71853
G1 X16.91 Y-15.781 E4.73932
G1 X17.403 Y-15.066 E4.84331
G1 X17.519 Y-14.882 E4.86935
G1 X18.039 Y-13.984 E4.9936
G1 X18.501 Y-13.033 E5.1202
G1 X18.595 Y-12.799 E5.15039
G1 X18.919 Y-12.134 E5.23897
G1 X19.019 Y-11.961 E5.26289
G1 X19.429 Y-11.188 E5.36766
G1 X19.51 Y-11.019 E5.3901
G1 X19.862 Y-10.219 E5.49475
G1 X19.926 Y-10.059 E5.51539
G1 X20.228 Y-9.21 E5.62328
G1 X20.276 Y-9.059 E5.64225
G1 X20.515 Y-8.192 E5.74994
G1 X20.558 Y-8.013 E5.77198
G1 X20.727 Y-7.164 E5.87563
G1 X20.759 Y-6.96 E5.90036
G1 X20.867 Y-6.085 E6.00592
G1 X20.883 Y-5.916 E6.02625
G1 X20.926 Y-5.017 E6.13401
G1 X20.929 Y-4.852 E6.15377
G1 X20.898 Y-3.784 E6.2817
G1 X20.88 Y-3.594 E6.30456
G1 X20.857 Y-2.927 E6.38447
G1 X20.897 Y-2.421 E6.44524
G1 X20.947 Y-2.017 E6.49399
G1 X21.035 Y-1.062 E6.60882
G1 X21.061 Y-.232 E6.70825
G1 X21.062 Y0.563 E6.80344
G1 X21.016 Y1.727 E6.94292
G1 X20.946 Y2.431 E7.02763
G1 X20.85 Y3.2 E7.12042
G1 X20.668 Y4.315 E7.2557
G1 X20.51 Y5.012 E7.34127
G1 X20.332 Y5.709 E7.42741
G1 X20.029 Y6.748 E7.55699
G1 X19.744 Y7.547 E7.65857
G1 X19.434 Y8.328 E7.75918
G1 X18.987 Y9.339 E7.89154
G1 X18.641 Y10.011 E7.98204
G1 X18.254 Y10.713 E8.07802
G1 X17.705 Y11.63 E8.20599
G1 X17.283 Y12.244 E8.2952
G1 X16.774 Y12.941 E8.39854
G1 X16.101 Y13.793 E8.52854
G1 X15.642 Y14.31 E8.61132
G1 X15.06 Y14.928 E8.71297
G1 X14.302 Y15.675 E8.8404
G1 X13.775 Y16.137 E8.92431
G1 X13.148 Y16.659 E9.022
G1 X12.247 Y17.349 E9.15788
G1 X11.664 Y17.743 E9.24214
G1 X10.992 Y18.172 E9.3376
G1 X10.132 Y18.677 E9.45701
G1 X9.344 Y19.081 E9.56304
G1 X8.7 Y19.386 E9.64836
G1 X7.591 Y19.86 E9.79277
G1 X6.89 Y20.108 E9.8818
G1 X6.129 Y20.355 E9.9776
G1 X5.04 Y20.66 E10.11301
G1 X4.393 Y20.802 E10.19233
G1 X3.642 Y20.947 E10.28391
G1 X2.577 Y21.115 E10.41301
G1 X1.753 Y21.193 E10.51211
G1 X0.926 Y21.245 E10.61133
G1 X-0.05 Y21.272 E10.72823
G1 X-.939 Y21.244 E10.83473
G1 X-1.761 Y21.19 E10.93337
G1 X-2.833 Y21.081 E11.06239
G1 X-3.559 Y20.962 E11.15048
G1 X-4.361 Y20.808 E11.24826
G1 X-5.418 Y20.564 E11.37815
G1 X-6.102 Y20.361 E11.46358
G1 X-6.882 Y20.109 E11.56173
G1 X-7.742 Y19.798 E11.67123
G1 X-7.939 Y19.72 E11.6966
G1 X-8.639 Y19.412 E11.78817
G1 X-9.387 Y19.057 E11.88731
G1 X-10.35 Y18.555 E12.01734
G1 X-10.926 Y18.21 E12.09773
G1 X-11.601 Y17.783 E12.19337
G1 X-12.533 Y17.14 E12.32894
G1 X-13.098 Y16.698 E12.41484
G1 X-13.745 Y16.162 E12.51544
G1 X-14.567 Y15.426 E12.64755
G1 X-15.055 Y14.932 E12.73069
G1 X-15.59 Y14.363 E12.82421
G1 X-16.276 Y13.583 E12.94858
G1 X-16.74 Y12.987 E13.03902
G1 X-17.279 Y12.249 E13.14845
G1 X-17.867 Y11.373 E13.27477
G1 X-18.272 Y10.68 E13.37088
G1 X-18.668 Y9.959 E13.46938
G1 X-19.152 Y8.989 E13.59918
G1 X-19.452 Y8.282 E13.69114
G1 X-19.739 Y7.554 E13.78483
G1 X-20.057 Y6.661 E13.89834
G1 X-20.294 Y5.848 E13.99973
G1 X-20.491 Y5.086 E14.09397
G1 X-20.735 Y3.955 E14.23251
G1 X-20.841 Y3.263 E14.31633
G1 X-20.948 Y2.406 E14.41975
G1 X-21.036 Y1.447 E14.53505
G1 X-21.061 Y0.632 E14.63269
G1 X-21.062 Y-.163 E14.72788
G1 X-21.016 Y-1.327 E14.86736
G1 X-20.943 Y-2.056 E14.95508
G1 X-20.846 Y-2.826 E15.04801
G1 X-20.668 Y-3.914 E15.18001
G1 X-20.505 Y-4.626 E15.26747
G1 X-20.321 Y-5.346 E15.35645
G1 X-20.022 Y-6.367 E15.48384
G1 X-19.756 Y-7.11 E15.57833
G1 X-19.462 Y-7.86 E15.67479
G1 X-19.05 Y-8.807 E15.79844
G1 X-18.632 Y-9.629 E15.90886
G1 X-18.251 Y-10.317 E16.00303
G1 X-17.696 Y-11.242 E16.13219
G1 X-17.243 Y-11.898 E16.22765
G1 X-16.897 Y-12.371 E16.29782
G0 F1113.8 X-16.767 Y-12.549
G0 F7200 X-16 Y-13.556
G1 F3000 E16.32428
G1 F1237.5 X-16 Y13.896 E19.61129
G0 F7200 X-14.4 Y15.575
G1 F1237.5 X-14.4 Y-15.881 E23.37772
G0 F7200 X-12.8 Y-17.572
G1 F1237.5 X-12.8 Y16.931 E27.50898
G0 F7200 X-11.2 Y18.036
G1 F1237.5 X-11.2 Y-18.859 E31.92666
G0 F7200 X-9.6 Y-19.828
G1 F1237.5 X-9.6 Y18.945 E36.5692
G0 F7200 X-8 Y19.693
G1 F1237.5 X-8 Y-20.541 E41.38668
G0 F7200 X-6.4 Y-21.034
G1 F1237.5 X-6.4 Y20.264 E46.33156
G0 F7200 X-4.8 Y20.706
G1 F1237.5 X-4.8 Y-21.345 E51.3666
G0 F7200 X-3.2 Y-21.723
G1 F1237.5 X-3.2 Y21.02 E56.4845
G0 F7200 X-1.6 Y21.2
G1 F1237.5 X-1.6 Y-22.218 E61.68321
G0 F7200 X0.00 Y-22.515
G1 F1237.5 X0.00 Y21.271 E66.926
G0 F7200 X1.6 Y21.203
G1 F1237.5 X1.6 Y-22.64 E72.1756
G0 F7200 X3.2 Y-22.644
G1 F1237.5 X3.2 Y21.017 E77.40342
G0 F7200 X4.8 Y20.713
G1 F1237.5 X4.8 Y-22.621 E82.59208
G0 F7200 X6.4 Y-22.478
G1 F1237.5 X6.4 Y20.268 E87.71033
G0 F7200 X8 Y19.686
G1 F1237.5 X8 Y-22.141 E92.71855
G0 F7200 X9.6 Y-21.62
G1 F1237.5 X9.6 Y18.95 E97.57626
G0 F7200 X11.2 Y18.04
G1 F1237.5 X11.2 Y-20.872 E102.23545
G0 F7200 X12.8 Y-19.857
G1 F1237.5 X12.8 Y16.926 E106.63971
G0 F7200 X14.4 Y15.579
G1 F1237.5 X14.4 Y-18.525 E110.72321
G0 F7200 X16 Y-16.893
G1 F1237.5 X16 Y13.907 E114.41109
G0 F7200 X17.6 Y11.783
G1 F1237.5 X17.6 Y-14.742 E117.5871
G0 F7200 X19.2 Y-11.619
G1 F1237.5 X19.2 Y8.858 E120.03895
G0 F7200 X20.8 Y3.507
G1 F1237.5 X20.8 Y-6.627 E121.25236
G0 F7200 X-17.6 Y-11.382
G1 F1237.5 X-17.6 Y11.77 E124.02449
G0 F7200 X-19.2 Y8.875
G1 F1237.5 X-19.2 Y-8.463 E126.10049
G0 F7200 X-20.8 Y-3.108
G1 F1237.5 X-20.8 Y3.53 E126.8953
G1 F3000 E122.8953
G0 F7200 X-17.957 Y11.316
;TIME_ELAPSED:55.252677
;LAYER:-6
M140 S60
G0 X-17.957 Y11.316 Z0.57
;TYPE:SUPPORT
G1 F3000 E126.8953
G1 F1237.5 X-11.144 Y18.13 E127.48419
G1 X-11.63 Y17.823 E127.51932
G1 X-12.561 Y17.179 E127.58851
G1 X-13.13 Y16.735 E127.63262
G1 X-13.777 Y16.199 E127.68396
G1 X-14.601 Y15.46 E127.75161
G1 X-15.129 Y14.925 E127.79755
G1 X-15.674 Y14.343 E127.84628
G1 X-16.399 Y13.509 E127.91381
G1 X-16.833 Y12.944 E127.95736
G1 X-17.314 Y12.283 E128.00732
G1 X-17.915 Y11.388 E128.0732
G0 F7200 X-11.144 Y18.13
G1 F1237.5 X-10.944 Y18.256 E128.08765
G1 X-10.376 Y18.596 E128.12811
G1 X-9.403 Y19.104 E128.19519
G1 X-8.659 Y19.456 E128.24549
G1 X-8.455 Y19.545 E128.25909
G1 X-19.349 Y8.651 E129.20067
G1 X-19.498 Y8.3 E129.22397
G1 X-19.785 Y7.572 E129.2718
G1 X-20.099 Y6.688 E129.32913
G1 X-20.127 Y6.6 E129.33477
G1 X-6.418 Y20.31 E130.51969
G1 X-6.117 Y20.407 E130.53902
G1 X-5.431 Y20.61 E130.58274
G1 X-4.669 Y20.786 E130.63054
G1 X-20.589 Y4.866 E132.00651
G1 X-20.783 Y3.964 E132.06289
G1 X-20.885 Y3.297 E132.10413
G1 X-3.093 Y21.089 E133.6419
G1 X-2.846 Y21.129 E133.65719
G1 X-1.764 Y21.238 E133.72365
G1 X-1.665 Y21.245 E133.72972
G1 X-21.047 Y1.862 E135.40496
G1 X-21.084 Y1.45 E135.43024
G1 X-21.109 Y0.632 E135.48025
G1 X-21.11 Y0.526 E135.48673
G1 X-.324 Y21.312 E137.28327
G1 X-0.05 Y21.321 E137.30003
G1 X0.929 Y21.293 E137.35989
G1 X-21.089 Y-.724 E139.26287
G1 X-21.065 Y-1.331 E139.29999
G1 X-21.007 Y-1.915 E139.33586
G1 X2.114 Y21.206 E141.33422
G1 X2.588 Y21.162 E141.36331
G1 X3.241 Y21.06 E141.4037
G1 X-20.86 Y-3.041 E143.48676
G1 X-20.713 Y-3.936 E143.54219
G1 X-20.67 Y-4.124 E143.55398
G1 X4.32 Y20.866 E145.71387
G1 X4.343 Y20.862 E145.7153
G1 X5.043 Y20.709 E145.75909
G1 X5.349 Y20.623 E145.77852
G1 X-20.421 Y-5.147 E148.00583
G1 X-20.332 Y-5.489 E148.02742
G1 X-20.139 Y-6.138 E148.0688
G1 X6.337 Y20.338 E150.35713
G1 X6.91 Y20.153 E150.39393
G1 X7.29 Y20.018 E150.41858
G1 X-19.815 Y-7.088 E152.76132
G1 X-19.771 Y-7.207 E152.76907
G1 X-19.477 Y-7.951 E152.81796
G1 X-19.456 Y-8 E152.82122
G1 X8.199 Y19.654 E155.21141
G1 X8.595 Y19.486 E155.2377
G1 X9.077 Y19.259 E155.27026
G1 X-19.066 Y-8.884 E157.70267
G1 X-19.03 Y-8.965 E157.70809
G1 X-18.673 Y-9.652 E157.7554
G1 X-18.634 Y-9.724 E157.76041
G1 X9.929 Y18.839 E160.22912
G1 X10.014 Y18.797 E160.23491
G1 X10.738 Y18.374 E160.28616
G1 X-18.176 Y-10.539 E162.78516
G1 X-17.729 Y-11.281 E162.8381
G1 X-17.696 Y-11.332 E162.84182
G1 X11.525 Y17.889 E165.3674
G1 X11.69 Y17.784 E165.37935
G1 X12.266 Y17.395 E165.42183
G1 X12.287 Y17.378 E165.42348
G1 X-17.171 Y-12.08 E167.96955
G1 X-16.869 Y-12.496 E168.00096
G1 X-16.626 Y-12.807 E168.02509
G1 X13.008 Y16.827 E170.58636
G1 X13.188 Y16.689 E170.60022
G1 X13.709 Y16.254 E170.64171
G1 X-16.077 Y-13.531 E173.21608
G1 X-15.863 Y-13.839 E173.239
G1 X-15.578 Y-14.306 E173.27243
G1 X14.387 Y15.66 E175.86236
G1 X14.409 Y15.641 E175.86414
G1 X15.027 Y15.027 E175.91738
G1 X-15.074 Y-15.074 E178.51902
G1 X-14.743 Y-15.536 E178.55376
G1 X-14.646 Y-15.664 E178.56357
G1 X-14.53 Y-15.803 E178.57464
G1 X15.648 Y14.375 E181.18293
G1 X15.709 Y14.309 E181.18842
G1 X16.234 Y13.71 E181.2371
G1 X16.244 Y13.698 E181.23806
G1 X-13.948 Y-16.493 E183.84752
G1 X-13.48 Y-16.988 E183.88915
G1 X-13.325 Y-17.143 E183.90255
G1 X16.802 Y12.983 E186.50639
G1 X16.872 Y12.894 E186.51331
G1 X17.34 Y12.249 E186.56202
G1 X-12.668 Y-17.759 E189.15562
G1 X-12.517 Y-17.9 E189.16825
G1 X-12.379 Y-18.019 E189.17938
G1 X-11.976 Y-18.34 E189.21087
G1 X17.85 Y11.486 E191.78874
G1 X18.324 Y10.687 E191.84552
G1 X-11.247 Y-18.884 E194.40135
G1 X-10.818 Y-19.181 E194.43324
G1 X-10.656 Y-19.284 E194.44497
G1 X-10.477 Y-19.387 E194.45759
G1 X18.773 Y9.864 E196.98573
G1 X19.036 Y9.352 E197.0209
G1 X19.189 Y9.007 E197.04397
G1 X-9.666 Y-19.848 E199.53792
G1 X-8.809 Y-20.264 E199.59614
G1 X19.571 Y8.116 E202.04903
G1 X19.789 Y7.564 E202.0853
G1 X19.924 Y7.196 E202.10926
G1 X-7.903 Y-20.631 E204.51436
G1 X-7.77 Y-20.679 E204.523
G1 X-6.943 Y-20.943 E204.57605
G1 X20.231 Y6.231 E206.92471
G1 X20.342 Y5.859 E206.94844
G1 X20.503 Y5.23 E206.98812
G1 X-5.925 Y-21.199 E209.27234
G1 X-5.891 Y-21.207 E209.27448
G1 X-5.718 Y-21.243 E209.28528
G1 X-4.842 Y-21.388 E209.33954
G1 X20.738 Y4.191 E211.55039
G1 X20.898 Y3.208 E211.61126
G1 X20.913 Y3.094 E211.61828
G1 X-3.775 Y-21.594 E213.75208
G1 X-3.31 Y-21.732 E213.78172
G1 X-2.945 Y-21.872 E213.80561
G1 X-2.822 Y-21.913 E213.81354
G1 X21.044 Y1.952 E215.87624
G1 X21.065 Y1.731 E215.88981
G1 X21.105 Y0.74 E215.95042
G1 X-1.843 Y-22.208 E217.93383
G1 X-1.762 Y-22.23 E217.93896
G1 X-.802 Y-22.44 E217.99901
G1 X21.1 Y-.536 E219.8921
G1 X21.083 Y-1.064 E219.92438
G1 X21.007 Y-1.902 E219.97581
G1 X0.304 Y-22.605 E221.76518
G1 X0.355 Y-22.611 E221.76831
G1 X1.434 Y-22.686 E221.83442
G1 X1.495 Y-22.687 E221.83815
G1 X20.919 Y-3.264 E223.51693
G1 X20.929 Y-3.589 E223.5368
G1 X20.947 Y-3.778 E223.5484
G1 X20.967 Y-4.488 E223.59181
G1 X2.762 Y-22.693 E225.16528
G1 X4.035 Y-22.693 E225.24308
G1 X20.937 Y-5.791 E226.70392
G1 X20.931 Y-5.919 E226.71175
G1 X20.914 Y-6.101 E226.72292
G1 X20.808 Y-6.955 E226.77552
G1 X20.775 Y-7.172 E226.78893
G1 X20.762 Y-7.239 E226.7931
G1 X5.352 Y-22.649 E228.12499
G1 X5.374 Y-22.648 E228.12634
G1 X6.453 Y-22.522 E228.19273
G1 X6.821 Y-22.452 E228.21563
G1 X20.37 Y-8.903 E229.38667
G1 X20.327 Y-9.06 E229.39662
G1 X20.275 Y-9.224 E229.40713
G1 X19.972 Y-10.075 E229.46234
G1 X19.907 Y-10.238 E229.47307
G1 X19.592 Y-10.954 E229.52087
G1 X8.485 Y-22.061 E230.48086
G1 X8.557 Y-22.04 E230.48544
G1 X9.375 Y-21.761 E230.53826
G1 X9.567 Y-21.687 E230.55083
G1 X10.371 Y-21.346 E230.60421
G1 X10.55 Y-21.262 E230.61629
G1 X10.564 Y-21.254 E230.61728
G1 X18.344 Y-13.475 E231.28966
G0 F7200 X18.082 Y-14.007
G1 F1237.5 X18.005 Y-14.149 E231.29954
G1 X17.554 Y-14.919 E231.35407
G1 X17.451 Y-15.082 E231.36586
G1 X16.95 Y-15.808 E231.41977
G1 X16.844 Y-15.95 E231.4306
G1 X16.29 Y-16.642 E231.48477
G1 X16.17 Y-16.781 E231.49599
G1 X15.516 Y-17.486 E231.55476
G1 X14.576 Y-18.427 E231.63605
G1 X14.073 Y-18.9 E231.67825
G1 X13.25 Y-19.593 E231.744
G1 X12.244 Y-20.311 E231.81954
G1 X11.476 Y-20.779 E231.8745
G1 X10.564 Y-21.254 E231.93735
G1 F3000 E227.93735
G0 F7200 X-20.908 Y-3.85
;TIME_ELAPSED:139.751284
;LAYER:-5
G0 X-20.908 Y-3.85 Z0.71
;TYPE:SUPPORT-INTERFACE
G1 F3000 E231.93735
G1 F1650 X21.125 Y-3.849 E232.79364
G1 X21.132 Y-3.935 E232.7954
G1 X21.138 Y-4.199 E232.80078
G1 X-20.83 Y-4.2 E233.65574
G1 X-20.752 Y-4.55 E233.66305
G1 X21.146 Y-4.549 E234.51658
G1 X21.154 Y-4.845 E234.52262
G1 X21.154 Y-4.899 E234.52372
G1 X-20.666 Y-4.9 E235.37567
G1 X-20.575 Y-5.25 E235.38303
G1 X21.141 Y-5.249 E236.23287
G1 X21.124 Y-5.599 E236.24
G1 X-20.482 Y-5.6 E237.08759
G1 X-20.379 Y-5.95 E237.09503
G1 X21.105 Y-5.949 E237.94013
G1 X21.09 Y-6.112 E237.94347
G1 X21.067 Y-6.299 E237.94731
G1 X-20.276 Y-6.3 E238.78954
G1 X-20.238 Y-6.429 E238.79228
G1 X-20.159 Y-6.65 E238.79706
G1 X21.024 Y-6.649 E239.63603
G1 X20.982 Y-6.987 E239.64297
G1 X20.981 Y-6.999 E239.64322
G1 X-20.034 Y-7 E240.47877
G1 X-19.967 Y-7.189 E240.48285
G1 X-19.903 Y-7.35 E240.48638
G1 X20.919 Y-7.349 E241.318
G1 X20.85 Y-7.699 E241.32527
G1 X-19.764 Y-7.7 E242.15265
G1 X-19.637 Y-8.023 E242.15972
G1 X-19.625 Y-8.05 E242.16032
G1 X20.78 Y-8.049 E242.98345
G0 F7200 X20.778 Y-8.056
G1 F1650 X20.733 Y-8.25 E242.9875
G1 X20.692 Y-8.399 E242.99065
G1 X-19.472 Y-8.4 E243.80886
G1 X-19.32 Y-8.75 E243.81664
G1 X20.595 Y-8.749 E244.62978
G1 X20.498 Y-9.099 E244.63718
G1 X-19.152 Y-9.1 E245.44492
G1 X-18.974 Y-9.45 E245.45292
G1 X20.382 Y-9.449 E246.25468
G1 X20.258 Y-9.799 E246.26224
G1 X-18.793 Y-9.8 E247.05778
G1 X-18.601 Y-10.15 E247.06591
G1 X20.133 Y-10.149 E247.855
